public/luts/经典胶片/agfa-ultra-100.cube
TITLE "Agfa Ultra 100"
LUT_3D_SIZE 9
DOMAIN_MIN 0.000000 0.000000 0.000000
DOMAIN_MAX 1.000000 1.000000 1.000000
0.000000 0.000000 0.000000
0.386404 0.000000 0.000000
0.549410 0.000000 0.000000
0.691262 0.000000 0.000000
0.816357 0.000000 0.000000
0.924865 0.000000 0.000000
1.000000 0.000000 0.000000
1.000000 0.000000 0.000000
1.000000 0.000000 0.000000
0.000000 0.376673 0.000000
0.347872 0.361876 0.000000
0.526151 0.338014 0.000000
0.675854 0.297064 0.000000
0.808106 0.185156 0.000000
0.923210 0.000000 0.000000
1.000000 0.000000 0.000000
1.000000 0.000000 0.000000
1.000000 0.000000 0.000000
0.000000 0.527202 0.000000
0.304566 0.518961 0.000000
0.498981 0.506829 0.000000
0.654936 0.488822 0.000000
0.788387 0.464130 0.000000
0.902633 0.431425 0.000000
0.997544 0.388156 0.000000
1.000000 0.328303 0.000000
1.000000 0.239027 0.000000
0.000000 0.655818 0.000000
0.246250 0.650347 0.000000
0.466305 0.642444 0.000000
0.630828 0.630889 0.000000
0.768595 0.615907 0.000000
0.885225 0.597581 0.000000
0.981355 0.576053 0.000000
1.000000 0.551513 0.000000
1.000000 0.527128 0.000000
0.000000 0.767750 0.000000
0.163963 0.764040 0.000000
0.429099 0.758424 0.000000
0.604230 0.749997 0.000000
0.747074 0.739317 0.000000
0.866556 0.726703 0.000000
0.964317 0.712551 0.000000
1.000000 0.697385 0.000000
1.000000 0.684020 0.000000
0.000000 0.864020 0.000000
0.000000 0.861688 0.000000
0.388910 0.857325 0.000000
0.576926 0.851011 0.000000
0.725135 0.842765 0.000000
0.847567 0.833244 0.000000
0.947015 0.822876 0.000000
1.000000 0.812203 0.000000
1.000000 0.803658 0.000000
0.000000 0.944791 0.000000
0.000000 0.942957 0.000000
0.349991 0.939444 0.000000
0.551369 0.934544 0.000000
0.704717 0.927963 0.000000
0.829771 0.920374 0.000000
0.930684 0.912313 0.000000
1.000000 0.904298 0.000000
1.000000 0.898516 0.000000
0.000000 1.000000 0.000000
0.000000 1.000000 0.000000
0.319291 1.000000 0.000000
0.530708 0.999479 0.000000
0.688326 0.994360 0.000000
0.815112 0.988080 0.000000
0.916931 0.981565 0.000000
0.993755 0.975313 0.000000
1.000000 0.971365 0.000000
0.000000 1.000000 0.000000
0.000000 1.000000 0.000000
0.323250 1.000000 0.000000
0.527790 1.000000 0.000000
0.684032 1.000000 0.000000
0.810102 1.000000 0.000000
0.911065 1.000000 0.000000
0.987048 1.000000 0.000000
1.000000 1.000000 0.000000
0.000000 0.000000 0.422477
0.372593 0.000000 0.404976
0.543258 0.000000 0.368752
0.688208 0.000000 0.240619
0.815093 0.000000 0.000000
0.924053 0.000000 0.000000
1.000000 0.000000 0.000000
1.000000 0.000000 0.000000
1.000000 0.000000 0.000000
0.000000 0.365183 0.388556
0.334099 0.350044 0.369815
0.520796 0.325054 0.331740
0.673582 0.282882 0.188947
0.808279 0.142069 0.000000
0.923438 0.000000 0.000000
1.000000 0.000000 0.000000
1.000000 0.000000 0.000000
1.000000 0.000000 0.000000
0.000000 0.522230 0.349244
0.287514 0.513445 0.327096
0.492659 0.501292 0.281676
0.651999 0.483922 0.086207
0.787481 0.460684 0.000000
0.902160 0.427416 0.000000
0.997356 0.383195 0.000000
1.000000 0.321423 0.000000
1.000000 0.226520 0.000000
0.000000 0.652840 0.296285
0.224425 0.646936 0.270115
0.459072 0.638923 0.211856
0.627341 0.627817 0.000000
0.767411 0.614135 0.000000
0.884618 0.595842 0.000000
0.981039 0.574155 0.000000
1.000000 0.549408 0.000000
1.000000 0.524745 0.000000
0.000000 0.765834 0.225049
0.129462 0.761725 0.190973
0.420785 0.755815 0.091839
0.600134 0.747633 0.000000
0.745515 0.738008 0.000000
0.865869 0.725728 0.000000
0.963933 0.711515 0.000000
1.000000 0.696280 0.000000
1.000000 0.682824 0.000000
0.000000 0.862753 0.114167
0.000000 0.860096 0.037725
0.379935 0.855465 0.000000
0.572261 0.849057 0.000000
0.723069 0.841552 0.000000
0.846816 0.832650 0.000000
0.946582 0.822250 0.000000
1.000000 0.811541 0.000000
1.000000 0.802948 0.000000
0.000000 0.943885 0.000000
0.000000 0.941940 0.000000
0.340608 0.938164 0.000000
0.546283 0.932911 0.000000
0.701960 0.926646 0.000000
0.828966 0.920010 0.000000
0.930210 0.911927 0.000000
1.000000 0.903889 0.000000
1.000000 0.898074 0.000000
0.000000 1.000000 0.000000
0.000000 1.000000 0.000000
0.310051 1.000000 0.000000
0.525892 0.998341 0.000000
0.685023 0.993014 0.000000
0.813951 0.987633 0.000000
0.916422 0.981341 0.000000
0.993481 0.975073 0.000000
1.000000 0.971099 0.000000
0.000000 1.000000 0.000000
0.000000 1.000000 0.000000
0.314437 1.000000 0.000000
0.523619 1.000000 0.000000
0.680686 1.000000 0.000000
0.808186 1.000000 0.000000
0.910496 1.000000 0.000000
0.986719 1.000000 0.000000
1.000000 1.000000 0.000000
0.000000 0.000000 0.583798
0.339351 0.000000 0.575466
0.530152 0.000000 0.559219
0.680117 0.000000 0.533256
0.809141 0.000000 0.493507
0.920064 0.000000 0.431149
1.000000 0.000000 0.314370
1.000000 0.000000 0.000000
1.000000 0.000000 0.000000
0.000000 0.339164 0.563959
0.302019 0.323863 0.555704
0.510319 0.293362 0.540366
0.670005 0.203092 0.519367
0.805777 0.000000 0.487473
0.920300 0.000000 0.432602
1.000000 0.000000 0.317230
1.000000 0.000000 0.000000
1.000000 0.000000 0.000000
0.000000 0.511769 0.537556
0.246335 0.503661 0.528205
0.479870 0.490555 0.511176
0.644826 0.471626 0.483852
0.782304 0.445748 0.441753
0.898955 0.411350 0.374423
0.995661 0.365470 0.238700
1.000000 0.302447 0.000000
1.000000 0.188276 0.000000
0.000000 0.647457 0.506173
0.167106 0.641404 0.495417
0.444655 0.632913 0.476941
0.619591 0.621155 0.446684
0.761776 0.606074 0.399069
0.880955 0.587782 0.319634
0.978916 0.566567 0.123394
1.000000 0.543956 0.000000
1.000000 0.518559 0.000000
0.000000 0.762893 0.469597
0.000000 0.758100 0.457591
0.404587 0.751887 0.437407
0.591941 0.743381 0.403541
0.739655 0.732773 0.348725
0.861858 0.720384 0.250732
0.961520 0.706716 0.000000
1.000000 0.693286 0.000000
1.000000 0.679754 0.000000
0.000000 0.860921 0.428336
0.000000 0.857544 0.416380
0.361621 0.852703 0.394084
0.563542 0.846070 0.355521
0.717130 0.837934 0.290341
0.842468 0.828656 0.154844
0.943894 0.818743 0.000000
1.000000 0.809395 0.000000
1.000000 0.801130 0.000000
0.000000 0.942175 0.385930
0.000000 0.940077 0.375013
0.319889 0.936149 0.350200
0.537088 0.930730 0.305645
0.696128 0.924154 0.224878
0.824274 0.916796 0.000000
0.927238 0.909138 0.000000
1.000000 0.902056 0.000000
1.000000 0.896946 0.000000
0.000000 1.000000 0.350743
0.000000 1.000000 0.339313
0.287209 1.000000 0.311986
0.516350 0.996718 0.260800
0.679186 0.991205 0.157445
0.809223 0.985138 0.000000
0.913159 0.978981 0.000000
0.991708 0.973359 0.000000
1.000000 0.970418 0.000000
0.000000 1.000000 0.343893
0.000000 1.000000 0.332861
0.292252 1.000000 0.305711
0.513991 1.000000 0.254124
0.674775 1.000000 0.148181
0.803752 1.000000 0.000000
0.906869 1.000000 0.000000
0.984555 1.000000 0.000000
1.000000 1.000000 0.000000
0.000000 0.000000 0.720624
0.199877 0.000000 0.717307
0.507123 0.000000 0.705497
0.667595 0.000000 0.690037
0.801023 0.000000 0.668720
0.914305 0.000000 0.640334
1.000000 0.000000 0.602952
1.000000 0.000000 0.552833
1.000000 0.000000 0.484027
0.000000 0.246616 0.711937
0.171648 0.225087 0.709259
0.498758 0.139965 0.699541
0.665318 0.000000 0.687636
0.801412 0.000000 0.669173
0.914550 0.000000 0.640844
1.000000 0.000000 0.603548
1.000000 0.000000 0.553575
1.000000 0.000000 0.485066
0.000000 0.493727 0.687630
0.000000 0.488457 0.683750
0.457615 0.472406 0.672269
0.634001 0.451645 0.657102
0.775874 0.423085 0.636413
0.894815 0.384304 0.609190
0.992880 0.330222 0.573871
1.000000 0.245534 0.527538
1.000000 0.000000 0.470185
0.000000 0.637509 0.663557
0.000000 0.633194 0.658562
0.419099 0.623429 0.646921
0.607414 0.611029 0.630661
0.754459 0.595195 0.608216
0.876085 0.575900 0.578281
0.975434 0.553230 0.538674
1.000000 0.527328 0.484978
1.000000 0.501326 0.409741
0.000000 0.756825 0.636971
0.000000 0.752672 0.630564
0.375354 0.745911 0.618870
0.578645 0.737039 0.601567
0.731730 0.726040 0.577451
0.856567 0.713159 0.544973
0.957709 0.698798 0.501434
1.000000 0.683512 0.441146
1.000000 0.670117 0.353144
0.000000 0.857837 0.609304
0.000000 0.853820 0.601550
0.327807 0.848615 0.589458
0.549171 0.841729 0.571078
0.708687 0.833333 0.545193
0.836850 0.823737 0.509978
0.939853 0.813380 0.462079
1.000000 0.802830 0.394052
1.000000 0.794499 0.288820
0.000000 0.940553 0.581098
0.000000 0.937424 0.573508
0.280508 0.933241 0.561044
0.521709 0.927629 0.541602
0.687233 0.920858 0.513919
0.818387 0.913265 0.475839
0.923020 0.905284 0.423187
1.000000 0.897454 0.345991
1.000000 0.891934 0.214941
0.000000 1.000000 0.555768
0.000000 1.000000 0.549767
0.242443 0.999205 0.537039
0.500176 0.994470 0.516714
0.669937 0.988799 0.487457
0.803125 0.982545 0.446780
0.908808 0.976135 0.389608
0.988327 0.970084 0.302777
1.000000 0.966401 0.131163
0.000000 1.000000 0.547631
0.000000 1.000000 0.542003
0.248855 1.000000 0.529401
0.497475 1.000000 0.508870
0.665191 1.000000 0.479073
0.797375 1.000000 0.437418
0.902290 1.000000 0.378496
0.981022 1.000000 0.287838
1.000000 1.000000 0.093001
0.000000 0.000000 0.839423
0.000000 0.000000 0.838424
0.469224 0.000000 0.829351
0.648936 0.000000 0.818287
0.789475 0.000000 0.803938
0.906484 0.000000 0.785940
1.000000 0.000000 0.764000
1.000000 0.000000 0.737718
1.000000 0.000000 0.708153
0.000000 0.000000 0.839672
0.000000 0.000000 0.838674
0.470832 0.000000 0.829561
0.649645 0.000000 0.818519
0.789882 0.000000 0.804189
0.906738 0.000000 0.786211
1.000000 0.000000 0.764298
1.000000 0.000000 0.738050
1.000000 0.000000 0.708536
0.000000 0.465165 0.815124
0.000000 0.463277 0.814301
0.421185 0.443726 0.805266
0.618318 0.419625 0.794859
0.767177 0.386109 0.781640
0.889699 0.338739 0.765470
0.990065 0.266428 0.746442
1.000000 0.107676 0.725034
1.000000 0.000000 0.709508
0.000000 0.622985 0.794614
0.000000 0.622141 0.793691
0.376193 0.609786 0.783933
0.589405 0.596399 0.772855
0.744237 0.579507 0.758557
0.869684 0.558883 0.740768
0.971320 0.534466 0.719288
1.000000 0.506202 0.693836
1.000000 0.476894 0.665843
0.000000 0.747717 0.772593
0.000000 0.746771 0.771154
0.324922 0.737668 0.761044
0.558803 0.728257 0.749456
0.720540 0.716759 0.734349
0.849490 0.703318 0.715415
0.953045 0.688290 0.692375
1.000000 0.672192 0.664812
1.000000 0.657712 0.634095
0.000000 0.851605 0.749975
0.000000 0.849776 0.747107
0.266997 0.843153 0.737417
0.527560 0.835901 0.725370
0.696676 0.827187 0.709507
0.829249 0.817256 0.689506
0.934794 0.806516 0.665021
1.000000 0.795512 0.635529
1.000000 0.786553 0.602411
0.000000 0.937070 0.728482
0.000000 0.934177 0.723590
0.204790 0.929479 0.714771
0.498414 0.923591 0.702321
0.674498 0.916587 0.685760
0.810343 0.908754 0.664754
0.917640 0.900504 0.638901
0.998470 0.892361 0.607568
1.000000 0.886389 0.572179
0.000000 1.000000 0.710190
0.000000 1.000000 0.704146
0.148227 0.996603 0.695477
0.475521 0.991648 0.682728
0.656615 0.985790 0.665594
0.794719 0.979346 0.643741
0.903164 0.972725 0.616715
0.984465 0.966430 0.583785
1.000000 0.962385 0.546448
0.000000 1.000000 0.700432
0.000000 1.000000 0.695937
0.159973 1.000000 0.687483
0.472188 1.000000 0.674621
0.651285 1.000000 0.657147
0.788479 1.000000 0.634729
0.896223 1.000000 0.606873
0.976780 1.000000 0.572771
1.000000 1.000000 0.533985
0.000000 0.000000 0.941827
0.000000 0.000000 0.941186
0.404378 0.000000 0.935286
0.622294 0.000000 0.926405
0.773807 0.000000 0.915648
0.896213 0.000000 0.902730
0.995419 0.000000 0.887680
1.000000 0.000000 0.870613
1.000000 0.000000 0.852922
0.000000 0.000000 0.941987
0.000000 0.000000 0.941347
0.406657 0.000000 0.935403
0.623082 0.000000 0.926544
0.774239 0.000000 0.915799
0.896478 0.000000 0.902892
0.995584 0.000000 0.887855
1.000000 0.000000 0.870802
1.000000 0.000000 0.853133
0.000000 0.419764 0.924436
0.000000 0.417312 0.923985
0.358934 0.397900 0.918310
0.596786 0.366688 0.910273
0.756201 0.321797 0.900895
0.883898 0.250420 0.890172
0.988696 0.000000 0.879784
1.000000 0.000000 0.871285
1.000000 0.000000 0.853671
0.000000 0.602804 0.905523
0.000000 0.601876 0.904978
0.298794 0.591146 0.898716
0.563831 0.576141 0.890113
0.730608 0.557665 0.879776
0.861532 0.535067 0.867542
0.966383 0.508039 0.853544
1.000000 0.476196 0.838025
1.000000 0.441790 0.822656
0.000000 0.735606 0.886012
0.000000 0.735096 0.885417
0.226926 0.726975 0.878564
0.530316 0.716707 0.869652
0.705465 0.704522 0.858785
0.840337 0.690344 0.845809
0.947290 0.674464 0.830825
1.000000 0.657364 0.814022
1.000000 0.641591 0.797067
0.000000 0.843543 0.866196
0.000000 0.843231 0.865561
0.126579 0.836309 0.858011
0.496257 0.828484 0.848867
0.680400 0.819348 0.837556
0.819346 0.808997 0.823964
0.928477 0.797803 0.808179
1.000000 0.786293 0.790372
1.000000 0.776659 0.772281
0.000000 0.931460 0.847385
0.000000 0.931266 0.846715
0.000000 0.924924 0.838351
0.464381 0.918614 0.829032
0.657162 0.911302 0.817339
0.799807 0.903177 0.803202
0.910867 0.894623 0.786709
0.994141 0.886147 0.768018
1.000000 0.879712 0.748968
0.000000 0.999829 0.831393
0.000000 0.998887 0.829636
0.000000 0.993590 0.821420
0.439240 0.988305 0.811997
0.638416 0.982203 0.800004
0.783662 0.975531 0.785419
0.896012 0.968676 0.768336
0.979830 0.962130 0.748902
1.000000 0.957720 0.729075
0.000000 1.000000 0.824068
0.000000 1.000000 0.819971
0.000000 1.000000 0.813103
0.434880 1.000000 0.803635
0.632202 1.000000 0.791396
0.776699 1.000000 0.776398
0.888451 1.000000 0.758729
0.971590 1.000000 0.738519
1.000000 1.000000 0.717816
0.000000 0.000000 1.000000
0.000000 0.000000 1.000000
0.205016 0.000000 1.000000
0.584522 0.000000 1.000000
0.753132 0.000000 1.000000
0.883117 0.000000 0.997707
0.986721 0.000000 0.986552
1.000000 0.000000 0.974444
1.000000 0.000000 0.962631
0.000000 0.000000 1.000000
0.000000 0.000000 1.000000
0.217574 0.000000 1.000000
0.585442 0.000000 1.000000
0.753599 0.000000 1.000000
0.883397 0.000000 0.997805
0.986895 0.000000 0.986659
1.000000 0.000000 0.974560
1.000000 0.000000 0.962760
0.000000 0.337819 1.000000
0.000000 0.333614 1.000000
0.174604 0.314606 1.000000
0.568746 0.257491 1.000000
0.746461 0.060023 1.000000
0.882954 0.000000 0.997075
0.987335 0.000000 0.986931
1.000000 0.000000 0.974853
1.000000 0.000000 0.963087
0.000000 0.575225 0.998016
0.000000 0.574170 0.997705
0.000000 0.566653 0.994592
0.527711 0.548462 0.986939
0.712966 0.527510 0.978856
0.851485 0.501811 0.969782
0.960636 0.470552 0.959907
1.000000 0.432626 0.949595
1.000000 0.388897 0.940323
0.000000 0.720010 0.979802
0.000000 0.719462 0.979448
0.000000 0.713840 0.975737
0.489431 0.701984 0.967965
0.685686 0.688832 0.959460
0.828835 0.673656 0.949789
0.940347 0.656637 0.939118
1.000000 0.638197 0.927764
1.000000 0.620681 0.917179
0.000000 0.833482 0.961566
0.000000 0.833153 0.961182
0.000000 0.828234 0.956824
0.450712 0.819381 0.948990
0.658912 0.809664 0.940176
0.806811 0.798774 0.930068
0.920768 0.787010 0.918835
1.000000 0.774877 0.906790
1.000000 0.764405 0.895442
0.000000 0.924638 0.944274
0.000000 0.924434 0.943864
0.000000 0.919748 0.938762
0.414162 0.912706 0.930919
0.634170 0.904979 0.921857
0.786414 0.896487 0.911383
0.902547 0.887562 0.899683
0.989063 0.878695 0.887067
1.000000 0.871705 0.875130
0.000000 0.995171 0.929415
0.000000 0.995049 0.928984
0.000000 0.990337 0.923052
0.385040 0.984504 0.915248
0.614192 0.978073 0.906002
0.769560 0.971118 0.895237
0.887185 0.963985 0.883152
0.974347 0.957149 0.870066
1.000000 0.952310 0.857669
0.000000 1.000000 0.921535
0.000000 1.000000 0.921070
0.000000 1.000000 0.914228
0.378990 1.000000 0.906467
0.606704 1.000000 0.897029
0.761594 1.000000 0.885926
0.878780 1.000000 0.873370
0.965355 1.000000 0.859670
1.000000 1.000000 0.846601
0.000000 0.000000 1.000000
0.000000 0.000000 1.000000
0.000000 0.000000 1.000000
0.529178 0.000000 1.000000
0.726134 0.000000 1.000000
0.866721 0.000000 1.000000
0.976136 0.000000 1.000000
1.000000 0.000000 1.000000
1.000000 0.000000 1.000000
0.000000 0.000000 1.000000
0.000000 0.000000 1.000000
0.000000 0.000000 1.000000
0.530350 0.000000 1.000000
0.726651 0.000000 1.000000
0.867020 0.000000 1.000000
0.976319 0.000000 1.000000
1.000000 0.000000 1.000000
1.000000 0.000000 1.000000
0.000000 0.000000 1.000000
0.000000 0.000000 1.000000
0.000000 0.000000 1.000000
0.533302 0.000000 1.000000
0.727963 0.000000 1.000000
0.867778 0.000000 1.000000
0.976783 0.000000 1.000000
1.000000 0.000000 1.000000
1.000000 0.000000 1.000000
0.000000 0.537078 1.000000
0.000000 0.535812 1.000000
0.000000 0.532553 1.000000
0.474901 0.510055 1.000000
0.690495 0.484898 1.000000
0.839458 0.453819 1.000000
0.954218 0.414750 1.000000
1.000000 0.364395 1.000000
1.000000 0.298049 1.000000
0.000000 0.700235 1.000000
0.000000 0.699637 1.000000
0.000000 0.698105 1.000000
0.427977 0.683542 1.000000
0.659987 0.668983 1.000000
0.814650 0.652433 1.000000
0.932133 0.633849 1.000000
1.000000 0.613559 1.000000
1.000000 0.593592 1.000000
0.000000 0.821202 1.000000
0.000000 0.820852 1.000000
0.000000 0.819958 1.000000
0.380459 0.808487 1.000000
0.630768 0.797953 1.000000
0.791223 0.786360 1.000000
0.911528 0.773872 1.000000
1.000000 0.760954 0.995297
1.000000 0.749409 0.987795
0.000000 0.916544 1.000000
0.000000 0.916328 1.000000
0.000000 0.915710 1.000000
0.334338 0.905901 1.000000
0.603886 0.897593 1.000000
0.769683 0.888633 0.994712
0.892510 0.879251 0.985895
0.983189 0.869911 0.976861
1.000000 0.862233 0.968922
0.000000 0.989810 1.000000
0.000000 0.989681 1.000000
0.000000 0.987788 1.000000
0.296311 0.980330 0.995483
0.582151 0.973446 0.987820
0.751888 0.966133 0.979344
0.876494 0.958661 0.970239
0.967954 0.951483 0.960856
1.000000 0.946119 0.952588
0.000000 1.000000 0.997207
0.000000 1.000000 0.996923
0.000000 1.000000 0.993225
0.286903 1.000000 0.986045
0.572836 1.000000 0.978230
0.742570 1.000000 0.969459
0.866977 1.000000 0.959941
0.957985 1.000000 0.950026
1.000000 1.000000 0.941185
0.000000 0.000000 1.000000
0.000000 0.000000 1.000000
0.000000 0.000000 1.000000
0.439153 0.000000 1.000000
0.691109 0.000000 1.000000
0.846653 0.000000 1.000000
0.963596 0.000000 1.000000
1.000000 0.000000 1.000000
1.000000 0.000000 1.000000
0.000000 0.000000 1.000000
0.000000 0.000000 1.000000
0.000000 0.000000 1.000000
0.440978 0.000000 1.000000
0.691702 0.000000 1.000000
0.846978 0.000000 1.000000
0.963792 0.000000 1.000000
1.000000 0.000000 1.000000
1.000000 0.000000 1.000000
0.000000 0.000000 1.000000
0.000000 0.000000 1.000000
0.000000 0.000000 1.000000
0.445544 0.000000 1.000000
0.693206 0.000000 1.000000
0.847802 0.000000 1.000000
0.964288 0.000000 1.000000
1.000000 0.000000 1.000000
1.000000 0.000000 1.000000
0.000000 0.482283 1.000000
0.000000 0.480598 1.000000
0.000000 0.476238 1.000000
0.389154 0.454343 1.000000
0.662571 0.420635 1.000000
0.825880 0.377905 1.000000
0.947805 0.319090 1.000000
1.000000 0.225927 1.000000
1.000000 0.000000 1.000000
0.000000 0.675755 1.000000
0.000000 0.675082 1.000000
0.000000 0.673357 1.000000
0.321730 0.661152 1.000000
0.626885 0.644372 1.000000
0.797656 0.625835 1.000000
0.922780 0.604974 1.000000
1.000000 0.581931 1.000000
1.000000 0.558221 1.000000
0.000000 0.806832 1.000000
0.000000 0.806452 1.000000
0.000000 0.805481 1.000000
0.249379 0.796149 1.000000
0.594118 0.784353 1.000000
0.772344 0.771799 1.000000
0.900817 0.758331 1.000000
0.995208 0.744342 1.000000
1.000000 0.731312 1.000000
0.000000 0.907474 1.000000
0.000000 0.907241 1.000000
0.000000 0.906649 1.000000
0.165253 0.898649 1.000000
0.564152 0.889452 1.000000
0.749316 0.879858 1.000000
0.880797 0.869867 1.000000
0.976631 0.859889 1.000000
1.000000 0.851277 1.000000
0.000000 0.984107 1.000000
0.000000 0.983967 1.000000
0.000000 0.983609 1.000000
0.057535 0.976261 1.000000
0.539884 0.968687 1.000000
0.730317 0.960890 1.000000
0.863971 0.952966 1.000000
0.960766 0.945325 1.000000
1.000000 0.939250 1.000000
0.000000 1.000000 1.000000
0.000000 1.000000 1.000000
0.000000 1.000000 1.000000
0.004041 1.000000 1.000000
0.527935 1.000000 1.000000
0.719223 1.000000 1.000000
0.853042 1.000000 1.000000
0.949576 1.000000 1.000000
1.000000 1.000000 1.000000
