public/luts/经典胶片/agfa-ultra-100.cube
TITLE "Agfa Ultra 100"
LUT_3D_SIZE 33
DOMAIN_MIN 0.000000 0.000000 0.000000
DOMAIN_MAX 1.000000 1.000000 1.000000
0.000000 0.000000 0.000000
0.164505 0.000000 0.000000
0.252297 0.000000 0.000000
0.340585 0.000000 0.000000
0.386404 0.000000 0.000000
0.429768 0.000000 0.000000
0.471193 0.000000 0.000000
0.511002 0.000000 0.000000
0.549410 0.000000 0.000000
0.586558 0.000000 0.000000
0.622544 0.000000 0.000000
0.657431 0.000000 0.000000
0.691262 0.000000 0.000000
0.724061 0.000000 0.000000
0.755843 0.000000 0.000000
0.786610 0.000000 0.000000
0.816357 0.000000 0.000000
0.845075 0.000000 0.000000
0.872747 0.000000 0.000000
0.899351 0.000000 0.000000
0.924865 0.000000 0.000000
0.949257 0.000000 0.000000
0.972495 0.000000 0.000000
0.994544 0.000000 0.000000
1.000000 0.000000 0.000000
1.000000 0.000000 0.000000
1.000000 0.000000 0.000000
1.000000 0.000000 0.000000
1.000000 0.000000 0.000000
1.000000 0.000000 0.000000
1.000000 0.000000 0.000000
1.000000 0.000000 0.000000
1.000000 0.000000 0.000000
0.000000 0.159626 0.000000
0.147013 0.150535 0.000000
0.242426 0.138782 0.000000
0.333695 0.119461 0.000000
0.381026 0.099150 0.000000
0.425675 0.068862 0.000000
0.468236 0.015241 0.000000
0.509080 0.000000 0.000000
0.548450 0.000000 0.000000
0.586506 0.000000 0.000000
0.622681 0.000000 0.000000
0.657550 0.000000 0.000000
0.691365 0.000000 0.000000
0.724152 0.000000 0.000000
0.755923 0.000000 0.000000
0.786681 0.000000 0.000000
0.816421 0.000000 0.000000
0.845132 0.000000 0.000000
0.872797 0.000000 0.000000
0.899397 0.000000 0.000000
0.924906 0.000000 0.000000
0.949294 0.000000 0.000000
0.972528 0.000000 0.000000
0.994573 0.000000 0.000000
1.000000 0.000000 0.000000
1.000000 0.000000 0.000000
1.000000 0.000000 0.000000
1.000000 0.000000 0.000000
1.000000 0.000000 0.000000
1.000000 0.000000 0.000000
1.000000 0.000000 0.000000
1.000000 0.000000 0.000000
1.000000 0.000000 0.000000
0.000000 0.245337 0.000000
0.120333 0.239568 0.000000
0.228058 0.232387 0.000000
0.323364 0.221453 0.000000
0.372227 0.210891 0.000000
0.418024 0.197546 0.000000
0.461487 0.180700 0.000000
0.503065 0.159162 0.000000
0.543047 0.130634 0.000000
0.581626 0.089296 0.000000
0.618930 0.009829 0.000000
0.655045 0.000000 0.000000
0.690031 0.000000 0.000000
0.723920 0.000000 0.000000
0.756015 0.000000 0.000000
0.786762 0.000000 0.000000
0.816493 0.000000 0.000000
0.845196 0.000000 0.000000
0.872855 0.000000 0.000000
0.899449 0.000000 0.000000
0.924952 0.000000 0.000000
0.949335 0.000000 0.000000
0.972565 0.000000 0.000000
0.994606 0.000000 0.000000
1.000000 0.000000 0.000000
1.000000 0.000000 0.000000
1.000000 0.000000 0.000000
1.000000 0.000000 0.000000
1.000000 0.000000 0.000000
1.000000 0.000000 0.000000
1.000000 0.000000 0.000000
1.000000 0.000000 0.000000
1.000000 0.000000 0.000000
0.000000 0.333751 0.000000
0.059257 0.330532 0.000000
0.202574 0.326142 0.000000
0.305992 0.318625 0.000000
0.357621 0.311379 0.000000
0.405423 0.302465 0.000000
0.450423 0.291661 0.000000
0.493227 0.278682 0.000000
0.534217 0.263141 0.000000
0.573646 0.244489 0.000000
0.611680 0.221882 0.000000
0.648436 0.193888 0.000000
0.683989 0.157662 0.000000
0.718391 0.105590 0.000000
0.751672 0.000000 0.000000
0.783848 0.000000 0.000000
0.814924 0.000000 0.000000
0.844895 0.000000 0.000000
0.872938 0.000000 0.000000
0.899523 0.000000 0.000000
0.925018 0.000000 0.000000
0.949395 0.000000 0.000000
0.972619 0.000000 0.000000
0.994654 0.000000 0.000000
1.000000 0.000000 0.000000
1.000000 0.000000 0.000000
1.000000 0.000000 0.000000
1.000000 0.000000 0.000000
1.000000 0.000000 0.000000
1.000000 0.000000 0.000000
1.000000 0.000000 0.000000
1.000000 0.000000 0.000000
1.000000 0.000000 0.000000
0.000000 0.376673 0.000000
0.002951 0.374016 0.000000
0.187709 0.370709 0.000000
0.295024 0.365899 0.000000
0.347872 0.361876 0.000000
0.396436 0.357140 0.000000
0.441913 0.351633 0.000000
0.485005 0.345286 0.000000
0.526151 0.338014 0.000000
0.565641 0.329712 0.000000
0.603672 0.320246 0.000000
0.640378 0.309441 0.000000
0.675854 0.297064 0.000000
0.710168 0.282790 0.000000
0.743641 0.261765 0.000000
0.776448 0.228046 0.000000
0.808106 0.185156 0.000000
0.838620 0.124266 0.000000
0.867986 0.000000 0.000000
0.896189 0.000000 0.000000
0.923210 0.000000 0.000000
0.949020 0.000000 0.000000
0.972690 0.000000 0.000000
0.994718 0.000000 0.000000
1.000000 0.000000 0.000000
1.000000 0.000000 0.000000
1.000000 0.000000 0.000000
1.000000 0.000000 0.000000
1.000000 0.000000 0.000000
1.000000 0.000000 0.000000
1.000000 0.000000 0.000000
1.000000 0.000000 0.000000
1.000000 0.000000 0.000000
0.000000 0.417038 0.000000
0.000000 0.414759 0.000000
0.171534 0.411959 0.000000
0.283576 0.407946 0.000000
0.338207 0.404621 0.000000
0.388006 0.400740 0.000000
0.434394 0.396272 0.000000
0.478184 0.391180 0.000000
0.519878 0.385420 0.000000
0.559804 0.378942 0.000000
0.598185 0.371683 0.000000
0.635172 0.363570 0.000000
0.670871 0.354509 0.000000
0.705357 0.344387 0.000000
0.738678 0.333053 0.000000
0.770870 0.320314 0.000000
0.801953 0.305902 0.000000
0.831937 0.289446 0.000000
0.860826 0.270392 0.000000
0.888619 0.247875 0.000000
0.915512 0.215182 0.000000
0.941921 0.148175 0.000000
0.967069 0.000449 0.000000
0.990923 0.000000 0.000000
1.000000 0.000000 0.000000
1.000000 0.000000 0.000000
1.000000 0.000000 0.000000
1.000000 0.000000 0.000000
1.000000 0.000000 0.000000
1.000000 0.000000 0.000000
1.000000 0.000000 0.000000
1.000000 0.000000 0.000000
1.000000 0.000000 0.000000
0.000000 0.455373 0.000000
0.000000 0.453369 0.000000
0.153568 0.450907 0.000000
0.271109 0.447532 0.000000
0.327794 0.444700 0.000000
0.378988 0.441412 0.000000
0.426394 0.437650 0.000000
0.470961 0.433395 0.000000
0.513268 0.428621 0.000000
0.553687 0.423299 0.000000
0.592468 0.417398 0.000000
0.629785 0.410880 0.000000
0.665756 0.403700 0.000000
0.700465 0.395806 0.000000
0.733969 0.387134 0.000000
0.766306 0.377607 0.000000
0.797499 0.367127 0.000000
0.827562 0.355572 0.000000
0.856496 0.342783 0.000000
0.884299 0.328547 0.000000
0.910960 0.312576 0.000000
0.936465 0.294458 0.000000
0.960795 0.273575 0.000000
0.983928 0.248944 0.000000
1.000000 0.218824 0.000000
1.000000 0.178909 0.000000
1.000000 0.041951 0.000000
1.000000 0.000000 0.000000
1.000000 0.000000 0.000000
1.000000 0.000000 0.000000
1.000000 0.000000 0.000000
1.000000 0.000000 0.000000
1.000000 0.000000 0.000000
0.000000 0.492019 0.000000
0.000000 0.490222 0.000000
0.133530 0.488016 0.000000
0.257496 0.485144 0.000000
0.316595 0.482693 0.000000
0.369361 0.479842 0.000000
0.417898 0.476595 0.000000
0.463323 0.472939 0.000000
0.506303 0.468861 0.000000
0.547264 0.464343 0.000000
0.586489 0.459367 0.000000
0.624173 0.453913 0.000000
0.660451 0.447957 0.000000
0.695417 0.441473 0.000000
0.729137 0.434428 0.000000
0.761655 0.426786 0.000000
0.792998 0.418504 0.000000
0.823182 0.409531 0.000000
0.852212 0.399802 0.000000
0.880086 0.389239 0.000000
0.906794 0.377746 0.000000
0.932320 0.365197 0.000000
0.956644 0.351431 0.000000
0.979740 0.336230 0.000000
1.000000 0.319298 0.000000
1.000000 0.300209 0.000000
1.000000 0.278323 0.000000
1.000000 0.252610 0.000000
1.000000 0.221236 0.000000
1.000000 0.180366 0.000000
1.000000 0.100803 0.000000
1.000000 0.000000 0.000000
1.000000 0.000000 0.000000
0.000000 0.527202 0.000000
0.000000 0.525567 0.000000
0.110787 0.523560 0.000000
0.242543 0.521080 0.000000
0.304566 0.518961 0.000000
0.359111 0.516446 0.000000
0.408902 0.513591 0.000000
0.455268 0.510388 0.000000
0.498981 0.506829 0.000000
0.540531 0.502904 0.000000
0.580238 0.498603 0.000000
0.618322 0.493913 0.000000
0.654936 0.488822 0.000000
0.690186 0.483316 0.000000
0.724147 0.477377 0.000000
0.756869 0.470989 0.000000
0.788387 0.464130 0.000000
0.818718 0.456775 0.000000
0.847871 0.448896 0.000000
0.875845 0.440459 0.000000
0.902633 0.431425 0.000000
0.928220 0.421744 0.000000
0.952586 0.411358 0.000000
0.975704 0.400193 0.000000
0.997544 0.388156 0.000000
1.000000 0.375131 0.000000
1.000000 0.360963 0.000000
1.000000 0.345447 0.000000
1.000000 0.328303 0.000000
1.000000 0.309128 0.000000
1.000000 0.287323 0.000000
1.000000 0.265483 0.000000
1.000000 0.239027 0.000000
0.000000 0.561079 0.000000
0.000000 0.559572 0.000000
0.084067 0.557725 0.000000
0.226115 0.555583 0.000000
0.291599 0.553714 0.000000
0.348223 0.551493 0.000000
0.399406 0.548947 0.000000
0.446799 0.546099 0.000000
0.491308 0.542943 0.000000
0.533492 0.539474 0.000000
0.573718 0.535687 0.000000
0.612232 0.531574 0.000000
0.649207 0.527130 0.000000
0.684764 0.522345 0.000000
0.718986 0.517212 0.000000
0.751933 0.511723 0.000000
0.783642 0.505866 0.000000
0.814138 0.499630 0.000000
0.843432 0.493004 0.000000
0.871526 0.485970 0.000000
0.898414 0.478513 0.000000
0.924083 0.470613 0.000000
0.948514 0.462245 0.000000
0.971681 0.453380 0.000000
0.993555 0.443986 0.000000
1.000000 0.434020 0.000000
1.000000 0.423432 0.000000
1.000000 0.412158 0.000000
1.000000 0.400120 0.000000
1.000000 0.387215 0.000000
1.000000 0.373312 0.000000
1.000000 0.360708 0.000000
1.000000 0.346719 0.000000
0.000000 0.593760 0.000000
0.000000 0.592356 0.000000
0.050058 0.590639 0.000000
0.207937 0.588799 0.000000
0.277603 0.587115 0.000000
0.336681 0.585163 0.000000
0.389409 0.582868 0.000000
0.437925 0.580305 0.000000
0.483294 0.577472 0.000000
0.526159 0.574366 0.000000
0.566938 0.570984 0.000000
0.605911 0.567324 0.000000
0.643271 0.563381 0.000000
0.679154 0.559152 0.000000
0.713656 0.554634 0.000000
0.746842 0.549823 0.000000
0.778759 0.544714 0.000000
0.809433 0.539303 0.000000
0.838882 0.533585 0.000000
0.867108 0.527554 0.000000
0.894110 0.521204 0.000000
0.919875 0.514527 0.000000
0.944386 0.507515 0.000000
0.967618 0.500158 0.000000
0.989543 0.492443 0.000000
1.000000 0.484357 0.000000
1.000000 0.475883 0.000000
1.000000 0.466999 0.000000
1.000000 0.457681 0.000000
1.000000 0.447899 0.000000
1.000000 0.437613 0.000000
1.000000 0.428784 0.000000
1.000000 0.419268 0.000000
0.000000 0.625321 0.000000
0.000000 0.624003 0.000000
0.006393 0.622392 0.000000
0.187588 0.620828 0.000000
0.262529 0.619299 0.000000
0.324378 0.617541 0.000000
0.378918 0.615494 0.000000
0.428659 0.613166 0.000000
0.474953 0.610597 0.000000
0.518546 0.607787 0.000000
0.559914 0.604734 0.000000
0.599373 0.601437 0.000000
0.637139 0.597896 0.000000
0.673367 0.594110 0.000000
0.708164 0.590077 0.000000
0.741604 0.585796 0.000000
0.773740 0.581268 0.000000
0.804605 0.576492 0.000000
0.834218 0.571466 0.000000
0.862588 0.566190 0.000000
0.889713 0.560663 0.000000
0.915584 0.554885 0.000000
0.940185 0.548853 0.000000
0.963493 0.542568 0.000000
0.985480 0.536026 0.000000
1.000000 0.529225 0.000000
1.000000 0.522163 0.000000
1.000000 0.514834 0.000000
1.000000 0.507234 0.000000
1.000000 0.499355 0.000000
1.000000 0.491190 0.000000
1.000000 0.484462 0.000000
1.000000 0.477309 0.000000
0.000000 0.655818 0.000000
0.000000 0.654571 0.000000
0.000000 0.653049 0.000000
0.164386 0.651743 0.000000
0.246250 0.650347 0.000000
0.311319 0.648739 0.000000
0.367937 0.646923 0.000000
0.419015 0.644792 0.000000
0.466305 0.642444 0.000000
0.510673 0.639879 0.000000
0.552664 0.637098 0.000000
0.592634 0.634101 0.000000
0.630828 0.630889 0.000000
0.667418 0.627463 0.000000
0.702523 0.623823 0.000000
0.736229 0.619971 0.000000
0.768595 0.615907 0.000000
0.799660 0.611635 0.000000
0.829447 0.607155 0.000000
0.857968 0.602469 0.000000
0.885225 0.597581 0.000000
0.911210 0.592493 0.000000
0.935908 0.587206 0.000000
0.959300 0.581726 0.000000
0.981355 0.576053 0.000000
1.000000 0.570193 0.000000
1.000000 0.564147 0.000000
1.000000 0.557919 0.000000
1.000000 0.551513 0.000000
1.000000 0.544931 0.000000
1.000000 0.538177 0.000000
1.000000 0.532801 0.000000
1.000000 0.527128 0.000000
0.000000 0.685289 0.000000
0.000000 0.684100 0.000000
0.000000 0.682664 0.000000
0.137102 0.681594 0.000000
0.228586 0.680312 0.000000
0.297503 0.678834 0.000000
0.356348 0.677167 0.000000
0.409013 0.675261 0.000000
0.457371 0.673100 0.000000
0.502563 0.670742 0.000000
0.545210 0.668190 0.000000
0.585716 0.665445 0.000000
0.624357 0.662508 0.000000
0.661323 0.659380 0.000000
0.696750 0.656066 0.000000
0.730733 0.652566 0.000000
0.763338 0.648883 0.000000
0.794610 0.645021 0.000000
0.824578 0.640983 0.000000
0.853258 0.636773 0.000000
0.880652 0.632395 0.000000
0.906757 0.627854 0.000000
0.931559 0.623155 0.000000
0.955038 0.618303 0.000000
0.977170 0.613304 0.000000
0.997919 0.608163 0.000000
1.000000 0.602888 0.000000
1.000000 0.597485 0.000000
1.000000 0.591962 0.000000
1.000000 0.586325 0.000000
1.000000 0.580584 0.000000
1.000000 0.576159 0.000000
1.000000 0.571505 0.000000
0.000000 0.713759 0.000000
0.000000 0.712620 0.000000
0.000000 0.711398 0.000000
0.103090 0.710416 0.000000
0.209281 0.709234 0.000000
0.282888 0.707869 0.000000
0.344251 0.706328 0.000000
0.398656 0.704617 0.000000
0.448180 0.702627 0.000000
0.494243 0.700447 0.000000
0.537578 0.698090 0.000000
0.578644 0.695558 0.000000
0.617749 0.692853 0.000000
0.655105 0.689979 0.000000
0.690865 0.686938 0.000000
0.725133 0.683733 0.000000
0.757985 0.680368 0.000000
0.789472 0.676847 0.000000
0.819627 0.673175 0.000000
0.848469 0.669357 0.000000
0.876006 0.665397 0.000000
0.902235 0.661302 0.000000
0.927145 0.657078 0.000000
0.950717 0.652731 0.000000
0.972928 0.648269 0.000000
0.993744 0.643699 0.000000
1.000000 0.639030 0.000000
1.000000 0.634270 0.000000
1.000000 0.629429 0.000000
1.000000 0.624515 0.000000
1.000000 0.619540 0.000000
1.000000 0.615823 0.000000
1.000000 0.611918 0.000000
0.000000 0.741244 0.000000
0.000000 0.740145 0.000000
0.000000 0.739137 0.000000
0.054012 0.738232 0.000000
0.187949 0.737138 0.000000
0.267419 0.735872 0.000000
0.331664 0.734441 0.000000
0.387864 0.732853 0.000000
0.438761 0.731067 0.000000
0.485743 0.729041 0.000000
0.529799 0.726852 0.000000
0.571446 0.724504 0.000000
0.611030 0.722000 0.000000
0.648789 0.719342 0.000000
0.684890 0.716534 0.000000
0.719451 0.713580 0.000000
0.752556 0.710484 0.000000
0.784263 0.707252 0.000000
0.814610 0.703888 0.000000
0.843619 0.700397 0.000000
0.871302 0.696786 0.000000
0.897658 0.693061 0.000000
0.922678 0.689230 0.000000
0.946347 0.685299 0.000000
0.968639 0.681276 0.000000
0.989525 0.677171 0.000000
1.000000 0.672992 0.000000
1.000000 0.668748 0.000000
1.000000 0.664451 0.000000
1.000000 0.660110 0.000000
1.000000 0.655737 0.000000
1.000000 0.652568 0.000000
1.000000 0.649238 0.000000
0.000000 0.767750 0.000000
0.000000 0.766686 0.000000
0.000000 0.765892 0.000000
0.000000 0.765055 0.000000
0.163963 0.764040 0.000000
0.251027 0.762861 0.000000
0.318597 0.761528 0.000000
0.376772 0.760047 0.000000
0.429099 0.758424 0.000000
0.477100 0.756558 0.000000
0.521905 0.754516 0.000000
0.564153 0.752328 0.000000
0.604230 0.749997 0.000000
0.642401 0.747526 0.000000
0.678851 0.744919 0.000000
0.713711 0.742181 0.000000
0.747074 0.739317 0.000000
0.779004 0.736331 0.000000
0.809545 0.733230 0.000000
0.838725 0.730018 0.000000
0.866556 0.726703 0.000000
0.893041 0.723290 0.000000
0.918175 0.719789 0.000000
0.941941 0.716206 0.000000
0.964317 0.712551 0.000000
0.985273 0.708831 0.000000
1.000000 0.705057 0.000000
1.000000 0.701238 0.000000
1.000000 0.697385 0.000000
1.000000 0.693509 0.000000
1.000000 0.689622 0.000000
1.000000 0.686895 0.000000
1.000000 0.684020 0.000000
0.000000 0.793280 0.000000
0.000000 0.792264 0.000000
0.000000 0.791669 0.000000
0.000000 0.790893 0.000000
0.136196 0.789947 0.000000
0.233620 0.788846 0.000000
0.305066 0.787599 0.000000
0.365416 0.786215 0.000000
0.419183 0.784697 0.000000
0.468355 0.783019 0.000000
0.513935 0.781107 0.000000
0.556801 0.779059 0.000000
0.597382 0.776879 0.000000
0.635973 0.774572 0.000000
0.672777 0.772141 0.000000
0.707940 0.769591 0.000000
0.741563 0.766927 0.000000
0.773718 0.764155 0.000000
0.804456 0.761279 0.000000
0.833807 0.758308 0.000000
0.861787 0.755246 0.000000
0.888403 0.752102 0.000000
0.913650 0.748882 0.000000
0.937514 0.745596 0.000000
0.959975 0.742251 0.000000
0.981004 0.738857 0.000000
1.000000 0.735423 0.000000
1.000000 0.731960 0.000000
1.000000 0.728477 0.000000
1.000000 0.724988 0.000000
1.000000 0.721511 0.000000
1.000000 0.719137 0.000000
1.000000 0.716633 0.000000
0.000000 0.817829 0.000000
0.000000 0.817016 0.000000
0.000000 0.816465 0.000000
0.000000 0.815744 0.000000
0.102230 0.814861 0.000000
0.215071 0.813830 0.000000
0.291090 0.812661 0.000000
0.353838 0.811362 0.000000
0.409141 0.809938 0.000000
0.459464 0.808393 0.000000
0.505933 0.806638 0.000000
0.549428 0.804714 0.000000
0.590522 0.802669 0.000000
0.629537 0.800505 0.000000
0.666698 0.798228 0.000000
0.702165 0.795843 0.000000
0.736049 0.793355 0.000000
0.768431 0.790769 0.000000
0.799365 0.788092 0.000000
0.828887 0.785329 0.000000
0.857017 0.782488 0.000000
0.883764 0.779575 0.000000
0.909124 0.776599 0.000000
0.933087 0.773567 0.000000
0.955632 0.770489 0.000000
0.976732 0.767374 0.000000
0.996352 0.764230 0.000000
1.000000 0.761069 0.000000
1.000000 0.757902 0.000000
1.000000 0.754738 0.000000
1.000000 0.751613 0.000000
1.000000 0.749528 0.000000
1.000000 0.747332 0.000000
0.000000 0.841387 0.000000
0.000000 0.840787 0.000000
0.000000 0.840277 0.000000
0.000000 0.839604 0.000000
0.054629 0.838778 0.000000
0.195199 0.837810 0.000000
0.276699 0.836711 0.000000
0.342094 0.835488 0.000000
0.399030 0.834149 0.000000
0.450489 0.832696 0.000000
0.497945 0.831118 0.000000
0.542079 0.829305 0.000000
0.583688 0.827378 0.000000
0.623129 0.825342 0.000000
0.660648 0.823202 0.000000
0.696418 0.820963 0.000000
0.730563 0.818629 0.000000
0.763170 0.816208 0.000000
0.794299 0.813704 0.000000
0.823991 0.811124 0.000000
0.852269 0.808476 0.000000
0.879144 0.805766 0.000000
0.904617 0.803002 0.000000
0.928676 0.800192 0.000000
0.951305 0.797346 0.000000
0.972476 0.794471 0.000000
0.992155 0.791579 0.000000
1.000000 0.788679 0.000000
1.000000 0.785781 0.000000
1.000000 0.782897 0.000000
1.000000 0.780074 0.000000
1.000000 0.778234 0.000000
1.000000 0.776298 0.000000
0.000000 0.864020 0.000000
0.000000 0.863566 0.000000
0.000000 0.863092 0.000000
0.000000 0.862464 0.000000
0.000000 0.861688 0.000000
0.173736 0.860777 0.000000
0.261930 0.859742 0.000000
0.330246 0.858589 0.000000
0.388910 0.857325 0.000000
0.441544 0.855955 0.000000
0.489895 0.854483 0.000000
0.534801 0.852831 0.000000
0.576926 0.851011 0.000000
0.616790 0.849089 0.000000
0.654663 0.847071 0.000000
0.690733 0.844961 0.000000
0.725135 0.842765 0.000000
0.757963 0.840489 0.000000
0.789284 0.838139 0.000000
0.819143 0.835722 0.000000
0.847567 0.833244 0.000000
0.874568 0.830712 0.000000
0.900151 0.828135 0.000000
0.924305 0.825520 0.000000
0.947015 0.822876 0.000000
0.968255 0.820213 0.000000
0.987992 0.817540 0.000000
1.000000 0.814866 0.000000
1.000000 0.812203 0.000000
1.000000 0.809561 0.000000
1.000000 0.807001 0.000000
1.000000 0.805371 0.000000
1.000000 0.803658 0.000000
0.000000 0.885759 0.000000
0.000000 0.885339 0.000000
0.000000 0.884898 0.000000
0.000000 0.884309 0.000000
0.000000 0.883580 0.000000
0.150251 0.882721 0.000000
0.246837 0.881743 0.000000
0.318374 0.880654 0.000000
0.378856 0.879459 0.000000
0.432695 0.878164 0.000000
0.481921 0.876772 0.000000
0.527643 0.875288 0.000000
0.570281 0.873565 0.000000
0.610563 0.871746 0.000000
0.648783 0.869837 0.000000
0.685147 0.867843 0.000000
0.719799 0.865770 0.000000
0.752843 0.863625 0.000000
0.784351 0.861412 0.000000
0.814372 0.859138 0.000000
0.842937 0.856812 0.000000
0.870061 0.854438 0.000000
0.895750 0.852027 0.000000
0.919996 0.849584 0.000000
0.942784 0.847120 0.000000
0.964090 0.844643 0.000000
0.983882 0.842163 0.000000
1.000000 0.839688 0.000000
1.000000 0.837231 0.000000
1.000000 0.834801 0.000000
1.000000 0.832471 0.000000
1.000000 0.831025 0.000000
1.000000 0.829505 0.000000
0.000000 0.906478 0.000000
0.000000 0.906088 0.000000
0.000000 0.905675 0.000000
0.000000 0.905123 0.000000
0.000000 0.904436 0.000000
0.123985 0.903625 0.000000
0.231494 0.902699 0.000000
0.306574 0.901668 0.000000
0.368951 0.900536 0.000000
0.424014 0.899309 0.000000
0.474114 0.897991 0.000000
0.520502 0.896587 0.000000
0.563806 0.895033 0.000000
0.604492 0.893306 0.000000
0.643050 0.891495 0.000000
0.679697 0.889606 0.000000
0.714592 0.887644 0.000000
0.747844 0.885615 0.000000
0.779531 0.883525 0.000000
0.809708 0.881381 0.000000
0.838408 0.879189 0.000000
0.865649 0.876958 0.000000
0.891439 0.874694 0.000000
0.915773 0.872405 0.000000
0.938635 0.870101 0.000000
0.960004 0.867789 0.000000
0.979847 0.865480 0.000000
0.998126 0.863182 0.000000
1.000000 0.860906 0.000000
1.000000 0.858663 0.000000
1.000000 0.856539 0.000000
1.000000 0.855254 0.000000
1.000000 0.853904 0.000000
0.000000 0.926154 0.000000
0.000000 0.925791 0.000000
0.000000 0.925404 0.000000
0.000000 0.924885 0.000000
0.000000 0.924236 0.000000
0.093377 0.923469 0.000000
0.216004 0.922591 0.000000
0.294962 0.921612 0.000000
0.359292 0.920538 0.000000
0.415583 0.919373 0.000000
0.466545 0.918123 0.000000
0.513582 0.916791 0.000000
0.557515 0.915381 0.000000
0.598630 0.913758 0.000000
0.637508 0.912036 0.000000
0.674426 0.910241 0.000000
0.709551 0.908379 0.000000
0.743000 0.906455 0.000000
0.774858 0.904476 0.000000
0.805182 0.902449 0.000000
0.834009 0.900379 0.000000
0.861361 0.898274 0.000000
0.887246 0.896143 0.000000
0.911661 0.893992 0.000000
0.934593 0.891830 0.000000
0.956020 0.889667 0.000000
0.975911 0.887510 0.000000
0.994227 0.885370 0.000000
1.000000 0.883257 0.000000
1.000000 0.881181 0.000000
1.000000 0.879241 0.000000
1.000000 0.878098 0.000000
1.000000 0.876898 0.000000
0.000000 0.944791 0.000000
0.000000 0.944439 0.000000
0.000000 0.944062 0.000000
0.000000 0.943570 0.000000
0.000000 0.942957 0.000000
0.054143 0.942229 0.000000
0.200514 0.941396 0.000000
0.283678 0.940465 0.000000
0.349991 0.939444 0.000000
0.407491 0.938336 0.000000
0.459289 0.937148 0.000000
0.506949 0.935882 0.000000
0.551369 0.934544 0.000000
0.593027 0.933086 0.000000
0.632206 0.931444 0.000000
0.669378 0.929735 0.000000
0.704717 0.927963 0.000000
0.738350 0.926135 0.000000
0.770366 0.924256 0.000000
0.800826 0.922334 0.000000
0.829771 0.920374 0.000000
0.857226 0.918384 0.000000
0.883198 0.916372 0.000000
0.907688 0.914346 0.000000
0.930684 0.912313 0.000000
0.952163 0.910282 0.000000
0.972096 0.908263 0.000000
0.990445 0.906265 0.000000
1.000000 0.904298 0.000000
1.000000 0.902371 0.000000
1.000000 0.900597 0.000000
1.000000 0.899582 0.000000
1.000000 0.898516 0.000000
0.000000 0.962368 0.000000
0.000000 0.962036 0.000000
0.000000 0.961680 0.000000
0.000000 0.961198 0.000000
0.000000 0.960590 0.000000
0.001098 0.959880 0.000000
0.185229 0.959087 0.000000
0.272892 0.958201 0.000000
0.341174 0.957228 0.000000
0.399838 0.956173 0.000000
0.452429 0.955041 0.000000
0.500674 0.953837 0.000000
0.545549 0.952564 0.000000
0.587660 0.951225 0.000000
0.627195 0.949700 0.000000
0.664597 0.948068 0.000000
0.700132 0.946379 0.000000
0.733932 0.944637 0.000000
0.766092 0.942849 0.000000
0.796676 0.941022 0.000000
0.825728 0.939162 0.000000
0.853274 0.937277 0.000000
0.879326 0.935373 0.000000
0.903883 0.933459 0.000000
0.926934 0.931543 0.000000
0.948459 0.929633 0.000000
0.968429 0.927738 0.000000
0.986806 0.925868 0.000000
1.000000 0.924032 0.000000
1.000000 0.922240 0.000000
1.000000 0.920618 0.000000
1.000000 0.919717 0.000000
1.000000 0.918772 0.000000
0.000000 0.978821 0.000000
0.000000 0.978508 0.000000
0.000000 0.978171 0.000000
0.000000 0.977712 0.000000
0.000000 0.977133 0.000000
0.000000 0.976441 0.000000
0.170519 0.975645 0.000000
0.262803 0.974790 0.000000
0.332982 0.973861 0.000000
0.392734 0.972855 0.000000
0.446054 0.971775 0.000000
0.494832 0.970627 0.000000
0.540119 0.969415 0.000000
0.582561 0.968140 0.000000
0.622527 0.966777 0.000000
0.660133 0.965217 0.000000
0.695841 0.963603 0.000000
0.729789 0.961940 0.000000
0.762075 0.960235 0.000000
0.792768 0.958495 0.000000
0.821914 0.956726 0.000000
0.849540 0.954935 0.000000
0.875659 0.953130 0.000000
0.900274 0.951319 0.000000
0.923372 0.949508 0.000000
0.944935 0.947708 0.000000
