public/luts/经典胶片/agfa-ultra-100.cube
TITLE "Agfa Ultra 100"
LUT_3D_SIZE 5
DOMAIN_MIN 0.000000 0.000000 0.000000
DOMAIN_MAX 1.000000 1.000000 1.000000
0.000000 0.000000 0.000000
0.549410 0.000000 0.000000
0.816357 0.000000 0.000000
1.000000 0.000000 0.000000
1.000000 0.000000 0.000000
0.000000 0.527202 0.000000
0.498981 0.506829 0.000000
0.788387 0.464130 0.000000
0.997544 0.388156 0.000000
1.000000 0.239027 0.000000
0.000000 0.767750 0.000000
0.429099 0.758424 0.000000
0.747074 0.739317 0.000000
0.964317 0.712551 0.000000
1.000000 0.684020 0.000000
0.000000 0.944791 0.000000
0.349991 0.939444 0.000000
0.704717 0.927963 0.000000
0.930684 0.912313 0.000000
1.000000 0.898516 0.000000
0.000000 1.000000 0.000000
0.323250 1.000000 0.000000
0.684032 1.000000 0.000000
0.911065 1.000000 0.000000
1.000000 1.000000 0.000000
0.000000 0.000000 0.583798
0.530152 0.000000 0.559219
0.809141 0.000000 0.493507
1.000000 0.000000 0.314370
1.000000 0.000000 0.000000
0.000000 0.511769 0.537556
0.479870 0.490555 0.511176
0.782304 0.445748 0.441753
0.995661 0.365470 0.238700
1.000000 0.188276 0.000000
0.000000 0.762893 0.469597
0.404587 0.751887 0.437407
0.739655 0.732773 0.348725
0.961520 0.706716 0.000000
1.000000 0.679754 0.000000
0.000000 0.942175 0.385930
0.319889 0.936149 0.350200
0.696128 0.924154 0.224878
0.927238 0.909138 0.000000
1.000000 0.896946 0.000000
0.000000 1.000000 0.343893
0.292252 1.000000 0.305711
0.674775 1.000000 0.148181
0.906869 1.000000 0.000000
1.000000 1.000000 0.000000
0.000000 0.000000 0.839423
0.469224 0.000000 0.829351
0.789475 0.000000 0.803938
1.000000 0.000000 0.764000
1.000000 0.000000 0.708153
0.000000 0.465165 0.815124
0.421185 0.443726 0.805266
0.767177 0.386109 0.781640
0.990065 0.266428 0.746442
1.000000 0.000000 0.709508
0.000000 0.747717 0.772593
0.324922 0.737668 0.761044
0.720540 0.716759 0.734349
0.953045 0.688290 0.692375
1.000000 0.657712 0.634095
0.000000 0.937070 0.728482
0.204790 0.929479 0.714771
0.674498 0.916587 0.685760
0.917640 0.900504 0.638901
1.000000 0.886389 0.572179
0.000000 1.000000 0.700432
0.159973 1.000000 0.687483
0.651285 1.000000 0.657147
0.896223 1.000000 0.606873
1.000000 1.000000 0.533985
0.000000 0.000000 1.000000
0.205016 0.000000 1.000000
0.753132 0.000000 1.000000
0.986721 0.000000 0.986552
1.000000 0.000000 0.962631
0.000000 0.337819 1.000000
0.174604 0.314606 1.000000
0.746461 0.060023 1.000000
0.987335 0.000000 0.986931
1.000000 0.000000 0.963087
0.000000 0.720010 0.979802
0.000000 0.713840 0.975737
0.685686 0.688832 0.959460
0.940347 0.656637 0.939118
1.000000 0.620681 0.917179
0.000000 0.924638 0.944274
0.000000 0.919748 0.938762
0.634170 0.904979 0.921857
0.902547 0.887562 0.899683
1.000000 0.871705 0.875130
0.000000 1.000000 0.921535
0.000000 1.000000 0.914228
0.606704 1.000000 0.897029
0.878780 1.000000 0.873370
1.000000 1.000000 0.846601
0.000000 0.000000 1.000000
0.000000 0.000000 1.000000
0.691109 0.000000 1.000000
0.963596 0.000000 1.000000
1.000000 0.000000 1.000000
0.000000 0.000000 1.000000
0.000000 0.000000 1.000000
0.693206 0.000000 1.000000
0.964288 0.000000 1.000000
1.000000 0.000000 1.000000
0.000000 0.675755 1.000000
0.000000 0.673357 1.000000
0.626885 0.644372 1.000000
0.922780 0.604974 1.000000
1.000000 0.558221 1.000000
0.000000 0.907474 1.000000
0.000000 0.906649 1.000000
0.564152 0.889452 1.000000
0.880797 0.869867 1.000000
1.000000 0.851277 1.000000
0.000000 1.000000 1.000000
0.000000 1.000000 1.000000
0.527935 1.000000 1.000000
0.853042 1.000000 1.000000
1.000000 1.000000 1.000000
