public/luts/经典胶片/agfa-vista-200.cube
TITLE "Agfa Vista 200"
LUT_3D_SIZE 9
DOMAIN_MIN 0.000000 0.000000 0.000000
DOMAIN_MAX 1.000000 1.000000 1.000000
0.000000 0.000000 0.000000
0.331272 0.000000 0.000000
0.480855 0.000000 0.000000
0.613323 0.000000 0.000000
0.733121 0.000000 0.000000
0.840365 0.000000 0.000000
0.933517 0.000000 0.000000
1.000000 0.000000 0.000000
1.000000 0.000000 0.000000
0.000000 0.335773 0.000000
0.315850 0.328571 0.000000
0.471319 0.315699 0.000000
0.606861 0.293548 0.000000
0.728971 0.248709 0.000000
0.838563 0.130202 0.000000
0.933632 0.000000 0.000000
1.000000 0.000000 0.000000
1.000000 0.000000 0.000000
0.000000 0.479719 0.000000
0.299691 0.475850 0.000000
0.460393 0.469577 0.000000
0.598389 0.459842 0.000000
0.721547 0.446124 0.000000
0.831090 0.427758 0.000000
0.925958 0.403755 0.000000
1.000000 0.372386 0.000000
1.000000 0.332040 0.000000
0.000000 0.605171 0.000000
0.280788 0.602619 0.000000
0.447597 0.598577 0.000000
0.588577 0.592482 0.000000
0.713436 0.584230 0.000000
0.824003 0.573741 0.000000
0.919471 0.560980 0.000000
0.997625 0.545947 0.000000
1.000000 0.529809 0.000000
0.000000 0.717349 0.000000
0.260079 0.715537 0.000000
0.433576 0.712645 0.000000
0.577783 0.708294 0.000000
0.704509 0.702522 0.000000
0.816227 0.695366 0.000000
0.912407 0.686923 0.000000
0.991124 0.677445 0.000000
1.000000 0.667783 0.000000
0.000000 0.817087 0.000000
0.239305 0.815793 0.000000
0.419373 0.813598 0.000000
0.566971 0.810331 0.000000
0.696695 0.806314 0.000000
0.810383 0.801379 0.000000
0.907883 0.795624 0.000000
0.987272 0.789200 0.000000
1.000000 0.782791 0.000000
0.051772 0.904301 0.000000
0.234018 0.903485 0.000000
0.414259 0.901918 0.000000
0.563135 0.899571 0.000000
0.692905 0.896436 0.000000
0.806689 0.892643 0.000000
0.904235 0.888303 0.000000
0.983594 0.883570 0.000000
1.000000 0.879113 0.000000
0.103333 0.976978 0.000000
0.241665 0.976329 0.000000
0.413924 0.975058 0.000000
0.561153 0.973198 0.000000
0.690375 0.970687 0.000000
0.803904 0.967686 0.000000
0.901269 0.964318 0.000000
0.980438 0.960740 0.000000
1.000000 0.957612 0.000000
0.117253 1.000000 0.000000
0.257763 1.000000 0.000000
0.418345 1.000000 0.000000
0.562194 1.000000 0.000000
0.690160 1.000000 0.000000
0.802959 1.000000 0.000000
0.899832 1.000000 0.000000
0.978583 1.000000 0.000000
1.000000 1.000000 0.000000
0.000000 0.000000 0.335257
0.324344 0.000000 0.320514
0.477876 0.000000 0.286142
0.611725 0.000000 0.215408
0.732271 0.000000 0.000000
0.839852 0.000000 0.000000
0.933174 0.000000 0.000000
1.000000 0.000000 0.000000
1.000000 0.000000 0.000000
0.000000 0.329826 0.320186
0.309036 0.322560 0.304804
0.468573 0.309443 0.268947
0.605476 0.286837 0.193354
0.728485 0.234276 0.000000
0.838342 0.101594 0.000000
0.933288 0.000000 0.000000
1.000000 0.000000 0.000000
1.000000 0.000000 0.000000
0.000000 0.477111 0.304034
0.292272 0.473159 0.287358
0.457418 0.466951 0.248063
0.596858 0.457388 0.160021
0.720776 0.443941 0.000000
0.830668 0.425573 0.000000
0.925700 0.401287 0.000000
1.000000 0.369459 0.000000
1.000000 0.328278 0.000000
0.000000 0.603577 0.284947
0.272786 0.600956 0.266977
0.444429 0.596976 0.223205
0.586945 0.591049 0.114504
0.712598 0.583053 0.000000
0.823549 0.572684 0.000000
0.919183 0.559867 0.000000
0.997458 0.544762 0.000000
1.000000 0.528526 0.000000
0.000000 0.716241 0.264413
0.251476 0.714371 0.244980
0.430193 0.711502 0.195249
0.576041 0.707296 0.038569
0.703603 0.701743 0.000000
0.815752 0.694735 0.000000
0.912102 0.686270 0.000000
0.990923 0.676756 0.000000
1.000000 0.667061 0.000000
0.000000 0.816260 0.244819
0.230048 0.814912 0.224000
0.415773 0.812712 0.166886
0.565026 0.809544 0.000000
0.695668 0.805722 0.000000
0.809870 0.800964 0.000000
0.907549 0.795199 0.000000
0.987065 0.788763 0.000000
1.000000 0.782336 0.000000
0.053137 0.903661 0.227487
0.224933 0.902797 0.208663
0.410584 0.901217 0.144369
0.561071 0.898915 0.000000
0.691794 0.895954 0.000000
0.806170 0.892370 0.000000
0.903895 0.888023 0.000000
0.983382 0.883283 0.000000
1.000000 0.878814 0.000000
0.103935 0.976464 0.202168
0.233263 0.975787 0.187888
0.410249 0.974485 0.138825
0.558976 0.972624 0.000000
0.689162 0.970265 0.000000
0.803329 0.967472 0.000000
0.900925 0.964139 0.000000
0.980223 0.960555 0.000000
1.000000 0.957419 0.000000
0.118025 1.000000 0.196974
0.250478 1.000000 0.182991
0.414858 1.000000 0.143133
0.560027 1.000000 0.000000
0.688838 1.000000 0.000000
0.802288 1.000000 0.000000
0.899477 1.000000 0.000000
0.978357 1.000000 0.000000
1.000000 1.000000 0.000000
0.000000 0.000000 0.507371
0.306904 0.000000 0.502734
0.470601 0.000000 0.493428
0.607339 0.000000 0.477917
0.729191 0.000000 0.454150
0.837671 0.000000 0.418493
0.931691 0.000000 0.362328
1.000000 0.000000 0.170149
1.000000 0.000000 0.000000
0.000000 0.315326 0.498570
0.292069 0.307862 0.493979
0.461980 0.293148 0.484964
0.601854 0.263012 0.470294
0.726327 0.188370 0.448871
0.836883 0.000000 0.416721
0.931803 0.000000 0.363107
1.000000 0.000000 0.173504
1.000000 0.000000 0.000000
0.000000 0.471125 0.487411
0.273804 0.467281 0.482530
0.450301 0.460742 0.473080
0.592723 0.450729 0.457307
0.717938 0.436639 0.433109
0.828700 0.417750 0.396662
0.924422 0.392988 0.338703
1.000000 0.360889 0.121202
1.000000 0.318261 0.000000
0.000000 0.600284 0.473941
0.253001 0.597569 0.468709
0.436983 0.593413 0.458908
0.582647 0.587268 0.442432
0.709651 0.578990 0.417020
0.821475 0.568500 0.378450
0.917811 0.555786 0.316181
0.996777 0.541150 0.033056
1.000000 0.525226 0.000000
0.000000 0.714175 0.458273
0.230306 0.712133 0.452847
0.422466 0.709143 0.442684
0.571626 0.704789 0.425459
0.700586 0.699048 0.398743
0.813599 0.691960 0.357853
0.910666 0.683643 0.290666
0.990109 0.674517 0.000000
1.000000 0.665231 0.000000
0.000000 0.814845 0.441118
0.207449 0.813340 0.435756
0.407808 0.811047 0.425215
0.560900 0.807839 0.407180
0.692835 0.803854 0.379029
0.807768 0.798980 0.335519
0.906092 0.793330 0.262406
0.986196 0.787205 0.000000
1.000000 0.781174 0.000000
0.057126 0.902744 0.423856
0.203827 0.901714 0.418746
0.403140 0.900068 0.407836
0.556928 0.897671 0.388980
0.688938 0.894569 0.359342
0.803987 0.890838 0.313027
0.902369 0.886596 0.233020
0.982448 0.882114 0.000000
1.000000 0.878052 0.000000
0.106274 0.975721 0.408538
0.214160 0.975000 0.403738
0.402983 0.973661 0.392527
0.554869 0.971713 0.372958
0.686315 0.969226 0.341993
0.801120 0.966282 0.293089
0.899331 0.963006 0.206098
0.979214 0.959630 0.000000
1.000000 0.956906 0.000000
0.120449 1.000000 0.402289
0.233874 1.000000 0.397584
0.407853 1.000000 0.386336
0.556045 1.000000 0.366548
0.686062 1.000000 0.335137
0.800127 1.000000 0.285404
0.897840 1.000000 0.196325
0.977263 1.000000 0.000000
1.000000 1.000000 0.000000
0.000000 0.000000 0.634437
0.262821 0.000000 0.631863
0.458327 0.000000 0.625935
0.600458 0.000000 0.616887
0.724683 0.000000 0.603956
0.834486 0.000000 0.586443
0.929338 0.000000 0.563393
1.000000 0.000000 0.533270
1.000000 0.000000 0.494377
0.000000 0.284669 0.628922
0.251446 0.273552 0.626547
0.451927 0.245517 0.621292
0.597071 0.191796 0.613408
0.723415 0.061076 0.602234
0.834658 0.000000 0.586676
0.929452 0.000000 0.563651
1.000000 0.000000 0.533566
1.000000 0.000000 0.494738
0.000000 0.460989 0.619914
0.234403 0.457538 0.617171
0.438353 0.450503 0.611400
0.586317 0.439944 0.602489
0.713884 0.425064 0.589798
0.825936 0.404979 0.572674
0.922469 0.378330 0.550228
1.000000 0.342557 0.521047
1.000000 0.293804 0.483741
0.000000 0.594593 0.609537
0.211791 0.592191 0.606574
0.424391 0.587820 0.600684
0.575928 0.581490 0.591483
0.705388 0.572982 0.578328
0.818543 0.562187 0.560510
0.915707 0.549051 0.537037
0.995103 0.533559 0.506298
1.000000 0.516823 0.466523
0.000000 0.710607 0.597793
0.185465 0.708664 0.594562
0.409301 0.705541 0.588565
0.564663 0.701086 0.579098
0.696178 0.695230 0.565518
0.810566 0.687996 0.547076
0.908482 0.679480 0.522702
0.988632 0.670034 0.490644
1.000000 0.660274 0.448917
0.000000 0.812649 0.585276
0.158375 0.810930 0.581709
0.394112 0.808546 0.575618
0.554044 0.805336 0.565889
0.688581 0.801284 0.551884
0.804901 0.796328 0.532815
0.904088 0.790566 0.507536
0.984687 0.784154 0.474148
1.000000 0.777758 0.430452
0.061706 0.901311 0.572327
0.157711 0.900031 0.568938
0.389866 0.898328 0.562767
0.550030 0.895886 0.552791
0.684648 0.892736 0.538376
0.801092 0.888945 0.518695
0.900343 0.884623 0.492528
0.980923 0.879930 0.457823
1.000000 0.875517 0.412172
0.109181 0.974694 0.560556
0.173847 0.973795 0.557519
0.389930 0.972413 0.551295
0.547976 0.970430 0.541114
0.682007 0.967904 0.526344
0.798209 0.964914 0.506129
0.897291 0.961575 0.479179
0.977691 0.958045 0.443308
1.000000 0.954972 0.395930
0.123545 1.000000 0.554531
0.200142 1.000000 0.551781
0.395219 1.000000 0.545556
0.549202 1.000000 0.535249
0.681750 1.000000 0.520237
0.797203 1.000000 0.499645
0.895789 1.000000 0.472142
0.975768 1.000000 0.435460
1.000000 1.000000 0.386954
0.000000 0.000000 0.747426
0.122710 0.000000 0.746322
0.439097 0.000000 0.741640
0.590247 0.000000 0.735405
0.718172 0.000000 0.726822
0.830003 0.000000 0.715640
0.926146 0.000000 0.701630
1.000000 0.000000 0.684529
1.000000 0.000000 0.664721
0.000000 0.182505 0.745369
0.116316 0.169047 0.744431
0.437090 0.114407 0.740274
0.589903 0.000000 0.734936
0.718440 0.000000 0.726949
0.830178 0.000000 0.715774
0.926263 0.000000 0.701771
1.000000 0.000000 0.684681
1.000000 0.000000 0.664889
0.000000 0.445371 0.736365
0.039947 0.443203 0.735182
0.419691 0.434732 0.730667
0.576890 0.423275 0.724649
0.708103 0.407094 0.716416
0.822122 0.385022 0.705764
0.919912 0.355178 0.692531
0.999935 0.313710 0.676565
1.000000 0.252457 0.658491
0.000000 0.586229 0.727695
0.000000 0.584739 0.726305
0.404625 0.579636 0.721777
0.565989 0.573036 0.715583
0.699266 0.564211 0.707070
0.814455 0.553009 0.696007
0.912897 0.539344 0.682186
0.993191 0.523159 0.665371
1.000000 0.505476 0.646027
0.000000 0.705260 0.718001
0.000000 0.703929 0.716311
0.388571 0.700395 0.711852
0.554339 0.695799 0.705522
0.689831 0.689798 0.696790
0.806318 0.682392 0.685418
0.905544 0.673667 0.671179
0.986775 0.664060 0.653810
1.000000 0.653973 0.633773
0.000000 0.808956 0.707705
0.000000 0.807590 0.705591
0.372487 0.805037 0.701289
0.543686 0.801792 0.694838
0.682304 0.797661 0.685903
0.800755 0.792615 0.674244
0.901265 0.786746 0.659620
0.982788 0.780205 0.641748
1.000000 0.773627 0.621105
0.066225 0.899074 0.697509
0.065054 0.897717 0.695074
0.368661 0.895904 0.690791
0.539603 0.893402 0.684232
0.678311 0.890197 0.675110
0.796899 0.886345 0.663182
0.897483 0.881952 0.648197
0.978993 0.877173 0.629853
1.000000 0.872635 0.608653
0.112399 0.973393 0.688115
0.111658 0.972178 0.685577
0.369139 0.970712 0.681319
0.537554 0.968682 0.674674
0.675639 0.966113 0.665392
0.793983 0.963076 0.653230
0.894402 0.959684 0.637929
0.975736 0.956090 0.619173
1.000000 0.952920 0.597498
0.127054 1.000000 0.682421
0.128736 1.000000 0.680235
0.375148 1.000000 0.676005
0.538834 1.000000 0.669285
0.675353 1.000000 0.659847
0.792936 1.000000 0.647447
0.892860 1.000000 0.631817
0.973777 1.000000 0.612622
1.000000 1.000000 0.590435
0.000000 0.000000 0.847869
0.000000 0.000000 0.847366
0.410003 0.000000 0.843787
0.576017 0.000000 0.839084
0.709352 0.000000 0.832833
0.824039 0.000000 0.824902
0.921981 0.000000 0.815243
1.000000 0.000000 0.803847
1.000000 0.000000 0.791269
0.000000 0.000000 0.847953
0.000000 0.000000 0.847450
0.411036 0.000000 0.843860
0.576483 0.000000 0.839162
0.709629 0.000000 0.832914
0.824219 0.000000 0.824987
0.922099 0.000000 0.815332
1.000000 0.000000 0.803940
1.000000 0.000000 0.791370
0.000000 0.422340 0.839358
0.000000 0.420915 0.838910
0.391531 0.411422 0.835400
0.563871 0.398434 0.830937
0.700383 0.380001 0.825064
0.817161 0.354356 0.817694
0.916700 0.318375 0.808843
0.998006 0.264475 0.798619
1.000000 0.128204 0.788370
0.000000 0.574713 0.831673
0.000000 0.574059 0.831201
0.374577 0.568410 0.827543
0.552172 0.561409 0.822947
0.691014 0.552133 0.816855
0.809060 0.540357 0.809160
0.909275 0.525945 0.799837
0.990815 0.508783 0.788904
1.000000 0.489763 0.776982
0.000000 0.698083 0.823235
0.000000 0.697696 0.822747
0.356906 0.693526 0.818934
0.539951 0.688726 0.814255
0.681254 0.682531 0.808021
0.800693 0.674903 0.800126
0.901738 0.665910 0.790538
0.984360 0.656056 0.779263
1.000000 0.645556 0.766927
0.000000 0.804076 0.814307
0.000000 0.803631 0.813613
0.339317 0.800436 0.809811
0.529056 0.797102 0.805065
0.673682 0.792868 0.798710
0.795149 0.787709 0.790645
0.897506 0.781710 0.780832
0.980313 0.775019 0.769274
1.000000 0.768228 0.756617
0.070135 0.895711 0.805450
0.069571 0.895029 0.804355
0.335941 0.892751 0.800730
0.524875 0.890164 0.795931
0.669603 0.886888 0.789468
0.791226 0.882962 0.781248
0.893669 0.878486 0.771233
0.976472 0.873614 0.759421
1.000000 0.868935 0.746486
0.115342 0.971195 0.797434
0.114763 0.970218 0.795799
0.337239 0.968542 0.792464
0.522838 0.966445 0.787627
0.666885 0.963822 0.781075
0.788264 0.960730 0.772722
0.890548 0.957277 0.762530
0.973179 0.953616 0.750496
1.000000 0.950340 0.737329
0.130748 1.000000 0.792671
0.130675 1.000000 0.790653
0.344573 1.000000 0.787411
0.524184 1.000000 0.782526
0.666540 1.000000 0.775861
0.787143 1.000000 0.767335
0.888935 1.000000 0.756907
0.971154 1.000000 0.744566
1.000000 1.000000 0.731059
0.000000 0.000000 0.935568
0.000000 0.000000 0.935226
0.364756 0.000000 0.932739
0.556821 0.000000 0.928951
0.697880 0.000000 0.924139
0.816429 0.000000 0.918187
0.916746 0.000000 0.911109
0.998310 0.000000 0.902973
1.000000 0.000000 0.894300
0.000000 0.000000 0.935624
0.000000 0.000000 0.935283
0.366098 0.000000 0.932785
0.557325 0.000000 0.929001
0.698168 0.000000 0.924192
0.816613 0.000000 0.918243
0.916868 0.000000 0.911167
0.998387 0.000000 0.903034
1.000000 0.000000 0.894365
0.000000 0.388188 0.929174
0.000000 0.386440 0.928889
0.347881 0.376661 0.926491
0.546544 0.360781 0.922964
0.690548 0.337941 0.918557
0.811038 0.304696 0.913207
0.912911 0.253468 0.907011
0.996482 0.099025 0.900786
1.000000 0.000000 0.894531
0.000000 0.559414 0.921997
0.000000 0.558713 0.921687
0.327378 0.553564 0.919156
0.533573 0.545956 0.915505
0.680337 0.536037 0.910886
0.802229 0.523441 0.905210
0.904781 0.507956 0.898513
0.987948 0.489373 0.890890
1.000000 0.468373 0.882909
0.000000 0.688851 0.914339
0.000000 0.688448 0.914017
0.306743 0.684751 0.911356
0.520525 0.679651 0.907649
0.670124 0.673197 0.902922
0.793546 0.665276 0.897095
0.896989 0.655935 0.890196
0.981329 0.645705 0.882313
1.000000 0.634662 0.874019
0.000000 0.797911 0.906283
0.000000 0.797654 0.905952
0.286347 0.794673 0.903138
0.509075 0.791163 0.899394
0.662339 0.786793 0.894585
0.787902 0.781491 0.888639
0.892709 0.775330 0.881584
0.977201 0.768451 0.873507
1.000000 0.761393 0.864999
0.073384 0.891497 0.898282
0.073240 0.891325 0.897942
0.283654 0.888837 0.894949
0.504763 0.886125 0.891181
0.658143 0.882757 0.886302
0.783889 0.878739 0.880252
0.888800 0.874162 0.873063
0.973299 0.869177 0.864819
1.000000 0.864327 0.856136
0.117900 0.968283 0.890984
0.117827 0.968172 0.890636
0.286891 0.965896 0.887438
0.502760 0.963703 0.883660
0.655365 0.961010 0.878724
0.780865 0.957850 0.872586
0.885624 0.954325 0.865281
0.969958 0.950585 0.856892
1.000000 0.947180 0.848067
0.134362 1.000000 0.886291
0.134330 1.000000 0.885505
0.297092 1.000000 0.882489
0.504200 1.000000 0.878682
0.654925 1.000000 0.873657
0.779632 1.000000 0.867381
0.883905 1.000000 0.859888
0.967836 1.000000 0.851258
1.000000 1.000000 0.842170
0.000000 0.000000 1.000000
0.000000 0.000000 1.000000
0.282643 0.000000 1.000000
0.531206 0.000000 1.000000
0.683325 0.000000 1.000000
0.806985 0.000000 0.995915
0.910351 0.000000 0.990554
0.994010 0.000000 0.984554
1.000000 0.000000 0.978360
0.000000 0.000000 1.000000
0.000000 0.000000 1.000000
0.285008 0.000000 1.000000
0.531768 0.000000 1.000000
0.683630 0.000000 1.000000
0.807176 0.000000 0.995950
0.910476 0.000000 0.990591
0.994090 0.000000 0.984594
1.000000 0.000000 0.978403
0.000000 0.333604 1.000000
0.000000 0.331083 1.000000
0.269293 0.320300 1.000000
0.523984 0.297263 1.000000
0.678571 0.262190 0.997125
0.804478 0.173797 0.993628
0.909996 0.000000 0.989973
0.994292 0.000000 0.984694
1.000000 0.000000 0.978513
0.000000 0.539413 0.997914
0.000000 0.538645 0.997718
0.239760 0.534326 0.996170
0.508811 0.525722 0.993062
0.666876 0.514868 0.989421
0.793833 0.501080 0.985096
0.899369 0.484008 0.980138
0.984587 0.463279 0.974672
1.000000 0.439207 0.969187
0.000000 0.677290 0.990706
0.000000 0.676868 0.990499
0.211507 0.673898 0.988825
0.494550 0.668313 0.985683
0.656036 0.661512 0.981952
0.784715 0.653207 0.977495
0.891228 0.643412 0.972363
0.977632 0.632632 0.966670
1.000000 0.620868 0.960906
0.000000 0.790350 0.983189
0.000000 0.790084 0.982974
0.183147 0.787707 0.981153
0.482058 0.783865 0.978001
0.647801 0.779318 0.974207
0.778809 0.773836 0.969658
0.886770 0.767471 0.964404
0.973398 0.760359 0.958561
1.000000 0.752963 0.952632
0.075610 0.886376 0.975721
0.075474 0.886200 0.975499
0.183263 0.884149 0.973506
0.477582 0.881241 0.970358
0.643451 0.877754 0.966514
0.774679 0.873621 0.961888
0.882768 0.868922 0.956534
0.969418 0.863800 0.950566
1.000000 0.858738 0.944511
0.119911 0.964798 0.968863
0.119843 0.964684 0.968636
0.193964 0.962785 0.966446
0.475663 0.960445 0.963312
0.640596 0.957661 0.959430
0.771575 0.954418 0.954740
0.879521 0.950806 0.949300
0.966016 0.946971 0.943226
1.000000 0.943411 0.937071
0.137690 1.000000 0.964115
0.137679 1.000000 0.963876
0.213649 1.000000 0.961452
0.477261 1.000000 0.958312
0.640017 1.000000 0.954356
0.770183 1.000000 0.949548
0.877654 1.000000 0.943948
0.963759 1.000000 0.937670
1.000000 1.000000 0.931296
0.000000 0.000000 1.000000
0.000000 0.000000 1.000000
0.000000 0.000000 1.000000
0.496859 0.000000 1.000000
0.665228 0.000000 1.000000
0.795560 0.000000 1.000000
0.902734 0.000000 1.000000
0.988954 0.000000 1.000000
1.000000 0.000000 1.000000
0.000000 0.000000 1.000000
0.000000 0.000000 1.000000
0.000000 0.000000 1.000000
0.497515 0.000000 1.000000
0.665554 0.000000 1.000000
0.795760 0.000000 1.000000
0.902864 0.000000 1.000000
0.989037 0.000000 1.000000
1.000000 0.000000 1.000000
0.000000 0.164459 1.000000
0.000000 0.151775 1.000000
0.000000 0.113767 1.000000
0.498089 0.000000 1.000000
0.666382 0.000000 1.000000
0.796268 0.000000 1.000000
0.903194 0.000000 1.000000
0.989247 0.000000 1.000000
1.000000 0.000000 1.000000
0.000000 0.513462 1.000000
0.000000 0.512590 1.000000
0.000000 0.510353 1.000000
0.475718 0.499363 1.000000
0.650283 0.487072 1.000000
0.783806 0.471432 1.000000
0.893047 0.451833 1.000000
0.980763 0.427558 1.000000
1.000000 0.398226 1.000000
0.000000 0.663204 1.000000
0.000000 0.662754 1.000000
0.000000 0.661572 1.000000
0.459615 0.654521 1.000000
0.638573 0.647235 1.000000
0.774095 0.638404 1.000000
0.884426 0.627982 1.000000
0.973082 0.616277 1.000000
1.000000 0.603537 1.000000
0.000000 0.781397 1.000000
0.000000 0.781119 1.000000
0.000000 0.780083 1.000000
0.444805 0.775125 1.000000
0.629267 0.770336 1.000000
0.767504 0.764613 1.000000
0.879469 0.757977 1.000000
0.968751 0.750550 1.000000
1.000000 0.742712 1.000000
0.073452 0.880346 1.000000
0.073327 0.880163 1.000000
0.072568 0.879055 1.000000
0.440242 0.875519 1.000000
0.624785 0.871868 1.000000
0.763276 0.867584 1.000000
0.875393 0.862719 1.000000
0.964711 0.857411 1.000000
1.000000 0.852071 1.000000
0.119523 0.960784 1.000000
0.119464 0.960665 1.000000
0.118837 0.959407 1.000000
0.438629 0.956721 1.000000
0.621898 0.953813 1.000000
0.760120 0.950460 1.000000
0.872101 0.946730 1.000000
0.961270 0.942765 1.000000
1.000000 0.938994 1.000000
0.139320 1.000000 1.000000
0.139320 1.000000 1.000000
0.139320 1.000000 1.000000
0.440614 1.000000 1.000000
0.621171 1.000000 1.000000
0.758548 1.000000 1.000000
0.870067 1.000000 1.000000
0.958863 1.000000 1.000000
1.000000 1.000000 1.000000
