public/luts/经典胶片/agfa-vista-200.cube
TITLE "Agfa Vista 200"
LUT_3D_SIZE 5
DOMAIN_MIN 0.000000 0.000000 0.000000
DOMAIN_MAX 1.000000 1.000000 1.000000
0.000000 0.000000 0.000000
0.480855 0.000000 0.000000
0.733121 0.000000 0.000000
0.933517 0.000000 0.000000
1.000000 0.000000 0.000000
0.000000 0.479719 0.000000
0.460393 0.469577 0.000000
0.721547 0.446124 0.000000
0.925958 0.403755 0.000000
1.000000 0.332040 0.000000
0.000000 0.717349 0.000000
0.433576 0.712645 0.000000
0.704509 0.702522 0.000000
0.912407 0.686923 0.000000
1.000000 0.667783 0.000000
0.051772 0.904301 0.000000
0.414259 0.901918 0.000000
0.692905 0.896436 0.000000
0.904235 0.888303 0.000000
1.000000 0.879113 0.000000
0.117253 1.000000 0.000000
0.418345 1.000000 0.000000
0.690160 1.000000 0.000000
0.899832 1.000000 0.000000
1.000000 1.000000 0.000000
0.000000 0.000000 0.507371
0.470601 0.000000 0.493428
0.729191 0.000000 0.454150
0.931691 0.000000 0.362328
1.000000 0.000000 0.000000
0.000000 0.471125 0.487411
0.450301 0.460742 0.473080
0.717938 0.436639 0.433109
0.924422 0.392988 0.338703
1.000000 0.318261 0.000000
0.000000 0.714175 0.458273
0.422466 0.709143 0.442684
0.700586 0.699048 0.398743
0.910666 0.683643 0.290666
1.000000 0.665231 0.000000
0.057126 0.902744 0.423856
0.403140 0.900068 0.407836
0.688938 0.894569 0.359342
0.902369 0.886596 0.233020
1.000000 0.878052 0.000000
0.120449 1.000000 0.402289
0.407853 1.000000 0.386336
0.686062 1.000000 0.335137
0.897840 1.000000 0.196325
1.000000 1.000000 0.000000
0.000000 0.000000 0.747426
0.439097 0.000000 0.741640
0.718172 0.000000 0.726822
0.926146 0.000000 0.701630
1.000000 0.000000 0.664721
0.000000 0.445371 0.736365
0.419691 0.434732 0.730667
0.708103 0.407094 0.716416
0.919912 0.355178 0.692531
1.000000 0.252457 0.658491
0.000000 0.705260 0.718001
0.388571 0.700395 0.711852
0.689831 0.689798 0.696790
0.905544 0.673667 0.671179
1.000000 0.653973 0.633773
0.066225 0.899074 0.697509
0.368661 0.895904 0.690791
0.678311 0.890197 0.675110
0.897483 0.881952 0.648197
1.000000 0.872635 0.608653
0.127054 1.000000 0.682421
0.375148 1.000000 0.676005
0.675353 1.000000 0.659847
0.892860 1.000000 0.631817
1.000000 1.000000 0.590435
0.000000 0.000000 0.935568
0.364756 0.000000 0.932739
0.697880 0.000000 0.924139
0.916746 0.000000 0.911109
1.000000 0.000000 0.894300
0.000000 0.388188 0.929174
0.347881 0.376661 0.926491
0.690548 0.337941 0.918557
0.912911 0.253468 0.907011
1.000000 0.000000 0.894531
0.000000 0.688851 0.914339
0.306743 0.684751 0.911356
0.670124 0.673197 0.902922
0.896989 0.655935 0.890196
1.000000 0.634662 0.874019
0.073384 0.891497 0.898282
0.283654 0.888837 0.894949
0.658143 0.882757 0.886302
0.888800 0.874162 0.873063
1.000000 0.864327 0.856136
0.134362 1.000000 0.886291
0.297092 1.000000 0.882489
0.654925 1.000000 0.873657
0.883905 1.000000 0.859888
1.000000 1.000000 0.842170
0.000000 0.000000 1.000000
0.000000 0.000000 1.000000
0.665228 0.000000 1.000000
0.902734 0.000000 1.000000
1.000000 0.000000 1.000000
0.000000 0.164459 1.000000
0.000000 0.113767 1.000000
0.666382 0.000000 1.000000
0.903194 0.000000 1.000000
1.000000 0.000000 1.000000
0.000000 0.663204 1.000000
0.000000 0.661572 1.000000
0.638573 0.647235 1.000000
0.884426 0.627982 1.000000
1.000000 0.603537 1.000000
0.073452 0.880346 1.000000
0.072568 0.879055 1.000000
0.624785 0.871868 1.000000
0.875393 0.862719 1.000000
1.000000 0.852071 1.000000
0.139320 1.000000 1.000000
0.139320 1.000000 1.000000
0.621171 1.000000 1.000000
0.870067 1.000000 1.000000
1.000000 1.000000 1.000000
