public/luts/经典胶片/agfa-vista-200.cube
TITLE "Agfa Vista 200"
LUT_3D_SIZE 33
DOMAIN_MIN 0.000000 0.000000 0.000000
DOMAIN_MAX 1.000000 1.000000 1.000000
0.000000 0.000000 0.000000
0.138095 0.000000 0.000000
0.212815 0.000000 0.000000
0.289391 0.000000 0.000000
0.331272 0.000000 0.000000
0.370898 0.000000 0.000000
0.408843 0.000000 0.000000
0.445425 0.000000 0.000000
0.480855 0.000000 0.000000
0.515276 0.000000 0.000000
0.548788 0.000000 0.000000
0.581456 0.000000 0.000000
0.613323 0.000000 0.000000
0.644415 0.000000 0.000000
0.674745 0.000000 0.000000
0.704316 0.000000 0.000000
0.733121 0.000000 0.000000
0.761148 0.000000 0.000000
0.788381 0.000000 0.000000
0.814795 0.000000 0.000000
0.840365 0.000000 0.000000
0.865058 0.000000 0.000000
0.888841 0.000000 0.000000
0.911675 0.000000 0.000000
0.933517 0.000000 0.000000
0.954323 0.000000 0.000000
0.974042 0.000000 0.000000
0.992620 0.000000 0.000000
1.000000 0.000000 0.000000
1.000000 0.000000 0.000000
1.000000 0.000000 0.000000
1.000000 0.000000 0.000000
1.000000 0.000000 0.000000
0.000000 0.140599 0.000000
0.131121 0.135952 0.000000
0.208696 0.130343 0.000000
0.286476 0.121609 0.000000
0.328869 0.112165 0.000000
0.368993 0.099640 0.000000
0.407374 0.082739 0.000000
0.444348 0.058573 0.000000
0.480139 0.020208 0.000000
0.514899 0.000000 0.000000
0.548732 0.000000 0.000000
0.581534 0.000000 0.000000
0.613392 0.000000 0.000000
0.644476 0.000000 0.000000
0.674799 0.000000 0.000000
0.704364 0.000000 0.000000
0.733164 0.000000 0.000000
0.761187 0.000000 0.000000
0.788416 0.000000 0.000000
0.814827 0.000000 0.000000
0.840394 0.000000 0.000000
0.865084 0.000000 0.000000
0.888865 0.000000 0.000000
0.911696 0.000000 0.000000
0.933536 0.000000 0.000000
0.954340 0.000000 0.000000
0.974057 0.000000 0.000000
0.992634 0.000000 0.000000
1.000000 0.000000 0.000000
1.000000 0.000000 0.000000
1.000000 0.000000 0.000000
1.000000 0.000000 0.000000
1.000000 0.000000 0.000000
0.000000 0.216208 0.000000
0.121895 0.213218 0.000000
0.203216 0.209679 0.000000
0.282356 0.204357 0.000000
0.325328 0.198785 0.000000
0.365891 0.191794 0.000000
0.404618 0.183155 0.000000
0.441872 0.172556 0.000000
0.477895 0.159551 0.000000
0.512852 0.143447 0.000000
0.546855 0.123048 0.000000
0.579979 0.095905 0.000000
0.612274 0.054955 0.000000
0.643771 0.000000 0.000000
0.674487 0.000000 0.000000
0.704418 0.000000 0.000000
0.733213 0.000000 0.000000
0.761231 0.000000 0.000000
0.788456 0.000000 0.000000
0.814863 0.000000 0.000000
0.840426 0.000000 0.000000
0.865114 0.000000 0.000000
0.888891 0.000000 0.000000
0.911720 0.000000 0.000000
0.933558 0.000000 0.000000
0.954360 0.000000 0.000000
0.974075 0.000000 0.000000
0.992650 0.000000 0.000000
1.000000 0.000000 0.000000
1.000000 0.000000 0.000000
1.000000 0.000000 0.000000
1.000000 0.000000 0.000000
1.000000 0.000000 0.000000
0.000000 0.293604 0.000000
0.106222 0.291436 0.000000
0.194446 0.288887 0.000000
0.275903 0.285113 0.000000
0.319816 0.281161 0.000000
0.361081 0.276271 0.000000
0.400354 0.270344 0.000000
0.438047 0.263264 0.000000
0.474433 0.254892 0.000000
0.509696 0.245054 0.000000
0.543959 0.233527 0.000000
0.577309 0.220005 0.000000
0.609803 0.204054 0.000000
0.641476 0.185017 0.000000
0.672350 0.161794 0.000000
0.702433 0.132273 0.000000
0.731724 0.091202 0.000000
0.760216 0.015898 0.000000
0.787892 0.000000 0.000000
0.814733 0.000000 0.000000
0.840473 0.000000 0.000000
0.865156 0.000000 0.000000
0.888930 0.000000 0.000000
0.911755 0.000000 0.000000
0.933590 0.000000 0.000000
0.954388 0.000000 0.000000
0.974100 0.000000 0.000000
0.992673 0.000000 0.000000
1.000000 0.000000 0.000000
1.000000 0.000000 0.000000
1.000000 0.000000 0.000000
1.000000 0.000000 0.000000
1.000000 0.000000 0.000000
0.000000 0.335773 0.000000
0.095914 0.334480 0.000000
0.189022 0.332940 0.000000
0.271470 0.330669 0.000000
0.315850 0.328571 0.000000
0.357445 0.326058 0.000000
0.396954 0.323100 0.000000
0.434815 0.319660 0.000000
0.471319 0.315699 0.000000
0.506662 0.311169 0.000000
0.540976 0.306015 0.000000
0.574355 0.300168 0.000000
0.606861 0.293548 0.000000
0.638534 0.286049 0.000000
0.669400 0.277539 0.000000
0.699494 0.267089 0.000000
0.728971 0.248709 0.000000
0.757632 0.227327 0.000000
0.785464 0.201970 0.000000
0.812449 0.170883 0.000000
0.838563 0.130202 0.000000
0.863779 0.066685 0.000000
0.888064 0.000000 0.000000
0.911380 0.000000 0.000000
0.933632 0.000000 0.000000
0.954426 0.000000 0.000000
0.974134 0.000000 0.000000
0.992703 0.000000 0.000000
1.000000 0.000000 0.000000
1.000000 0.000000 0.000000
1.000000 0.000000 0.000000
1.000000 0.000000 0.000000
1.000000 0.000000 0.000000
0.000000 0.374170 0.000000
0.085243 0.373087 0.000000
0.183931 0.371803 0.000000
0.267184 0.369924 0.000000
0.312103 0.368218 0.000000
0.354111 0.366190 0.000000
0.393943 0.363822 0.000000
0.432064 0.361092 0.000000
0.468780 0.357977 0.000000
0.504297 0.354452 0.000000
0.538756 0.350487 0.000000
0.572255 0.346050 0.000000
0.604861 0.341101 0.000000
0.636617 0.335597 0.000000
0.667550 0.329485 0.000000
0.697673 0.322700 0.000000
0.726990 0.315162 0.000000
0.755496 0.306774 0.000000
0.783180 0.297406 0.000000
0.810024 0.286892 0.000000
0.836007 0.275006 0.000000
0.861104 0.261428 0.000000
0.885313 0.244263 0.000000
0.908779 0.212200 0.000000
0.931229 0.172214 0.000000
0.952619 0.116881 0.000000
0.972903 0.004200 0.000000
0.992027 0.000000 0.000000
1.000000 0.000000 0.000000
1.000000 0.000000 0.000000
1.000000 0.000000 0.000000
1.000000 0.000000 0.000000
1.000000 0.000000 0.000000
0.000000 0.410755 0.000000
0.073481 0.409822 0.000000
0.178810 0.408721 0.000000
0.262674 0.407127 0.000000
0.308155 0.405692 0.000000
0.350595 0.403997 0.000000
0.390771 0.402028 0.000000
0.429169 0.399771 0.000000
0.466112 0.397212 0.000000
0.501818 0.394335 0.000000
0.536436 0.391122 0.000000
0.570070 0.387555 0.000000
0.602790 0.383613 0.000000
0.634643 0.379272 0.000000
0.665658 0.374506 0.000000
0.695851 0.369284 0.000000
0.725226 0.363571 0.000000
0.753779 0.357325 0.000000
0.781500 0.350497 0.000000
0.808371 0.343027 0.000000
0.834372 0.334840 0.000000
0.859476 0.325845 0.000000
0.883651 0.315924 0.000000
0.906865 0.304922 0.000000
0.929077 0.292635 0.000000
0.950248 0.278776 0.000000
0.970330 0.262930 0.000000
0.989277 0.244464 0.000000
1.000000 0.217414 0.000000
1.000000 0.167327 0.000000
1.000000 0.091022 0.000000
1.000000 0.000000 0.000000
1.000000 0.000000 0.000000
0.000000 0.445862 0.000000
0.060388 0.445042 0.000000
0.173717 0.444075 0.000000
0.257951 0.442703 0.000000
0.304014 0.441469 0.000000
0.346907 0.440015 0.000000
0.387441 0.438334 0.000000
0.426131 0.436415 0.000000
0.463315 0.434249 0.000000
0.499223 0.431824 0.000000
0.534011 0.429131 0.000000
0.567790 0.426156 0.000000
0.600634 0.422888 0.000000
0.632594 0.419312 0.000000
0.663701 0.415413 0.000000
0.693973 0.411175 0.000000
0.723416 0.406580 0.000000
0.752028 0.401607 0.000000
0.779798 0.396232 0.000000
0.806711 0.390427 0.000000
0.832745 0.384161 0.000000
0.857875 0.377396 0.000000
0.882069 0.370087 0.000000
0.905294 0.362181 0.000000
0.927509 0.353611 0.000000
0.948674 0.344295 0.000000
0.968741 0.334127 0.000000
0.987660 0.322974 0.000000
1.000000 0.310655 0.000000
1.000000 0.296925 0.000000
1.000000 0.281436 0.000000
1.000000 0.264349 0.000000
1.000000 0.245674 0.000000
0.000000 0.479719 0.000000
0.045523 0.478986 0.000000
0.168741 0.478121 0.000000
0.253026 0.476931 0.000000
0.299691 0.475850 0.000000
0.343053 0.474581 0.000000
0.383962 0.473116 0.000000
0.422957 0.471451 0.000000
0.460393 0.469577 0.000000
0.496512 0.467486 0.000000
0.531480 0.465173 0.000000
0.565412 0.462628 0.000000
0.598389 0.459842 0.000000
0.630463 0.456809 0.000000
0.661670 0.453518 0.000000
0.692029 0.449960 0.000000
0.721547 0.446124 0.000000
0.750224 0.442000 0.000000
0.778052 0.437573 0.000000
0.805014 0.432831 0.000000
0.831090 0.427758 0.000000
0.856255 0.422335 0.000000
0.880478 0.416544 0.000000
0.903726 0.410359 0.000000
0.925958 0.403755 0.000000
0.947134 0.396698 0.000000
0.967206 0.389150 0.000000
0.986123 0.381064 0.000000
1.000000 0.372386 0.000000
1.000000 0.363043 0.000000
1.000000 0.352949 0.000000
1.000000 0.342496 0.000000
1.000000 0.332040 0.000000
0.000000 0.512484 0.000000
0.028886 0.511820 0.000000
0.163980 0.511037 0.000000
0.247896 0.509992 0.000000
0.295197 0.509038 0.000000
0.339044 0.507913 0.000000
0.380341 0.506619 0.000000
0.419652 0.505150 0.000000
0.457351 0.503502 0.000000
0.493691 0.501669 0.000000
0.528847 0.499645 0.000000
0.562940 0.497426 0.000000
0.596056 0.495005 0.000000
0.628251 0.492377 0.000000
0.659563 0.489536 0.000000
0.690014 0.486476 0.000000
0.719614 0.483191 0.000000
0.748362 0.479675 0.000000
0.776252 0.475920 0.000000
0.803268 0.471920 0.000000
0.829392 0.467665 0.000000
0.854598 0.463147 0.000000
0.878856 0.458357 0.000000
0.902133 0.453283 0.000000
0.924390 0.447912 0.000000
0.945584 0.442231 0.000000
0.965670 0.436224 0.000000
0.984596 0.429871 0.000000
1.000000 0.423152 0.000000
1.000000 0.416039 0.000000
1.000000 0.408502 0.000000
1.000000 0.400926 0.000000
1.000000 0.393647 0.000000
0.000000 0.544266 0.000000
0.013293 0.543658 0.000000
0.159542 0.542942 0.000000
0.242579 0.542019 0.000000
0.290545 0.541172 0.000000
0.334892 0.540164 0.000000
0.376588 0.539006 0.000000
0.416227 0.537695 0.000000
0.454198 0.536227 0.000000
0.490767 0.534597 0.000000
0.526118 0.532802 0.000000
0.560379 0.530838 0.000000
0.593639 0.528701 0.000000
0.625961 0.526388 0.000000
0.657383 0.523894 0.000000
0.687931 0.521216 0.000000
0.717616 0.518350 0.000000
0.746439 0.515292 0.000000
0.774395 0.512040 0.000000
0.801470 0.508587 0.000000
0.827645 0.504932 0.000000
0.852896 0.501068 0.000000
0.877193 0.496992 0.000000
0.900503 0.492698 0.000000
0.922789 0.488182 0.000000
0.944007 0.483436 0.000000
0.964112 0.478455 0.000000
0.983052 0.473230 0.000000
1.000000 0.467752 0.000000
1.000000 0.462013 0.000000
1.000000 0.456000 0.000000
1.000000 0.450070 0.000000
1.000000 0.444517 0.000000
0.000000 0.575143 0.000000
0.000000 0.574583 0.000000
0.155547 0.573922 0.000000
0.237093 0.573105 0.000000
0.285736 0.572342 0.000000
0.330609 0.571437 0.000000
0.372717 0.570391 0.000000
0.412692 0.569209 0.000000
0.450943 0.567887 0.000000
0.487748 0.566423 0.000000
0.523299 0.564813 0.000000
0.557733 0.563055 0.000000
0.591144 0.561146 0.000000
0.623596 0.559084 0.000000
0.655133 0.556866 0.000000
0.685781 0.554489 0.000000
0.715555 0.551953 0.000000
0.744457 0.549254 0.000000
0.772482 0.546391 0.000000
0.799619 0.543362 0.000000
0.825848 0.540165 0.000000
0.851147 0.536797 0.000000
0.875486 0.533259 0.000000
0.898833 0.529546 0.000000
0.921150 0.525659 0.000000
0.942395 0.521594 0.000000
0.962522 0.517349 0.000000
0.981480 0.512922 0.000000
0.999214 0.508310 0.000000
1.000000 0.503511 0.000000
1.000000 0.498521 0.000000
1.000000 0.493670 0.000000
1.000000 0.489214 0.000000
0.000000 0.605171 0.000000
0.000000 0.604651 0.000000
0.152131 0.604036 0.000000
0.231450 0.603313 0.000000
0.280788 0.602619 0.000000
0.326211 0.601803 0.000000
0.368740 0.600852 0.000000
0.409060 0.599777 0.000000
0.447597 0.598577 0.000000
0.484643 0.597249 0.000000
0.520401 0.595793 0.000000
0.555012 0.594204 0.000000
0.588577 0.592482 0.000000
0.621163 0.590625 0.000000
0.652818 0.588632 0.000000
0.683571 0.586500 0.000000
0.713436 0.584230 0.000000
0.742419 0.581819 0.000000
0.770517 0.579268 0.000000
0.797717 0.576576 0.000000
0.824003 0.573741 0.000000
0.849352 0.570764 0.000000
0.873735 0.567645 0.000000
0.897120 0.564384 0.000000
0.919471 0.560980 0.000000
0.940745 0.557434 0.000000
0.960897 0.553747 0.000000
0.979875 0.549917 0.000000
0.997625 0.545947 0.000000
1.000000 0.541836 0.000000
1.000000 0.537585 0.000000
1.000000 0.533501 0.000000
1.000000 0.529809 0.000000
0.000000 0.634387 0.000000
0.000000 0.633900 0.000000
0.149443 0.633325 0.000000
0.225670 0.632688 0.000000
0.275726 0.632052 0.000000
0.321704 0.631309 0.000000
0.364673 0.630442 0.000000
0.405343 0.629459 0.000000
0.444172 0.628361 0.000000
0.481465 0.627149 0.000000
0.517433 0.625820 0.000000
0.552225 0.624374 0.000000
0.585947 0.622808 0.000000
0.618671 0.621122 0.000000
0.650446 0.619315 0.000000
0.681305 0.617386 0.000000
0.711265 0.615335 0.000000
0.740331 0.613162 0.000000
0.768503 0.610866 0.000000
0.795769 0.608448 0.000000
0.822113 0.605908 0.000000
0.847513 0.603247 0.000000
0.871942 0.600465 0.000000
0.895368 0.597564 0.000000
0.917754 0.594545 0.000000
0.939058 0.591410 0.000000
0.959236 0.588159 0.000000
0.978236 0.584795 0.000000
0.996004 0.581321 0.000000
1.000000 0.577737 0.000000
1.000000 0.574047 0.000000
1.000000 0.570540 0.000000
1.000000 0.567413 0.000000
0.000000 0.662814 0.000000
0.000000 0.662355 0.000000
0.147635 0.661815 0.000000
0.219770 0.661257 0.000000
0.270571 0.660672 0.000000
0.317105 0.659988 0.000000
0.360533 0.659199 0.000000
0.401559 0.658293 0.000000
0.440683 0.657284 0.000000
0.478225 0.656170 0.000000
0.514406 0.654951 0.000000
0.549383 0.653625 0.000000
0.583264 0.652191 0.000000
0.616127 0.650650 0.000000
0.648026 0.649000 0.000000
0.678992 0.647242 0.000000
0.709048 0.645375 0.000000
0.738199 0.643400 0.000000
0.766446 0.641317 0.000000
0.793779 0.639127 0.000000
0.820183 0.636831 0.000000
0.845636 0.634431 0.000000
0.870112 0.631926 0.000000
0.893579 0.629321 0.000000
0.916001 0.626615 0.000000
0.937337 0.623813 0.000000
0.957542 0.620915 0.000000
0.976565 0.617925 0.000000
0.994351 0.614846 0.000000
1.000000 0.611681 0.000000
1.000000 0.608433 0.000000
1.000000 0.605377 0.000000
1.000000 0.602685 0.000000
0.000000 0.690467 0.000000
0.000000 0.690032 0.000000
0.146860 0.689521 0.000000
0.213777 0.689037 0.000000
0.265346 0.688497 0.000000
0.312446 0.687864 0.000000
0.356331 0.687140 0.000000
0.397723 0.686306 0.000000
0.437145 0.685373 0.000000
0.474939 0.684344 0.000000
0.511335 0.683219 0.000000
0.546496 0.681996 0.000000
0.580539 0.680677 0.000000
0.613543 0.679259 0.000000
0.645565 0.677744 0.000000
0.676641 0.676131 0.000000
0.706793 0.674421 0.000000
0.736030 0.672614 0.000000
0.764354 0.670712 0.000000
0.791755 0.668715 0.000000
0.818219 0.666625 0.000000
0.843726 0.664443 0.000000
0.868249 0.662171 0.000000
0.891758 0.659812 0.000000
0.914217 0.657367 0.000000
0.935585 0.654840 0.000000
0.955817 0.652234 0.000000
0.974864 0.649551 0.000000
0.992669 0.646796 0.000000
1.000000 0.643971 0.000000
1.000000 0.641082 0.000000
1.000000 0.638389 0.000000
1.000000 0.636043 0.000000
0.000000 0.717349 0.000000
0.000000 0.716937 0.000000
0.147259 0.716451 0.000000
0.207719 0.716037 0.000000
0.260079 0.715537 0.000000
0.307750 0.714949 0.000000
0.352082 0.714276 0.000000
0.393857 0.713511 0.000000
0.433576 0.712645 0.000000
0.471621 0.711690 0.000000
0.508232 0.710647 0.000000
0.543579 0.709515 0.000000
0.577783 0.708294 0.000000
0.610928 0.706984 0.000000
0.643074 0.705585 0.000000
0.674260 0.704097 0.000000
0.704509 0.702522 0.000000
0.733833 0.700861 0.000000
0.762233 0.699113 0.000000
0.789702 0.697281 0.000000
0.816227 0.695366 0.000000
0.841788 0.693371 0.000000
0.866360 0.691297 0.000000
0.889911 0.689147 0.000000
0.912407 0.686923 0.000000
0.933807 0.684628 0.000000
0.954067 0.682267 0.000000
0.973140 0.679842 0.000000
0.991124 0.677445 0.000000
1.000000 0.674931 0.000000
1.000000 0.672302 0.000000
1.000000 0.669875 0.000000
1.000000 0.667783 0.000000
0.000000 0.743462 0.000000
0.000000 0.743068 0.000000
0.140466 0.742639 0.000000
0.201632 0.742259 0.000000
0.254801 0.741793 0.000000
0.303047 0.741245 0.000000
0.347823 0.740618 0.000000
0.389974 0.739912 0.000000
0.429995 0.739107 0.000000
0.468290 0.738218 0.000000
0.505114 0.737247 0.000000
0.540646 0.736194 0.000000
0.575010 0.735059 0.000000
0.608296 0.733843 0.000000
0.640566 0.732545 0.000000
0.671861 0.731168 0.000000
0.702207 0.729710 0.000000
0.731616 0.728174 0.000000
0.760093 0.726561 0.000000
0.787630 0.724872 0.000000
0.814216 0.723110 0.000000
0.839831 0.721275 0.000000
0.864450 0.719371 0.000000
0.888069 0.717412 0.000000
0.910820 0.715477 0.000000
0.932451 0.713479 0.000000
0.952918 0.711421 0.000000
0.972173 0.709305 0.000000
0.990161 0.707134 0.000000
1.000000 0.704873 0.000000
1.000000 0.702499 0.000000
1.000000 0.700329 0.000000
1.000000 0.698478 0.000000
0.000000 0.768797 0.000000
0.000000 0.768420 0.000000
0.132877 0.768050 0.000000
0.195558 0.767696 0.000000
0.249551 0.767261 0.000000
0.298367 0.766749 0.000000
0.343582 0.766163 0.000000
0.386086 0.765503 0.000000
0.426424 0.764761 0.000000
0.464964 0.763929 0.000000
0.501999 0.763022 0.000000
0.537712 0.762039 0.000000
0.572234 0.760980 0.000000
0.605659 0.759847 0.000000
0.638051 0.758639 0.000000
0.669454 0.757357 0.000000
0.699896 0.756003 0.000000
0.729391 0.754578 0.000000
0.757943 0.753082 0.000000
0.785548 0.751519 0.000000
0.812416 0.749971 0.000000
0.838333 0.748376 0.000000
0.863228 0.746720 0.000000
0.887072 0.745005 0.000000
0.909833 0.743231 0.000000
0.931472 0.741403 0.000000
0.951946 0.739522 0.000000
0.971205 0.737592 0.000000
0.989196 0.735616 0.000000
1.000000 0.733572 0.000000
1.000000 0.731416 0.000000
1.000000 0.729465 0.000000
1.000000 0.727818 0.000000
0.000000 0.793344 0.000000
0.000000 0.792981 0.000000
0.125256 0.792669 0.000000
0.189549 0.792339 0.000000
0.244369 0.791932 0.000000
0.293746 0.791453 0.000000
0.339388 0.790903 0.000000
0.382237 0.790284 0.000000
0.422881 0.789597 0.000000
0.461664 0.788819 0.000000
0.498904 0.787968 0.000000
0.534794 0.787047 0.000000
0.569472 0.786057 0.000000
0.603032 0.784997 0.000000
0.635544 0.783868 0.000000
0.667053 0.782672 0.000000
0.697765 0.781461 0.000000
0.727639 0.780226 0.000000
0.756536 0.778929 0.000000
0.784456 0.777571 0.000000
0.811390 0.776155 0.000000
0.837321 0.774681 0.000000
0.862228 0.773152 0.000000
0.886083 0.771570 0.000000
0.908852 0.769938 0.000000
0.930498 0.768257 0.000000
0.950977 0.766532 0.000000
0.970239 0.764764 0.000000
0.988231 0.762957 0.000000
1.000000 0.761101 0.000000
1.000000 0.759133 0.000000
1.000000 0.757373 0.000000
1.000000 0.755900 0.000000
0.000000 0.817087 0.000000
0.000000 0.816737 0.000000
0.117677 0.816483 0.000000
0.183666 0.816175 0.000000
0.239305 0.815793 0.000000
0.289223 0.815342 0.000000
0.335276 0.814825 0.000000
0.378455 0.814243 0.000000
0.419373 0.813598 0.000000
0.458413 0.812877 0.000000
0.495850 0.812078 0.000000
0.531912 0.811213 0.000000
0.566971 0.810331 0.000000
0.600997 0.809417 0.000000
0.633928 0.808442 0.000000
0.665815 0.807407 0.000000
0.696695 0.806314 0.000000
0.726587 0.805164 0.000000
0.755501 0.803956 0.000000
0.783436 0.802694 0.000000
0.810383 0.801379 0.000000
0.836326 0.800012 0.000000
0.861244 0.798596 0.000000
0.885107 0.797132 0.000000
0.907883 0.795624 0.000000
0.929534 0.794074 0.000000
0.950016 0.792484 0.000000
0.969280 0.790859 0.000000
0.987272 0.789200 0.000000
1.000000 0.787509 0.000000
1.000000 0.785707 0.000000
1.000000 0.784112 0.000000
1.000000 0.782791 0.000000
0.000000 0.840008 0.000000
0.002488 0.839691 0.000000
0.110246 0.839473 0.000000
0.177983 0.839184 0.000000
0.234412 0.838825 0.000000
0.284843 0.838401 0.000000
0.331281 0.837914 0.000000
0.375066 0.837401 0.000000
0.416637 0.836851 0.000000
0.456259 0.836246 0.000000
0.494181 0.835559 0.000000
0.530671 0.834815 0.000000
0.565882 0.834014 0.000000
0.599922 0.833156 0.000000
0.632867 0.832242 0.000000
0.664769 0.831274 0.000000
0.695664 0.830251 0.000000
0.725571 0.829176 0.000000
0.754498 0.828049 0.000000
0.782445 0.826872 0.000000
0.809403 0.825647 0.000000
0.835355 0.824375 0.000000
0.860280 0.823059 0.000000
0.884150 0.821701 0.000000
0.906931 0.820303 0.000000
0.928585 0.818869 0.000000
0.949069 0.817400 0.000000
0.968333 0.815901 0.000000
0.986324 0.814374 0.000000
1.000000 0.812822 0.000000
1.000000 0.811172 0.000000
1.000000 0.809723 0.000000
1.000000 0.808537 0.000000
0.008510 0.862200 0.000000
0.008239 0.861935 0.000000
0.107738 0.861752 0.000000
0.176016 0.861510 0.000000
0.232819 0.861209 0.000000
0.283600 0.860851 0.000000
0.330377 0.860438 0.000000
0.374193 0.859972 0.000000
0.415681 0.859454 0.000000
0.455257 0.858884 0.000000
0.493182 0.858249 0.000000
0.529662 0.857548 0.000000
0.564872 0.856794 0.000000
0.598915 0.855988 0.000000
0.631868 0.855130 0.000000
0.663779 0.854221 0.000000
0.694683 0.853262 0.000000
0.724599 0.852254 0.000000
0.753535 0.851200 0.000000
0.781490 0.850099 0.000000
0.808455 0.848955 0.000000
0.834414 0.847769 0.000000
0.859344 0.846543 0.000000
0.883218 0.845279 0.000000
0.906001 0.843980 0.000000
0.927657 0.842649 0.000000
0.948140 0.841288 0.000000
0.967403 0.839901 0.000000
0.985391 0.838491 0.000000
1.000000 0.837062 0.000000
1.000000 0.835550 0.000000
1.000000 0.834232 0.000000
1.000000 0.833164 0.000000
0.030848 0.883700 0.000000
0.030628 0.883492 0.000000
0.111793 0.883319 0.000000
0.177506 0.883092 0.000000
0.233220 0.882808 0.000000
0.283431 0.882470 0.000000
0.329884 0.882080 0.000000
0.373509 0.881640 0.000000
0.414882 0.881151 0.000000
0.454390 0.880613 0.000000
0.492301 0.880027 0.000000
0.528755 0.879366 0.000000
0.563952 0.878655 0.000000
0.597989 0.877894 0.000000
0.630940 0.877086 0.000000
0.662853 0.876231 0.000000
0.693760 0.875330 0.000000
0.723680 0.874384 0.000000
0.752620 0.873395 0.000000
0.780580 0.872364 0.000000
0.807548 0.871293 0.000000
0.833510 0.870183 0.000000
0.858442 0.869038 0.000000
0.882317 0.867860 0.000000
0.905101 0.866650 0.000000
0.926755 0.865412 0.000000
0.947237 0.864149 0.000000
0.966496 0.862863 0.000000
0.984479 0.861558 0.000000
1.000000 0.860238 0.000000
1.000000 0.858850 0.000000
1.000000 0.857651 0.000000
1.000000 0.856688 0.000000
0.051772 0.904301 0.000000
0.051615 0.904129 0.000000
0.116504 0.903966 0.000000
0.179513 0.903752 0.000000
0.234018 0.903485 0.000000
0.283575 0.903166 0.000000
0.329644 0.902797 0.000000
0.373034 0.902381 0.000000
0.414259 0.901918 0.000000
0.453673 0.901410 0.000000
0.491526 0.900857 0.000000
0.527966 0.900243 0.000000
0.563135 0.899571 0.000000
0.597155 0.898854 0.000000
0.630095 0.898091 0.000000
0.662002 0.897285 0.000000
0.692905 0.896436 0.000000
0.722823 0.895546 0.000000
0.751763 0.894616 0.000000
0.779721 0.893648 0.000000
0.806689 0.892643 0.000000
0.832650 0.891604 0.000000
0.857581 0.890533 0.000000
0.881454 0.889432 0.000000
0.904235 0.888303 0.000000
0.925886 0.887149 0.000000
0.946363 0.885974 0.000000
0.965617 0.884780 0.000000
0.983594 0.883570 0.000000
1.000000 0.882348 0.000000
1.000000 0.881073 0.000000
1.000000 0.879980 0.000000
1.000000 0.879113 0.000000
0.068222 0.923980 0.000000
0.068098 0.923819 0.000000
0.121853 0.923664 0.000000
0.182056 0.923463 0.000000
0.235238 0.923210 0.000000
0.284057 0.922908 0.000000
0.329681 0.922559 0.000000
0.372790 0.922165 0.000000
0.413833 0.921726 0.000000
0.453125 0.921245 0.000000
0.490895 0.920721 0.000000
0.527307 0.920154 0.000000
0.562435 0.919518 0.000000
0.596426 0.918839 0.000000
0.629345 0.918118 0.000000
0.661236 0.917357 0.000000
0.692129 0.916556 0.000000
0.722038 0.915717 0.000000
0.750971 0.914841 0.000000
0.778924 0.913930 0.000000
0.805887 0.912987 0.000000
0.831843 0.912011 0.000000
0.856769 0.911007 0.000000
0.880637 0.909976 0.000000
0.903412 0.908921 0.000000
0.925057 0.907845 0.000000
0.945527 0.906749 0.000000
0.964773 0.905638 0.000000
0.982740 0.904515 0.000000
0.999369 0.903383 0.000000
1.000000 0.902210 0.000000
1.000000 0.901214 0.000000
1.000000 0.900434 0.000000
0.081758 0.942677 0.000000
0.081655 0.942526 0.000000
0.127816 0.942380 0.000000
0.185151 0.942190 0.000000
0.236905 0.941951 0.000000
0.284902 0.941665 0.000000
0.330018 0.941334 0.000000
0.372798 0.940959 0.000000
0.413621 0.940544 0.000000
0.452763 0.940087 0.000000
0.490428 0.939590 0.000000
0.526770 0.939055 0.000000
0.561866 0.938463 0.000000
0.595814 0.937820 0.000000
0.628701 0.937137 0.000000
0.660568 0.936417 0.000000
0.691441 0.935660 0.000000
0.721335 0.934868 0.000000
0.750254 0.934042 0.000000
0.778196 0.933184 0.000000
0.805149 0.932296 0.000000
0.831096 0.931379 0.000000
0.856013 0.930436 0.000000
0.879872 0.929470 0.000000
0.902639 0.928482 0.000000
0.924274 0.927476 0.000000
