public/luts/经典胶片/cinestill-800t.cube
TITLE "CineStill 800T"
LUT_3D_SIZE 5
DOMAIN_MIN 0.000000 0.000000 0.000000
DOMAIN_MAX 1.000000 1.000000 1.000000
0.000000 0.000000 0.000000
0.425389 0.000000 0.118119
0.662662 0.000000 0.266189
0.859018 0.000000 0.356271
1.000000 0.000000 0.427927
0.000000 0.444134 0.074272
0.425389 0.441541 0.150635
0.662662 0.432971 0.282523
0.859018 0.415568 0.361090
1.000000 0.384607 0.430971
0.000000 0.677875 0.182643
0.425389 0.676959 0.226143
0.662662 0.674001 0.310352
0.859018 0.668312 0.375530
1.000000 0.659395 0.440381
0.036554 0.868219 0.292673
0.434121 0.868476 0.307876
0.672303 0.868209 0.346855
0.870071 0.866994 0.399497
1.000000 0.864186 0.456889
0.178164 1.000000 0.351860
0.463715 1.000000 0.361633
0.689853 1.000000 0.389126
0.882896 1.000000 0.430625
1.000000 1.000000 0.479787
0.000000 0.000000 0.465563
0.420050 0.000000 0.470454
0.660741 0.000000 0.485323
0.858115 0.000000 0.510623
0.999626 0.000000 0.544401
0.000000 0.444134 0.468025
0.420050 0.441541 0.472851
0.660741 0.432971 0.487539
0.858115 0.415568 0.512571
0.999626 0.384607 0.546055
0.000000 0.677875 0.475705
0.420050 0.676959 0.480338
0.660741 0.674001 0.494478
0.858115 0.668312 0.518694
1.000000 0.659612 0.551274
0.050669 0.868425 0.489416
0.430267 0.868658 0.493731
0.671153 0.868384 0.506956
0.869666 0.867156 0.529788
1.000000 0.864333 0.560806
0.181927 1.000000 0.508882
0.460037 1.000000 0.512793
0.688682 1.000000 0.524847
0.882469 1.000000 0.545866
1.000000 1.000000 0.574779
0.000000 0.000000 0.696354
0.401819 0.000000 0.698064
0.654484 0.000000 0.703468
0.855196 0.000000 0.713369
0.998415 0.000000 0.727947
0.000000 0.444134 0.697210
0.401819 0.441541 0.698914
0.654484 0.432971 0.704300
0.855196 0.415568 0.714168
0.998415 0.384607 0.728700
0.000000 0.677875 0.699937
0.401819 0.676959 0.701622
0.654484 0.674001 0.706948
0.855196 0.668312 0.716713
0.999889 0.660095 0.731099
0.071623 0.868809 0.705010
0.415089 0.868980 0.706660
0.666454 0.868721 0.711879
0.867811 0.867494 0.721453
1.000000 0.864668 0.735571
0.189283 1.000000 0.712660
0.446042 1.000000 0.714260
0.684098 1.000000 0.719321
0.880624 1.000000 0.728613
1.000000 1.000000 0.742336
0.000000 0.000000 0.880025
0.361185 0.000000 0.880809
0.642240 0.000000 0.883302
0.849574 0.000000 0.887936
0.996082 0.000000 0.894906
0.000000 0.444134 0.880417
0.361185 0.441541 0.881200
0.642240 0.432971 0.883688
0.849574 0.415568 0.888313
0.996082 0.384607 0.895270
0.000000 0.677875 0.881670
0.361185 0.676959 0.882448
0.642240 0.674001 0.884922
0.849574 0.668312 0.889519
0.998597 0.660688 0.896435
0.091661 0.869269 0.884018
0.379160 0.869318 0.884787
0.656162 0.869105 0.887233
0.863508 0.867894 0.891779
1.000000 0.865081 0.898619
0.197839 1.000000 0.887601
0.413402 1.000000 0.888356
0.674128 1.000000 0.890760
0.876386 1.000000 0.895228
1.000000 1.000000 0.901953
0.000000 0.000000 1.000000
0.229494 0.000000 1.000000
0.622102 0.000000 1.000000
0.840600 0.000000 1.000000
0.992357 0.000000 1.000000
0.000000 0.444134 1.000000
0.229494 0.441541 1.000000
0.622102 0.432971 1.000000
0.840600 0.415568 1.000000
0.992357 0.384607 1.000000
0.000000 0.677875 1.000000
0.229494 0.676959 1.000000
0.622102 0.674001 1.000000
0.840916 0.668454 1.000000
0.995631 0.661114 1.000000
0.105451 0.869641 1.000000
0.259993 0.869399 1.000000
0.637715 0.869355 1.000000
0.855572 0.868171 1.000000
1.000000 0.865374 1.000000
0.204387 1.000000 1.000000
0.310674 1.000000 1.000000
0.656289 1.000000 1.000000
0.868574 1.000000 1.000000
1.000000 1.000000 1.000000
