public/luts/经典胶片/cinestill-800t.cube
TITLE "CineStill 800T"
LUT_3D_SIZE 9
DOMAIN_MIN 0.000000 0.000000 0.000000
DOMAIN_MAX 1.000000 1.000000 1.000000
0.000000 0.000000 0.000000
0.266704 0.000000 0.046691
0.425389 0.000000 0.118119
0.549036 0.000000 0.191037
0.662662 0.000000 0.266189
0.766458 0.000000 0.317666
0.859018 0.000000 0.356271
0.937965 0.000000 0.392895
1.000000 0.000000 0.427927
0.000000 0.305378 0.023493
0.266704 0.303586 0.065520
0.425389 0.298906 0.128067
0.549036 0.290091 0.197483
0.662662 0.275464 0.270892
0.766458 0.236326 0.319508
0.859018 0.169062 0.357647
0.937965 0.000000 0.393968
1.000000 0.000000 0.428791
0.000000 0.444134 0.074272
0.266704 0.443406 0.101044
0.425389 0.441541 0.150635
0.549036 0.438168 0.213034
0.662662 0.432971 0.282523
0.766458 0.425593 0.324078
0.859018 0.415568 0.361090
0.937965 0.402242 0.396667
1.000000 0.384607 0.430971
0.000000 0.566647 0.128009
0.266704 0.566242 0.146026
0.425389 0.565206 0.184412
0.549036 0.563348 0.238317
0.662662 0.560524 0.296067
0.766458 0.556592 0.331840
0.859018 0.551402 0.367030
0.937965 0.544781 0.401366
1.000000 0.536519 0.434790
0.000000 0.677875 0.182643
0.266704 0.677617 0.195867
0.425389 0.676959 0.226143
0.549036 0.675782 0.272073
0.662662 0.674001 0.310352
0.766458 0.671537 0.342710
0.859018 0.668312 0.375530
0.937965 0.664246 0.408185
1.000000 0.659395 0.440381
0.000000 0.778532 0.238486
0.266704 0.778358 0.248824
0.425389 0.777914 0.273426
0.549036 0.777120 0.301582
0.662662 0.775921 0.327556
0.768362 0.774894 0.356318
0.862774 0.773552 0.386446
0.943114 0.771634 0.417090
1.000000 0.769003 0.447768
0.036554 0.868219 0.292673
0.276473 0.868360 0.297166
0.434121 0.868476 0.307876
0.558064 0.868429 0.324894
0.672303 0.868209 0.346855
0.776810 0.867755 0.372161
0.870071 0.866994 0.399497
0.949643 0.865839 0.427940
1.000000 0.864186 0.456889
0.133162 0.946133 0.322961
0.304049 0.946286 0.326470
0.450673 0.946457 0.334989
0.570258 0.946538 0.348932
0.681965 0.946526 0.367553
0.784858 0.946375 0.389723
0.877044 0.946027 0.414340
0.955891 0.945412 0.440520
1.000000 0.944442 0.467618
0.178164 1.000000 0.351860
0.324600 1.000000 0.354687
0.463715 1.000000 0.361633
0.580070 1.000000 0.373234
0.689853 1.000000 0.389126
0.791518 1.000000 0.408544
0.882896 1.000000 0.430625
0.961218 1.000000 0.454583
1.000000 1.000000 0.479787
0.000000 0.000000 0.325623
0.260897 0.000000 0.329059
0.423898 0.000000 0.337415
0.548195 0.000000 0.351120
0.662121 0.000000 0.369471
0.766090 0.000000 0.391377
0.858764 0.000000 0.415756
0.937794 0.000000 0.441733
0.999895 0.000000 0.468660
0.000000 0.305378 0.327353
0.260897 0.303586 0.330744
0.423898 0.298906 0.338995
0.548195 0.290091 0.352548
0.662121 0.275464 0.370726
0.766090 0.236326 0.392460
0.858764 0.169062 0.416686
0.937794 0.000000 0.442530
0.999895 0.000000 0.469346
0.000000 0.444134 0.331653
0.260897 0.443406 0.334935
0.423898 0.441541 0.342935
0.548195 0.438168 0.356118
0.662121 0.432971 0.373872
0.766090 0.425593 0.395185
0.858764 0.415568 0.419029
0.937794 0.402242 0.444543
0.999895 0.384607 0.471080
0.000000 0.566647 0.338986
0.260897 0.566242 0.342091
0.423898 0.565206 0.349685
0.548195 0.563348 0.362266
0.662121 0.560524 0.379319
0.766090 0.556592 0.399929
0.858764 0.551402 0.423126
0.937794 0.544781 0.448076
0.999895 0.536519 0.474134
0.000000 0.677875 0.349308
0.260897 0.677617 0.352187
0.423898 0.676959 0.359255
0.548195 0.675782 0.371043
0.662121 0.674001 0.387158
0.766090 0.671537 0.406808
0.858764 0.668312 0.429108
0.937794 0.664246 0.453263
1.000000 0.659463 0.478637
0.000000 0.778532 0.362308
0.260897 0.778358 0.364933
0.423898 0.777914 0.371406
0.548195 0.777120 0.382281
0.662121 0.775921 0.397293
0.768201 0.774962 0.415788
0.862685 0.773615 0.436983
0.943079 0.771692 0.460141
1.000000 0.769058 0.484644
0.041887 0.868293 0.377537
0.271699 0.868421 0.379903
0.433145 0.868541 0.385761
0.557575 0.868492 0.395677
0.672022 0.868269 0.409501
0.776642 0.867811 0.426721
0.869977 0.867047 0.446667
0.949604 0.865888 0.468670
1.000000 0.864232 0.492146
0.135018 0.946193 0.394515
0.299720 0.946335 0.396632
0.449704 0.946511 0.401894
0.569760 0.946590 0.410865
0.681674 0.946576 0.423490
0.784683 0.946422 0.439388
0.876944 0.946072 0.458005
0.955848 0.945454 0.478750
1.000000 0.944482 0.501082
0.179433 1.000000 0.412803
0.320545 1.000000 0.414691
0.462748 1.000000 0.419400
0.579561 1.000000 0.427479
0.689553 1.000000 0.438948
0.791335 1.000000 0.453538
0.882791 1.000000 0.470805
0.961171 1.000000 0.490241
1.000000 1.000000 0.511356
0.000000 0.000000 0.465563
0.245544 0.000000 0.466956
0.420050 0.000000 0.470454
0.546040 0.000000 0.476532
0.660741 0.000000 0.485323
0.765151 0.000000 0.496757
0.858115 0.000000 0.510623
0.937357 0.000000 0.526618
0.999626 0.000000 0.544401
0.000000 0.305378 0.466261
0.245544 0.303586 0.467648
0.420050 0.298906 0.471133
0.546040 0.290091 0.477190
0.660741 0.275464 0.485950
0.765151 0.236326 0.497349
0.858115 0.169062 0.511175
0.937357 0.000000 0.527127
0.999626 0.000000 0.544869
0.000000 0.444134 0.468025
0.245544 0.443406 0.469399
0.420050 0.441541 0.472851
0.546040 0.438168 0.478853
0.660741 0.432971 0.487539
0.765151 0.425593 0.498847
0.858115 0.415568 0.512571
0.937357 0.402242 0.528419
0.999626 0.384607 0.546055
0.000000 0.566647 0.471129
0.245544 0.566242 0.472480
0.420050 0.565206 0.475876
0.546040 0.563348 0.481783
0.660741 0.560524 0.490339
0.765151 0.556592 0.501489
0.858115 0.551402 0.515038
0.937357 0.544781 0.530701
0.999626 0.536519 0.548154
0.000000 0.677875 0.475705
0.245544 0.677617 0.477023
0.420050 0.676959 0.480338
0.546040 0.675782 0.486109
0.660741 0.674001 0.494478
0.765151 0.671537 0.505400
0.858115 0.668312 0.518694
0.937357 0.664246 0.534090
1.000000 0.659612 0.551274
0.000000 0.778532 0.481804
0.245544 0.778358 0.483081
0.420050 0.777914 0.486292
0.546040 0.777120 0.491888
0.660966 0.775982 0.500015
0.767672 0.775095 0.510642
0.862377 0.773745 0.523605
0.942933 0.771817 0.538650
1.000000 0.769178 0.555481
0.050669 0.868425 0.489416
0.258511 0.868525 0.490643
0.430267 0.868658 0.493731
0.556096 0.868609 0.499118
0.671153 0.868384 0.506956
0.776111 0.867923 0.517227
0.869666 0.867156 0.529788
0.949454 0.865994 0.544408
1.000000 0.864333 0.560806
0.138482 0.946307 0.498476
0.287972 0.946424 0.499647
0.446926 0.946611 0.502597
0.568299 0.946691 0.507749
0.680806 0.946675 0.515259
0.784148 0.946520 0.525125
0.876628 0.946166 0.537226
0.955693 0.945545 0.551353
1.000000 0.944571 0.567248
0.181927 1.000000 0.508882
0.309679 1.000000 0.509993
0.460037 1.000000 0.512793
0.578110 1.000000 0.517692
0.688682 1.000000 0.524847
0.790794 1.000000 0.534271
0.882469 1.000000 0.545866
0.961011 1.000000 0.559446
1.000000 1.000000 0.574779
0.000000 0.000000 0.587248
0.215657 0.000000 0.588016
0.412986 0.000000 0.589958
0.542150 0.000000 0.593382
0.658260 0.000000 0.598438
0.763468 0.000000 0.605196
0.856954 0.000000 0.613654
0.936575 0.000000 0.623754
0.999144 0.000000 0.635390
0.000000 0.305378 0.587632
0.215657 0.303586 0.588399
0.412986 0.298906 0.590338
0.542150 0.290091 0.593756
0.658260 0.275464 0.598804
0.763468 0.236326 0.605550
0.856954 0.169062 0.613996
0.936575 0.000000 0.624081
0.999144 0.000000 0.635702
0.000000 0.444134 0.588607
0.215657 0.443406 0.589370
0.412986 0.441541 0.591302
0.542150 0.438168 0.594705
0.658260 0.432971 0.599732
0.763468 0.425593 0.606452
0.856954 0.415568 0.614864
0.936575 0.402242 0.624913
0.999144 0.384607 0.636494
0.000000 0.566647 0.590336
0.215657 0.566242 0.591093
0.412986 0.565206 0.593010
0.542150 0.563348 0.596388
0.658260 0.560524 0.601378
0.763468 0.556592 0.608050
0.856954 0.551402 0.616406
0.936575 0.544781 0.626389
0.999144 0.536519 0.637899
0.000000 0.677875 0.592912
0.215657 0.677617 0.593661
0.412986 0.676959 0.595556
0.542150 0.675782 0.598896
0.658260 0.674001 0.603832
0.763468 0.671537 0.610434
0.856954 0.668312 0.618705
0.936575 0.664246 0.628593
1.000000 0.659829 0.639997
0.000000 0.778532 0.596400
0.215657 0.778358 0.597137
0.412986 0.777914 0.599003
0.542150 0.777120 0.602293
0.659166 0.776165 0.607157
0.766552 0.775278 0.613665
0.861695 0.773926 0.621824
0.942570 0.771996 0.631582
1.000000 0.769355 0.642846
0.060951 0.868601 0.600834
0.232504 0.868652 0.601557
0.424551 0.868809 0.603387
0.553130 0.868764 0.606615
0.669380 0.868540 0.611389
0.775000 0.868079 0.617780
0.868986 0.867310 0.625798
0.949090 0.866146 0.635395
1.000000 0.864484 0.646483
0.143041 0.946462 0.606229
0.265279 0.946534 0.606935
0.441458 0.946744 0.608723
0.565401 0.946827 0.611877
0.679054 0.946812 0.616544
0.783043 0.946656 0.622796
0.875948 0.946302 0.630646
0.955327 0.945679 0.640051
1.000000 0.944703 0.650928
0.185317 1.000000 0.612576
0.288955 1.000000 0.613263
0.454743 1.000000 0.615003
0.575259 1.000000 0.618073
0.686944 1.000000 0.622618
0.789693 1.000000 0.628711
0.881787 1.000000 0.636368
0.960641 1.000000 0.645551
1.000000 1.000000 0.656185
0.000000 0.000000 0.696354
0.161244 0.000000 0.696837
0.401819 0.000000 0.698064
0.536174 0.000000 0.700236
0.654484 0.000000 0.703468
0.760916 0.000000 0.707833
0.855196 0.000000 0.713369
0.935391 0.000000 0.720081
0.998415 0.000000 0.727947
0.000000 0.305378 0.696596
0.161244 0.303586 0.697079
0.401819 0.298906 0.698304
0.536174 0.290091 0.700474
0.654484 0.275464 0.703703
0.760916 0.236326 0.708064
0.855196 0.169062 0.713595
0.935391 0.000000 0.720301
0.998415 0.000000 0.728159
0.000000 0.444134 0.697210
0.161244 0.443406 0.697692
0.401819 0.441541 0.698914
0.536174 0.438168 0.701078
0.654484 0.432971 0.704300
0.760916 0.425593 0.708650
0.855196 0.415568 0.714168
0.935391 0.402242 0.720859
0.998415 0.384607 0.728700
0.000000 0.566647 0.698302
0.161244 0.566242 0.698782
0.401819 0.565206 0.699999
0.536174 0.563348 0.702153
0.654484 0.560524 0.705361
0.760916 0.556592 0.709693
0.855196 0.551402 0.715187
0.935391 0.544781 0.721850
0.998415 0.536519 0.729660
0.000000 0.677875 0.699937
0.161244 0.677617 0.700413
0.401819 0.676959 0.701622
0.536174 0.675782 0.703762
0.654484 0.674001 0.706948
0.760916 0.671537 0.711253
0.855196 0.668312 0.716713
0.935544 0.664326 0.723335
0.999889 0.660095 0.731099
0.000000 0.778532 0.702161
0.161244 0.778358 0.702633
0.401819 0.777914 0.703831
0.536174 0.777120 0.705952
0.656188 0.776377 0.709110
0.764667 0.775492 0.713377
0.860512 0.774141 0.718790
0.941895 0.772212 0.725357
1.000000 0.769572 0.733058
0.071623 0.868809 0.705010
0.186356 0.868787 0.705476
0.415089 0.868980 0.706660
0.548276 0.868942 0.708757
0.666454 0.868721 0.711879
0.773137 0.868262 0.716099
0.867811 0.867494 0.721453
0.948417 0.866330 0.727950
1.000000 0.864668 0.735571
0.148266 0.946645 0.708505
0.226745 0.946653 0.708965
0.432440 0.946894 0.710132
0.560672 0.946984 0.712200
0.676175 0.946972 0.715279
0.781199 0.946818 0.719440
0.874781 0.946464 0.724723
0.954656 0.945842 0.731135
1.000000 0.944866 0.738659
0.189283 1.000000 0.712660
0.254571 1.000000 0.713112
0.446042 1.000000 0.714260
0.570622 1.000000 0.716293
0.684098 1.000000 0.719321
0.787861 1.000000 0.723415
0.880624 1.000000 0.728613
0.959970 1.000000 0.734926
1.000000 1.000000 0.742336
0.000000 0.000000 0.794096
0.019745 0.000000 0.794419
0.385276 0.000000 0.795242
0.527722 0.000000 0.796701
0.649216 0.000000 0.798880
0.757374 0.000000 0.801838
0.852762 0.000000 0.805611
0.933753 0.000000 0.810219
0.997405 0.000000 0.815665
0.000000 0.305378 0.794258
0.019745 0.303586 0.794581
0.385276 0.298906 0.795403
0.527722 0.290091 0.796861
0.649216 0.275464 0.799039
0.757374 0.236326 0.801994
0.852762 0.169062 0.805765
0.933753 0.000000 0.810370
0.997405 0.000000 0.815812
0.000000 0.444134 0.794669
0.019745 0.443406 0.794992
0.385276 0.441541 0.795813
0.527722 0.438168 0.797268
0.649216 0.432971 0.799443
0.757374 0.425593 0.802393
0.852762 0.415568 0.806157
0.933753 0.402242 0.810755
0.997405 0.384607 0.816188
0.000000 0.566647 0.795402
0.019745 0.566242 0.795724
0.385276 0.565206 0.796542
0.527722 0.563348 0.797993
0.649216 0.560524 0.800161
0.757374 0.556592 0.803102
0.852762 0.551402 0.806855
0.933753 0.544781 0.811439
0.997405 0.536519 0.816857
0.000000 0.677875 0.796500
0.019745 0.677617 0.796821
0.385276 0.676959 0.797634
0.527722 0.675782 0.799079
0.649216 0.674001 0.801237
0.757374 0.671537 0.804165
0.852762 0.668312 0.807902
0.934462 0.664615 0.812466
0.999393 0.660389 0.817860
0.000000 0.778532 0.797998
0.019745 0.778358 0.798317
0.385276 0.777914 0.799126
0.527722 0.777120 0.800561
0.651787 0.776602 0.802706
0.761855 0.775722 0.805616
0.858710 0.774375 0.809330
0.940820 0.772449 0.813866
1.000000 0.769811 0.819229
0.082025 0.869036 0.799923
0.093261 0.868921 0.800239
0.400641 0.869155 0.801041
0.541105 0.869129 0.802466
0.662136 0.868914 0.804593
0.770360 0.868459 0.807480
0.866025 0.867693 0.811165
0.947349 0.866533 0.815667
1.000000 0.864873 0.820988
0.153795 0.946847 0.802294
0.160266 0.946771 0.802607
0.418719 0.947049 0.803402
0.553696 0.947150 0.804812
0.671931 0.947143 0.806918
0.778455 0.946992 0.809777
0.873010 0.946641 0.813427
0.953593 0.946021 0.817886
1.000000 0.945046 0.823157
0.193552 1.000000 0.805126
0.198706 1.000000 0.805435
0.432844 1.000000 0.806220
0.563794 1.000000 0.807613
0.679911 1.000000 0.809695
0.785142 1.000000 0.812521
0.878863 1.000000 0.816128
0.958911 1.000000 0.820536
1.000000 1.000000 0.825749
0.000000 0.000000 0.880025
0.000000 0.000000 0.880247
0.361185 0.000000 0.880809
0.516313 0.000000 0.881808
0.642240 0.000000 0.883302
0.752720 0.000000 0.885335
0.849574 0.000000 0.887936
0.931610 0.000000 0.891123
0.996082 0.000000 0.894906
0.000000 0.305378 0.880136
0.000000 0.303586 0.880357
0.361185 0.298906 0.880919
0.516313 0.290091 0.881918
0.642240 0.275464 0.883411
0.752720 0.236326 0.885443
0.849574 0.169062 0.888042
0.931610 0.000000 0.891228
0.996082 0.000000 0.895009
0.000000 0.444134 0.880417
0.000000 0.443406 0.880638
0.361185 0.441541 0.881200
0.516313 0.438168 0.882197
0.642240 0.432971 0.883688
0.752720 0.425593 0.885717
0.849574 0.415568 0.888313
0.931610 0.402242 0.891495
0.996082 0.384607 0.895270
0.000000 0.566647 0.880919
0.000000 0.566242 0.881139
0.361185 0.565206 0.881699
0.516313 0.563348 0.882694
0.642240 0.560524 0.884182
0.752720 0.556592 0.886206
0.849574 0.551402 0.888795
0.931610 0.544781 0.891970
0.996082 0.536519 0.895736
0.000000 0.677875 0.881670
0.000000 0.677617 0.881890
0.361185 0.676959 0.882448
0.516313 0.675782 0.883439
0.642240 0.674001 0.884922
0.752720 0.671537 0.886938
0.849574 0.668312 0.889519
0.932884 0.664907 0.892682
0.998597 0.660688 0.896435
0.000000 0.778532 0.882697
0.000000 0.778358 0.882916
0.361185 0.777914 0.883471
0.517317 0.777318 0.884457
0.645694 0.776824 0.885932
0.757944 0.775951 0.887939
0.856167 0.774609 0.890507
0.939255 0.772688 0.893655
1.000000 0.770056 0.897390
0.091661 0.869269 0.884018
0.091551 0.869146 0.884235
0.379160 0.869318 0.884787
0.531090 0.869311 0.885767
0.656162 0.869105 0.887233
0.766502 0.868655 0.889227
0.863508 0.867894 0.891779
0.945795 0.866737 0.894907
1.000000 0.865081 0.898619
0.159271 0.947054 0.885649
0.159226 0.946972 0.885865
0.398430 0.947193 0.886412
0.543969 0.947310 0.887384
0.666065 0.947312 0.888839
0.774645 0.947166 0.890817
0.870515 0.946819 0.893349
0.952049 0.946202 0.896453
1.000000 0.945231 0.900137
0.197839 1.000000 0.887601
0.197851 1.000000 0.887814
0.413402 1.000000 0.888356
0.554284 1.000000 0.889319
0.674128 1.000000 0.890760
0.781370 1.000000 0.892720
0.876386 1.000000 0.895228
0.957374 1.000000 0.898303
1.000000 1.000000 0.901953
0.000000 0.000000 0.952785
0.000000 0.000000 0.952934
0.325053 0.000000 0.953312
0.501289 0.000000 0.953985
0.633306 0.000000 0.954991
0.746820 0.000000 0.956360
0.845550 0.000000 0.958114
0.928909 0.000000 0.960267
0.994411 0.000000 0.962825
0.000000 0.305378 0.952860
0.000000 0.303586 0.953009
0.325053 0.298906 0.953387
0.501289 0.290091 0.954058
0.633306 0.275464 0.955064
0.746820 0.236326 0.956433
0.845550 0.169062 0.958186
0.928909 0.000000 0.960338
0.994411 0.000000 0.962895
0.000000 0.444134 0.953049
0.000000 0.443406 0.953198
0.325053 0.441541 0.953575
0.501289 0.438168 0.954246
0.633306 0.432971 0.955251
0.746820 0.425593 0.956618
0.845550 0.415568 0.958369
0.928909 0.402242 0.960518
0.994411 0.384607 0.963072
0.000000 0.566647 0.953386
0.000000 0.566242 0.953534
0.325053 0.565206 0.953911
0.501289 0.563348 0.954581
0.633306 0.560524 0.955583
0.746820 0.556592 0.956947
0.845550 0.551402 0.958695
0.928909 0.544781 0.960839
0.994411 0.536519 0.963387
0.000000 0.677875 0.953892
0.000000 0.677617 0.954040
0.325053 0.676959 0.954415
0.501289 0.675782 0.955083
0.633306 0.674001 0.956082
0.746820 0.671537 0.957441
0.845560 0.668316 0.959183
0.930711 0.665177 0.961321
0.997422 0.660969 0.963861
0.000000 0.778532 0.954583
0.000000 0.778358 0.954730
0.325053 0.777914 0.955104
0.503293 0.777501 0.955769
0.637587 0.777021 0.956763
0.752743 0.776157 0.958117
0.852752 0.774823 0.959851
0.937099 0.772910 0.961979
1.000000 0.770284 0.964507
0.100097 0.869491 0.955473
0.099989 0.869369 0.955619
0.346554 0.869445 0.955991
0.517533 0.869468 0.956652
0.648219 0.869274 0.957640
0.761374 0.868832 0.958986
0.860128 0.868078 0.960710
0.943657 0.866927 0.962826
1.000000 0.865277 0.965340
0.164322 0.947251 0.956572
0.164275 0.947169 0.956717
0.367909 0.947306 0.957086
0.530823 0.947450 0.957742
0.658272 0.947462 0.958724
0.769583 0.947323 0.960060
0.867167 0.946982 0.961772
0.949926 0.946370 0.963873
1.000000 0.945404 0.966369
0.201840 1.000000 0.957888
0.201849 1.000000 0.958032
0.384336 1.000000 0.958398
0.541448 1.000000 0.959049
0.666451 1.000000 0.960022
0.776360 1.000000 0.961347
0.873064 1.000000 0.963044
0.955263 1.000000 0.965126
1.000000 1.000000 0.967601
0.000000 0.000000 1.000000
0.000000 0.000000 1.000000
0.229494 0.000000 1.000000
0.481695 0.000000 1.000000
0.622102 0.000000 1.000000
0.739519 0.000000 1.000000
0.840600 0.000000 1.000000
0.925593 0.000000 1.000000
0.992357 0.000000 1.000000
0.000000 0.305378 1.000000
0.000000 0.303586 1.000000
0.229494 0.298906 1.000000
0.481695 0.290091 1.000000
0.622102 0.275464 1.000000
0.739519 0.236326 1.000000
0.840600 0.169062 1.000000
0.925593 0.000000 1.000000
0.992357 0.000000 1.000000
0.000000 0.444134 1.000000
0.000000 0.443406 1.000000
0.229494 0.441541 1.000000
0.481695 0.438168 1.000000
0.622102 0.432971 1.000000
0.739519 0.425593 1.000000
0.840600 0.415568 1.000000
0.925593 0.402242 1.000000
0.992357 0.384607 1.000000
0.000000 0.566647 1.000000
0.000000 0.566242 1.000000
0.229494 0.565206 1.000000
0.481695 0.563348 1.000000
0.622102 0.560524 1.000000
0.739519 0.556592 1.000000
0.840600 0.551402 1.000000
0.925593 0.544781 1.000000
0.992357 0.536519 1.000000
0.000000 0.677875 1.000000
0.000000 0.677617 1.000000
0.229494 0.676959 1.000000
0.481695 0.675782 1.000000
0.622102 0.674001 1.000000
0.739519 0.671537 1.000000
0.840916 0.668454 1.000000
0.927679 0.665319 1.000000
0.995631 0.661114 1.000000
0.000000 0.778532 1.000000
0.000000 0.778358 1.000000
0.229494 0.777914 1.000000
0.484244 0.777581 1.000000
0.626865 0.777118 1.000000
0.745852 0.776263 1.000000
0.848152 0.774934 1.000000
0.934088 0.773024 1.000000
1.000000 0.770401 1.000000
0.105451 0.869641 1.000000
0.105332 0.869518 1.000000
0.259993 0.869399 1.000000
0.499154 0.869534 1.000000
0.637715 0.869355 1.000000
0.754575 0.868920 1.000000
0.855572 0.868171 1.000000
0.940666 0.867023 1.000000
1.000000 0.865374 1.000000
0.167583 0.947382 1.000000
0.167526 0.947299 1.000000
0.289155 0.947262 1.000000
0.513025 0.947506 1.000000
0.647962 0.947531 1.000000
0.762868 0.947398 1.000000
0.862650 0.947061 1.000000
0.946953 0.946452 1.000000
1.000000 0.945488 1.000000
0.204387 1.000000 1.000000
0.204387 1.000000 1.000000
0.310674 1.000000 1.000000
0.524084 1.000000 1.000000
0.656289 1.000000 1.000000
0.769707 1.000000 1.000000
0.868574 1.000000 1.000000
0.952300 1.000000 1.000000
1.000000 1.000000 1.000000
