public/luts/经典胶片/cinestill-800t.cube
TITLE "CineStill 800T"
LUT_3D_SIZE 33
DOMAIN_MIN 0.000000 0.000000 0.000000
DOMAIN_MAX 1.000000 1.000000 1.000000
0.000000 0.000000 0.000000
0.094127 0.000000 0.007908
0.150759 0.000000 0.016870
0.207838 0.000000 0.029749
0.266704 0.000000 0.046691
0.323867 0.000000 0.064450
0.358811 0.000000 0.082266
0.392586 0.000000 0.100152
0.425389 0.000000 0.118119
0.457356 0.000000 0.136178
0.488581 0.000000 0.154344
0.519126 0.000000 0.172626
0.549036 0.000000 0.191037
0.578335 0.000000 0.209588
0.607038 0.000000 0.228291
0.635149 0.000000 0.247155
0.662662 0.000000 0.266189
0.689568 0.000000 0.285402
0.715850 0.000000 0.297444
0.741489 0.000000 0.307641
0.766458 0.000000 0.317666
0.790729 0.000000 0.327531
0.814271 0.000000 0.337248
0.837047 0.000000 0.346825
0.859018 0.000000 0.356271
0.880143 0.000000 0.365595
0.900376 0.000000 0.374802
0.919668 0.000000 0.383900
0.937965 0.000000 0.392895
0.955212 0.000000 0.401790
0.971345 0.000000 0.410591
0.986298 0.000000 0.419302
1.000000 0.000000 0.427927
0.000000 0.123787 0.003952
0.094127 0.122290 0.011866
0.150759 0.120577 0.020836
0.207838 0.118080 0.033723
0.266704 0.114652 0.050195
0.323867 0.110140 0.067279
0.358811 0.104354 0.084618
0.392586 0.097032 0.102150
0.425389 0.087787 0.119848
0.457356 0.075995 0.137698
0.488581 0.060511 0.155695
0.519126 0.038682 0.173840
0.549036 0.010658 0.192138
0.578335 0.000000 0.210595
0.607038 0.000000 0.229217
0.635149 0.000000 0.248012
0.662662 0.000000 0.266987
0.689568 0.000000 0.286149
0.715850 0.000000 0.297814
0.741489 0.000000 0.307980
0.766458 0.000000 0.317979
0.790729 0.000000 0.327820
0.814271 0.000000 0.337516
0.837047 0.000000 0.347074
0.859018 0.000000 0.356504
0.880143 0.000000 0.365813
0.900376 0.000000 0.375007
0.919668 0.000000 0.384093
0.937965 0.000000 0.393076
0.955212 0.000000 0.401961
0.971345 0.000000 0.410753
0.986298 0.000000 0.419456
1.000000 0.000000 0.428073
0.000000 0.192207 0.008428
0.094127 0.191220 0.016349
0.150759 0.190099 0.025326
0.207838 0.188479 0.038225
0.266704 0.186283 0.053975
0.323867 0.183445 0.070376
0.358811 0.179894 0.087215
0.392586 0.175550 0.104371
0.425389 0.170318 0.121778
0.457356 0.164082 0.139398
0.488581 0.156692 0.157210
0.519126 0.147951 0.175205
0.549036 0.137585 0.193377
0.578335 0.125190 0.211729
0.607038 0.110122 0.230261
0.635149 0.091227 0.248979
0.662662 0.066005 0.267888
0.689568 0.027388 0.286992
0.715850 0.000000 0.298231
0.741489 0.000000 0.308363
0.766458 0.000000 0.318331
0.790729 0.000000 0.328146
0.814271 0.000000 0.337818
0.837047 0.000000 0.347356
0.859018 0.000000 0.356767
0.880143 0.000000 0.366059
0.900376 0.000000 0.375238
0.919668 0.000000 0.384310
0.937965 0.000000 0.393281
0.955212 0.000000 0.402155
0.971345 0.000000 0.410936
0.986298 0.000000 0.419630
1.000000 0.000000 0.428238
0.000000 0.261638 0.014853
0.094127 0.260904 0.022783
0.150759 0.260072 0.031772
0.207838 0.258875 0.044494
0.266704 0.257258 0.059099
0.323867 0.255182 0.074643
0.358811 0.252606 0.090831
0.392586 0.249486 0.107485
0.425389 0.245777 0.124498
0.457356 0.241429 0.141803
0.488581 0.236383 0.159359
0.519126 0.230572 0.177143
0.549036 0.223917 0.195140
0.578335 0.216321 0.213343
0.607038 0.207661 0.231750
0.635149 0.197782 0.250360
0.662662 0.186473 0.269174
0.689568 0.173445 0.288196
0.715850 0.158271 0.298826
0.741489 0.140275 0.308910
0.766458 0.118273 0.318835
0.790729 0.089771 0.328612
0.814271 0.047208 0.338251
0.837047 0.000000 0.347759
0.859018 0.000000 0.357143
0.880143 0.000000 0.366412
0.900376 0.000000 0.375569
0.919668 0.000000 0.384622
0.937965 0.000000 0.393575
0.955212 0.000000 0.402432
0.971345 0.000000 0.411199
0.986298 0.000000 0.419879
1.000000 0.000000 0.428475
0.000000 0.305378 0.023493
0.094127 0.305078 0.031436
0.150759 0.304737 0.040439
0.207838 0.304247 0.052139
0.266704 0.303586 0.065520
0.323867 0.302738 0.080088
0.358811 0.301686 0.095504
0.392586 0.300414 0.111546
0.425389 0.298906 0.128067
0.457356 0.297141 0.144973
0.488581 0.295099 0.162202
0.519126 0.292758 0.179714
0.549036 0.290091 0.197483
0.578335 0.287067 0.215493
0.607038 0.283651 0.233735
0.635149 0.279800 0.252202
0.662662 0.275464 0.270892
0.689568 0.269001 0.289443
0.715850 0.259278 0.299621
0.741489 0.248441 0.309640
0.766458 0.236326 0.319508
0.790729 0.222713 0.329236
0.814271 0.207301 0.338830
0.837047 0.189648 0.348298
0.859018 0.169062 0.357647
0.880143 0.144347 0.366883
0.900376 0.113064 0.376012
0.919668 0.068353 0.385039
0.937965 0.000000 0.393968
0.955212 0.000000 0.402804
0.971345 0.000000 0.411551
0.986298 0.000000 0.420212
1.000000 0.000000 0.428791
0.000000 0.342231 0.034534
0.094127 0.342003 0.042431
0.150759 0.341744 0.050569
0.207838 0.341373 0.060918
0.266704 0.340872 0.073086
0.323867 0.340231 0.086627
0.358811 0.339437 0.101195
0.392586 0.338482 0.116540
0.425389 0.337352 0.132490
0.457356 0.336036 0.148924
0.488581 0.334522 0.165761
0.519126 0.332797 0.182943
0.549036 0.330846 0.200434
0.578335 0.328653 0.218206
0.607038 0.326200 0.236243
0.635149 0.323468 0.254533
0.662662 0.320433 0.273069
0.689568 0.317070 0.290542
0.715850 0.313347 0.300627
0.741489 0.309229 0.310565
0.766458 0.304672 0.320362
0.790729 0.299623 0.330026
0.814271 0.294020 0.339565
0.837047 0.287780 0.348983
0.859018 0.280800 0.358287
0.880143 0.272945 0.367483
0.900376 0.257476 0.376575
0.919668 0.239864 0.385569
0.937965 0.219935 0.394468
0.955212 0.196988 0.403277
0.971345 0.169834 0.411998
0.986298 0.136111 0.420637
1.000000 0.089592 0.429195
0.000000 0.377448 0.047639
0.094127 0.377267 0.054411
0.150759 0.377063 0.061439
0.207838 0.376769 0.070602
0.266704 0.376374 0.081632
0.323867 0.375869 0.094151
0.358811 0.375244 0.107836
0.392586 0.374493 0.122432
0.425389 0.373608 0.137750
0.457356 0.372579 0.153653
0.488581 0.371399 0.170041
0.519126 0.370058 0.186842
0.549036 0.368549 0.204007
0.578335 0.366860 0.221499
0.607038 0.364981 0.239294
0.635149 0.362901 0.257373
0.662662 0.360607 0.275724
0.689568 0.358085 0.291880
0.715850 0.355319 0.301853
0.741489 0.352291 0.311693
0.766458 0.348981 0.321404
0.790729 0.345366 0.330993
0.814271 0.341420 0.340463
0.837047 0.337111 0.349821
0.859018 0.332402 0.359071
0.880143 0.327250 0.368218
0.900376 0.321601 0.377266
0.919668 0.315391 0.386219
0.937965 0.308537 0.395081
0.955212 0.300937 0.403856
0.971345 0.292452 0.412547
0.986298 0.282900 0.421157
1.000000 0.271571 0.429690
0.000000 0.411344 0.060940
0.094127 0.411197 0.066731
0.150759 0.411030 0.072859
0.207838 0.410791 0.081005
0.266704 0.410470 0.090998
0.323867 0.410059 0.102539
0.358811 0.409552 0.115342
0.392586 0.408943 0.129165
0.425389 0.408225 0.143814
0.457356 0.407393 0.159141
0.488581 0.406441 0.175034
0.519126 0.405361 0.191410
0.549036 0.404148 0.208208
0.578335 0.402795 0.225382
0.607038 0.401294 0.242899
0.635149 0.399639 0.260735
0.662662 0.397821 0.278872
0.689568 0.395831 0.293462
0.715850 0.393659 0.303305
0.741489 0.391297 0.313031
0.766458 0.388730 0.322642
0.790729 0.385949 0.332141
0.814271 0.382937 0.341531
0.837047 0.379679 0.350818
0.859018 0.376157 0.360004
0.880143 0.372351 0.369093
0.900376 0.368238 0.378088
0.919668 0.363790 0.386994
0.937965 0.358975 0.395813
0.955212 0.353756 0.404548
0.971345 0.348090 0.413203
0.986298 0.341921 0.421779
1.000000 0.335185 0.430280
0.000000 0.444134 0.074272
0.094127 0.444012 0.079300
0.150759 0.443873 0.084697
0.207838 0.443674 0.091976
0.266704 0.443406 0.101044
0.323867 0.443064 0.111674
0.358811 0.442643 0.123624
0.392586 0.442137 0.136673
0.425389 0.441541 0.150635
0.457356 0.440851 0.165359
0.488581 0.440062 0.180724
0.519126 0.439169 0.196639
0.549036 0.438168 0.213034
0.578335 0.437052 0.229856
0.607038 0.435818 0.247064
0.635149 0.434460 0.264627
0.662662 0.432971 0.282523
0.689568 0.431347 0.295290
0.715850 0.429581 0.304987
0.741489 0.427665 0.314583
0.766458 0.425593 0.324078
0.790729 0.423356 0.333475
0.814271 0.420946 0.342774
0.837047 0.418353 0.351979
0.859018 0.415568 0.361090
0.880143 0.412577 0.370113
0.900376 0.409369 0.379047
0.919668 0.405930 0.387898
0.937965 0.402242 0.396667
0.955212 0.398288 0.405356
0.971345 0.394047 0.413968
0.986298 0.389496 0.422506
1.000000 0.384607 0.430971
0.000000 0.475968 0.087640
0.094127 0.475865 0.092063
0.150759 0.475747 0.096860
0.207838 0.475578 0.103402
0.266704 0.475351 0.111655
0.323867 0.475062 0.121450
0.358811 0.474705 0.132592
0.392586 0.474276 0.144887
0.425389 0.473773 0.158161
0.457356 0.473189 0.172267
0.488581 0.472523 0.187082
0.519126 0.471769 0.202511
0.549036 0.470925 0.218476
0.578335 0.469986 0.234918
0.607038 0.468949 0.251789
0.635149 0.467809 0.269053
0.662662 0.466561 0.286682
0.689568 0.465203 0.297366
0.715850 0.463729 0.306899
0.741489 0.462134 0.316350
0.766458 0.460413 0.325717
0.790729 0.458560 0.334998
0.814271 0.456571 0.344195
0.837047 0.454437 0.353306
0.859018 0.452154 0.362335
0.880143 0.449713 0.371281
0.900376 0.447106 0.380147
0.919668 0.444324 0.388935
0.937965 0.441359 0.397646
0.955212 0.438199 0.406283
0.971345 0.434832 0.414847
0.986298 0.431247 0.423341
1.000000 0.427427 0.431765
0.000000 0.506953 0.101049
0.094127 0.506863 0.104983
0.150759 0.506762 0.109283
0.207838 0.506617 0.115199
0.266704 0.506422 0.122736
0.323867 0.506173 0.131776
0.358811 0.505866 0.142164
0.392586 0.505498 0.153736
0.425389 0.505066 0.166335
0.457356 0.504565 0.179823
0.488581 0.503993 0.194078
0.519126 0.503348 0.209004
0.549036 0.502625 0.224518
0.578335 0.501821 0.240557
0.607038 0.500934 0.257068
0.635149 0.499961 0.274010
0.662662 0.498897 0.290276
0.689568 0.497740 0.299685
0.715850 0.496486 0.309040
0.741489 0.495131 0.318332
0.766458 0.493673 0.327557
0.790729 0.492105 0.336712
0.814271 0.490426 0.345794
0.837047 0.488629 0.354803
0.859018 0.486710 0.363739
0.880143 0.484664 0.372601
0.900376 0.482486 0.381390
0.919668 0.480169 0.390108
0.937965 0.477708 0.398755
0.955212 0.475096 0.407333
0.971345 0.472325 0.415843
0.986298 0.469387 0.424286
1.000000 0.466273 0.432664
0.000000 0.537162 0.114504
0.094127 0.537084 0.118036
0.150759 0.536996 0.121921
0.207838 0.536870 0.127302
0.266704 0.536700 0.134213
0.323867 0.536483 0.142574
0.358811 0.536217 0.152267
0.392586 0.535897 0.163156
0.425389 0.535521 0.175103
0.457356 0.535086 0.187981
0.488581 0.534589 0.201676
0.519126 0.534029 0.216089
0.549036 0.533402 0.231139
0.578335 0.532705 0.246758
0.607038 0.531937 0.262891
0.635149 0.531094 0.279492
0.662662 0.530174 0.293049
0.689568 0.529175 0.302244
0.715850 0.528093 0.311406
0.741489 0.526925 0.320528
0.766458 0.525669 0.329599
0.790729 0.524321 0.338616
0.814271 0.522879 0.347574
0.837047 0.521339 0.356470
0.859018 0.519697 0.365304
0.880143 0.517950 0.374073
0.900376 0.516093 0.382778
0.919668 0.514123 0.391418
0.937965 0.512036 0.399994
0.955212 0.509825 0.408507
0.971345 0.507487 0.416957
0.986298 0.505015 0.425345
1.000000 0.502405 0.433672
0.000000 0.566647 0.128009
0.094127 0.566579 0.131208
0.150759 0.566501 0.134742
0.207838 0.566391 0.139663
0.266704 0.566242 0.146026
0.323867 0.566051 0.153780
0.358811 0.565817 0.162837
0.392586 0.565536 0.173087
0.425389 0.565206 0.184412
0.457356 0.564825 0.196698
0.488581 0.564389 0.209838
0.519126 0.563898 0.223738
0.549036 0.563348 0.238317
0.578335 0.562738 0.253505
0.607038 0.562066 0.269246
0.635149 0.561328 0.285490
0.662662 0.560524 0.296067
0.689568 0.559650 0.305035
0.715850 0.558706 0.313994
0.741489 0.557687 0.322933
0.766458 0.556592 0.331840
0.790729 0.555419 0.340709
0.814271 0.554165 0.349533
0.837047 0.552827 0.358307
0.859018 0.551402 0.367030
0.880143 0.549889 0.375699
0.900376 0.548283 0.384311
0.919668 0.546581 0.392867
0.937965 0.544781 0.401366
0.955212 0.542878 0.409808
0.971345 0.540870 0.418192
0.986298 0.538751 0.426519
1.000000 0.536519 0.434790
0.000000 0.595444 0.141571
0.094127 0.595384 0.144488
0.150759 0.595315 0.147723
0.207838 0.595217 0.152248
0.266704 0.595085 0.158129
0.323867 0.594917 0.165341
0.358811 0.594709 0.173819
0.392586 0.594461 0.183476
0.425389 0.594169 0.194213
0.457356 0.593831 0.205928
0.488581 0.593446 0.218527
0.519126 0.593012 0.231918
0.549036 0.592526 0.246025
0.578335 0.591987 0.260777
0.607038 0.591393 0.276117
0.635149 0.590742 0.290621
0.662662 0.590033 0.299318
0.689568 0.589263 0.308050
0.715850 0.588430 0.316797
0.741489 0.587533 0.325544
0.766458 0.586570 0.334277
0.790729 0.585538 0.342988
0.814271 0.584436 0.351669
0.837047 0.583261 0.360314
0.859018 0.582012 0.368918
0.880143 0.580686 0.377478
0.900376 0.579280 0.385991
0.919668 0.577793 0.394456
0.937965 0.576221 0.402871
0.955212 0.574562 0.411235
0.971345 0.572814 0.419548
0.986298 0.570972 0.427809
1.000000 0.569035 0.436019
0.000000 0.623574 0.155194
0.094127 0.623520 0.157871
0.150759 0.623459 0.160850
0.207838 0.623372 0.165030
0.266704 0.623254 0.170488
0.323867 0.623104 0.177215
0.358811 0.622920 0.185167
0.392586 0.622698 0.194276
0.425389 0.622438 0.204460
0.457356 0.622138 0.215633
0.488581 0.621795 0.227707
0.519126 0.621408 0.240600
0.549036 0.620976 0.254238
0.578335 0.620497 0.268553
0.607038 0.619968 0.283486
0.635149 0.619390 0.294362
0.662662 0.618759 0.302791
0.689568 0.618075 0.311281
0.715850 0.617336 0.319807
0.741489 0.616540 0.328353
0.766458 0.615685 0.336905
0.790729 0.614771 0.345450
0.814271 0.613795 0.353980
0.837047 0.612755 0.362487
0.859018 0.611650 0.370965
0.880143 0.610478 0.379410
0.900376 0.609236 0.387817
0.919668 0.607924 0.396184
0.937965 0.606538 0.404509
0.955212 0.605077 0.412791
0.971345 0.603539 0.421027
0.986298 0.601921 0.429217
1.000000 0.600221 0.437360
0.000000 0.651050 0.168883
0.094127 0.651002 0.171354
0.150759 0.650947 0.174110
0.207838 0.650869 0.177990
0.266704 0.650763 0.183075
0.323867 0.650629 0.189368
0.358811 0.650464 0.196842
0.392586 0.650265 0.205447
0.425389 0.650032 0.215115
0.457356 0.649763 0.225773
0.488581 0.649457 0.237344
0.519126 0.649110 0.249753
0.549036 0.648724 0.262929
0.578335 0.648295 0.276809
0.607038 0.647822 0.290267
0.635149 0.647305 0.298315
0.662662 0.646741 0.306474
0.689568 0.646130 0.314715
0.715850 0.645469 0.323016
0.741489 0.644758 0.331355
0.766458 0.643996 0.339718
0.790729 0.643180 0.348091
0.814271 0.642309 0.356463
0.837047 0.641383 0.364825
0.859018 0.640398 0.373170
0.880143 0.639355 0.381493
0.900376 0.638250 0.389788
0.919668 0.637083 0.398052
0.937965 0.635853 0.406281
0.955212 0.634556 0.414474
0.971345 0.633192 0.422628
0.986298 0.631758 0.430741
1.000000 0.630252 0.438814
0.000000 0.677875 0.182643
0.094127 0.677831 0.184936
0.150759 0.677782 0.187498
0.207838 0.677712 0.191114
0.266704 0.677617 0.195867
0.323867 0.677496 0.201772
0.358811 0.677347 0.208813
0.392586 0.677169 0.216954
0.425389 0.676959 0.226143
0.457356 0.676717 0.236315
0.488581 0.676441 0.247406
0.519126 0.676130 0.259347
0.549036 0.675782 0.272073
0.578335 0.675397 0.285524
0.607038 0.674972 0.294712
0.635149 0.674507 0.302465
0.662662 0.674001 0.310352
0.689568 0.673452 0.318343
0.715850 0.672859 0.326413
0.741489 0.672221 0.334542
0.766458 0.671537 0.342710
0.790729 0.670805 0.350905
0.814271 0.670024 0.359113
0.837047 0.669194 0.367324
0.859018 0.668312 0.375530
0.880143 0.667378 0.383725
0.900376 0.666389 0.391902
0.919668 0.665346 0.400056
0.937965 0.664246 0.408185
0.955212 0.663087 0.416284
0.971345 0.661869 0.424351
0.986298 0.660590 0.432383
1.000000 0.659395 0.440381
0.000000 0.704046 0.196478
0.094127 0.704007 0.198616
0.150759 0.703962 0.201009
0.207838 0.703899 0.204391
0.266704 0.703813 0.208850
0.323867 0.703704 0.214405
0.358811 0.703570 0.221054
0.392586 0.703408 0.228770
0.425389 0.703219 0.237512
0.457356 0.703001 0.247229
0.488581 0.702752 0.257863
0.519126 0.702471 0.269355
0.549036 0.702157 0.281644
0.578335 0.701809 0.292060
0.607038 0.701426 0.299334
0.635149 0.701006 0.306797
0.662662 0.700550 0.314413
0.689568 0.700055 0.322153
0.715850 0.699520 0.329990
0.741489 0.698945 0.337904
0.766458 0.698329 0.345874
0.790729 0.697669 0.353885
0.814271 0.696967 0.361924
0.837047 0.696219 0.369980
0.859018 0.695426 0.378042
0.880143 0.694585 0.386103
0.900376 0.693697 0.394157
0.919668 0.692759 0.402197
0.938311 0.691942 0.410219
0.955949 0.691106 0.418220
0.972436 0.690208 0.426195
0.987707 0.689243 0.434143
1.000000 0.688209 0.442060
0.000000 0.729555 0.210395
0.094127 0.729520 0.212396
0.150759 0.729480 0.214638
0.207838 0.729422 0.217814
0.266704 0.729344 0.222009
0.323867 0.729245 0.227251
0.358811 0.729124 0.233543
0.392586 0.728978 0.240868
0.425389 0.728806 0.249197
0.457356 0.728609 0.258487
0.488581 0.728383 0.268689
0.519126 0.728129 0.279751
0.549036 0.727845 0.290420
0.578335 0.727530 0.297147
0.607038 0.727183 0.304118
0.635149 0.726803 0.311295
0.662662 0.726390 0.318643
0.689568 0.725942 0.326132
0.715850 0.725459 0.333736
0.741489 0.724939 0.341433
0.766458 0.724382 0.349202
0.790729 0.723786 0.357027
0.814271 0.723151 0.364893
0.837047 0.722475 0.372788
0.859169 0.721822 0.380702
0.880793 0.721281 0.388625
0.901487 0.720695 0.396550
0.921204 0.720059 0.404472
0.939891 0.719372 0.412383
0.957493 0.718631 0.420281
0.973949 0.717834 0.428160
0.989192 0.716977 0.436018
1.000000 0.716057 0.443852
0.000000 0.754390 0.224396
0.094127 0.754357 0.226276
0.150759 0.754321 0.228385
0.207838 0.754268 0.231377
0.266704 0.754198 0.235336
0.323867 0.754108 0.240295
0.358811 0.753998 0.246261
0.392586 0.753865 0.253229
0.425389 0.753710 0.261175
0.457356 0.753530 0.270066
0.488581 0.753325 0.279860
0.519126 0.753095 0.289824
0.549036 0.752837 0.295948
0.578335 0.752551 0.302369
0.607038 0.752236 0.309046
0.635149 0.751892 0.315944
0.662662 0.751517 0.323028
0.689568 0.751111 0.330269
0.715850 0.750673 0.337641
0.741489 0.750202 0.345120
0.766458 0.749696 0.352686
0.791127 0.749299 0.360322
0.815222 0.748935 0.368012
0.838512 0.748536 0.375743
0.860962 0.748099 0.383504
0.882531 0.747622 0.391286
0.903175 0.747103 0.399079
0.922847 0.746540 0.406878
0.941494 0.745931 0.414674
0.959060 0.745273 0.422465
0.975484 0.744564 0.430244
0.990699 0.743800 0.438008
1.000000 0.742980 0.445755
0.000000 0.778532 0.238486
0.094127 0.778503 0.240259
0.150759 0.778469 0.242250
0.207838 0.778422 0.245077
0.266704 0.778358 0.248824
0.323867 0.778276 0.253525
0.358811 0.778176 0.259196
0.392586 0.778055 0.265835
0.425389 0.777914 0.273426
0.457356 0.777751 0.281943
0.488581 0.777564 0.290277
0.519126 0.777355 0.295758
0.549036 0.777120 0.301582
0.578335 0.776860 0.307710
0.607038 0.776574 0.314104
0.635149 0.776262 0.320730
0.662662 0.775921 0.327556
0.689700 0.775590 0.334552
0.716616 0.775384 0.341693
0.742844 0.775153 0.348955
0.768362 0.774894 0.356318
0.793145 0.774606 0.363763
0.817164 0.774288 0.371275
0.840386 0.773937 0.378840
0.862774 0.773552 0.386446
0.884287 0.773132 0.394082
0.904881 0.772673 0.401740
0.924508 0.772175 0.409412
0.943114 0.771634 0.417090
0.960644 0.771049 0.424770
0.977035 0.770417 0.432445
0.992222 0.769736 0.440112
1.000000 0.769003 0.447768
0.000000 0.801962 0.252671
0.094127 0.801935 0.254347
0.150759 0.801905 0.256231
0.207838 0.801861 0.258910
0.266704 0.801803 0.262465
0.323867 0.801729 0.266933
0.358811 0.801637 0.272334
0.392586 0.801528 0.278670
0.425389 0.801399 0.285932
0.457356 0.801250 0.291753
0.488581 0.801081 0.296571
0.519126 0.800890 0.301767
0.549036 0.800677 0.307307
0.578403 0.800455 0.313155
0.607804 0.800358 0.319277
0.636557 0.800243 0.325640
0.664666 0.800109 0.332214
0.692127 0.799955 0.338971
0.718928 0.799778 0.345884
0.745051 0.799579 0.352930
0.770476 0.799354 0.360090
0.795175 0.799104 0.367344
0.819119 0.798826 0.374677
0.842273 0.798519 0.382073
0.864599 0.798181 0.389521
0.886056 0.797810 0.397010
0.906600 0.797405 0.404529
0.926181 0.796964 0.412071
0.944746 0.796484 0.419628
0.962239 0.795963 0.427193
0.978598 0.795400 0.434762
0.993755 0.794792 0.442329
1.000000 0.794137 0.449889
0.000000 0.824655 0.266952
0.094127 0.824630 0.268542
0.150759 0.824603 0.270330
0.207838 0.824563 0.272875
0.266704 0.824510 0.276256
0.323867 0.824443 0.280512
0.358811 0.824359 0.285665
0.392586 0.824259 0.290476
0.425389 0.824142 0.294199
0.457982 0.824105 0.298352
0.489916 0.824080 0.302907
0.521106 0.824043 0.307836
0.551608 0.823993 0.313108
0.581456 0.823929 0.318691
0.610670 0.823850 0.324552
0.639260 0.823755 0.330662
0.667225 0.823642 0.336991
0.694557 0.823512 0.343513
0.721243 0.823362 0.350202
0.747263 0.823191 0.357035
0.772595 0.822997 0.363993
0.797211 0.822781 0.371057
0.821079 0.822539 0.378210
0.844164 0.822271 0.385437
0.866429 0.821975 0.392725
0.887830 0.821649 0.400064
0.908323 0.821292 0.407442
0.927858 0.820902 0.414852
0.946383 0.820477 0.422284
0.963839 0.820014 0.429733
0.980165 0.819513 0.437191
0.995293 0.818970 0.444655
1.000000 0.818384 0.452118
0.000000 0.846584 0.281334
0.094127 0.846562 0.282846
0.150759 0.846537 0.284548
0.208865 0.846562 0.286971
0.268793 0.846618 0.289653
0.326826 0.846685 0.291836
0.362258 0.846703 0.294466
0.396484 0.846714 0.297539
0.429709 0.846717 0.301044
0.462075 0.846712 0.304963
0.493680 0.846696 0.309276
0.524592 0.846670 0.313955
0.554853 0.846633 0.318974
0.584492 0.846583 0.324304
0.613524 0.846520 0.329916
0.641952 0.846443 0.335782
0.669774 0.846350 0.341875
0.696979 0.846242 0.348168
0.723551 0.846115 0.354637
0.749470 0.845970 0.361261
0.774710 0.845805 0.368020
0.799242 0.845619 0.374894
0.823035 0.845410 0.381867
0.846053 0.845178 0.388924
0.868256 0.844920 0.396052
0.889601 0.844635 0.403240
0.910044 0.844321 0.410476
0.929534 0.843977 0.417750
0.948017 0.843601 0.425056
0.965437 0.843191 0.432385
0.981730 0.842745 0.439731
0.996829 0.842262 0.447089
1.000000 0.841738 0.454452
0.036554 0.868219 0.292673
0.113216 0.868240 0.293443
0.164554 0.868265 0.294307
0.219001 0.868304 0.295536
0.276473 0.868360 0.297166
0.332956 0.868429 0.299212
0.367684 0.868451 0.301681
0.401351 0.868467 0.304571
0.434121 0.868476 0.307876
0.466110 0.868477 0.311580
0.497397 0.868471 0.315666
0.528037 0.868455 0.320112
0.558064 0.868429 0.324894
0.587499 0.868393 0.329985
0.616351 0.868344 0.335359
0.644622 0.868283 0.340991
0.672303 0.868209 0.346855
0.699383 0.868120 0.352926
0.725843 0.868016 0.359181
0.751660 0.867894 0.365600
0.776810 0.867755 0.372161
0.801260 0.867597 0.378847
0.824979 0.867418 0.385642
0.847929 0.867218 0.392530
0.870071 0.866994 0.399497
0.891362 0.866746 0.406532
0.911755 0.866472 0.413624
0.931200 0.866170 0.420763
0.949643 0.865839 0.427940
0.967026 0.865477 0.435148
0.983287 0.865082 0.442379
0.998357 0.864652 0.449628
1.000000 0.864186 0.456889
0.071883 0.889089 0.300392
0.131216 0.889111 0.301113
0.177366 0.889137 0.301922
0.228550 0.889176 0.303073
0.283852 0.889233 0.304602
0.338905 0.889304 0.306523
0.372971 0.889329 0.308845
0.406107 0.889349 0.311570
0.438443 0.889364 0.314690
0.470069 0.889373 0.318196
0.501050 0.889374 0.322072
0.531426 0.889368 0.326300
0.561225 0.889353 0.330857
0.590462 0.889328 0.335722
0.619140 0.889293 0.340871
0.647256 0.889248 0.346278
0.674800 0.889190 0.351922
0.701757 0.889119 0.357778
0.728106 0.889035 0.363825
0.753825 0.888935 0.370042
0.778885 0.888820 0.376410
0.803255 0.888687 0.382910
0.826901 0.888536 0.389528
0.849785 0.888366 0.396247
0.871867 0.888174 0.403054
0.893104 0.887960 0.409936
0.913448 0.887722 0.416884
0.932848 0.887459 0.423885
0.951251 0.887169 0.430932
0.968598 0.886851 0.438017
0.984827 0.886502 0.445132
0.999869 0.886122 0.452270
1.000000 0.885707 0.459426
0.096740 0.909057 0.308010
0.146857 0.909079 0.308685
0.189103 0.909106 0.309445
0.237547 0.909146 0.310526
0.290917 0.909204 0.311963
0.344653 0.909276 0.313771
0.378099 0.909304 0.315960
0.410733 0.909329 0.318531
0.442655 0.909349 0.321482
0.473935 0.909364 0.324805
0.504620 0.909373 0.328485
0.534743 0.909375 0.332509
0.564322 0.909370 0.336856
0.593366 0.909357 0.341507
0.621875 0.909335 0.346441
0.649840 0.909303 0.351634
0.677251 0.909261 0.357066
0.704088 0.909207 0.362714
0.730331 0.909142 0.368559
0.755953 0.909062 0.374580
0.780926 0.908969 0.380758
0.805217 0.908860 0.387076
0.828791 0.908735 0.393518
0.851611 0.908591 0.400070
0.873635 0.908429 0.406717
0.894818 0.908247 0.413447
