public/luts/经典胶片/fuji-pro-400h.cube
TITLE "Fuji Pro 400H"
LUT_3D_SIZE 33
DOMAIN_MIN 0.000000 0.000000 0.000000
DOMAIN_MAX 1.000000 1.000000 1.000000
0.189748 0.189748 0.205984
0.215505 0.190755 0.207551
0.241409 0.191905 0.209326
0.274388 0.193573 0.211870
0.302290 0.195171 0.214679
0.327400 0.196757 0.217820
0.352745 0.198500 0.221450
0.378189 0.200393 0.225563
0.403646 0.202430 0.230151
0.429059 0.204606 0.235200
0.454384 0.206915 0.240694
0.479592 0.209350 0.246614
0.504655 0.211905 0.252942
0.529550 0.214574 0.259656
0.554254 0.217348 0.266734
0.578745 0.220219 0.274154
0.603000 0.223180 0.281893
0.626994 0.226220 0.289931
0.650701 0.229331 0.298246
0.674094 0.232503 0.306817
0.697143 0.235725 0.315626
0.719819 0.238986 0.324653
0.742087 0.242274 0.333881
0.763913 0.245579 0.343293
0.785253 0.248861 0.351451
0.806067 0.252099 0.358013
0.826319 0.255311 0.364530
0.845966 0.258483 0.370994
0.864959 0.261601 0.377396
0.883250 0.264650 0.383729
0.900785 0.267615 0.389983
0.917506 0.270482 0.396151
0.933352 0.273234 0.402223
0.195127 0.224833 0.209937
0.220137 0.225058 0.211078
0.245438 0.225331 0.212738
0.277801 0.225749 0.215123
0.304951 0.225769 0.217715
0.329659 0.225441 0.220612
0.354646 0.224874 0.223956
0.379766 0.224043 0.227742
0.404925 0.222926 0.231965
0.430059 0.221498 0.236614
0.455122 0.219737 0.241677
0.480081 0.217617 0.247139
0.504905 0.215113 0.252983
0.529659 0.214582 0.259407
0.554353 0.217355 0.266492
0.578835 0.220226 0.273918
0.603082 0.223186 0.281664
0.627069 0.226226 0.289708
0.650770 0.229337 0.298029
0.674157 0.232508 0.306606
0.697202 0.235729 0.315421
0.719872 0.238990 0.324453
0.742137 0.242278 0.333687
0.763959 0.245582 0.343104
0.785296 0.248865 0.351344
0.806106 0.252104 0.357912
0.826355 0.255315 0.364434
0.845999 0.258487 0.370903
0.864990 0.261604 0.377309
0.883279 0.264653 0.383646
0.900811 0.267618 0.389904
0.917529 0.270484 0.396075
0.933374 0.273236 0.402150
0.201105 0.258803 0.214386
0.225397 0.258982 0.215187
0.250114 0.259205 0.216770
0.281881 0.259547 0.219104
0.308289 0.259529 0.221625
0.332656 0.259221 0.224459
0.357359 0.258704 0.227733
0.382238 0.257957 0.231443
0.407191 0.256959 0.235584
0.432147 0.255692 0.240146
0.457055 0.254136 0.245117
0.481877 0.252271 0.250484
0.506581 0.250077 0.256231
0.531138 0.247531 0.262342
0.555523 0.244608 0.268798
0.579709 0.241281 0.275582
0.603673 0.237520 0.282676
0.627386 0.233290 0.290060
0.650847 0.229343 0.297783
0.674229 0.232513 0.306367
0.697268 0.235734 0.315189
0.719933 0.238994 0.324228
0.742193 0.242282 0.333467
0.764011 0.245586 0.342890
0.785344 0.248870 0.351223
0.806151 0.252108 0.357797
0.826396 0.255320 0.364326
0.846037 0.258491 0.370800
0.865025 0.261608 0.377211
0.883311 0.264656 0.383552
0.900840 0.267621 0.389815
0.917556 0.270487 0.395990
0.933398 0.273238 0.402069
0.209487 0.300818 0.220719
0.232833 0.300958 0.221494
0.256758 0.301129 0.222536
0.287707 0.301400 0.224801
0.313085 0.301344 0.227223
0.336975 0.301053 0.229971
0.361277 0.300580 0.233149
0.385815 0.299908 0.236755
0.410475 0.299018 0.240782
0.435177 0.297895 0.245223
0.459863 0.296524 0.250068
0.484490 0.294887 0.255303
0.509020 0.292970 0.260915
0.533422 0.290753 0.266888
0.557668 0.288220 0.273205
0.581730 0.285350 0.279849
0.605580 0.282121 0.286802
0.629191 0.278508 0.294047
0.652533 0.274486 0.301567
0.675577 0.270022 0.309343
0.698292 0.265081 0.317359
0.720644 0.259623 0.325599
0.742600 0.253599 0.334047
0.764122 0.246952 0.342687
0.785413 0.248877 0.351049
0.806214 0.252115 0.357633
0.826455 0.255326 0.364170
0.846091 0.258497 0.370651
0.865075 0.261613 0.377070
0.883356 0.264661 0.383418
0.900882 0.267626 0.389686
0.917594 0.270491 0.395867
0.933432 0.273242 0.401951
0.216934 0.330745 0.225799
0.239531 0.331058 0.226588
0.262822 0.331421 0.227491
0.293103 0.331961 0.229267
0.317419 0.332292 0.231674
0.340921 0.332540 0.234443
0.364912 0.332742 0.237653
0.389199 0.332886 0.241300
0.413655 0.332961 0.245377
0.438191 0.332957 0.249877
0.462742 0.332864 0.254788
0.487257 0.332670 0.260096
0.511697 0.332362 0.265786
0.536027 0.331926 0.271840
0.560213 0.331346 0.278242
0.584227 0.330604 0.284972
0.608038 0.329679 0.292010
0.631617 0.328545 0.299337
0.654885 0.326149 0.306810
0.677813 0.322325 0.314408
0.700420 0.318117 0.322249
0.722674 0.313498 0.330317
0.744538 0.308437 0.338596
0.765975 0.302899 0.347071
0.786943 0.296830 0.354775
0.807394 0.290160 0.360465
0.827294 0.282863 0.366106
0.846598 0.274871 0.371690
0.865256 0.266104 0.377209
0.883418 0.264668 0.383237
0.900938 0.267631 0.389514
0.917645 0.270496 0.395702
0.933478 0.273246 0.401793
0.224982 0.359322 0.231070
0.246793 0.359630 0.231845
0.269409 0.359986 0.232732
0.298963 0.360511 0.234023
0.321998 0.360837 0.236003
0.345035 0.361126 0.238722
0.368641 0.361389 0.241877
0.392606 0.361619 0.245466
0.416790 0.361808 0.249483
0.441093 0.361946 0.253921
0.465444 0.362028 0.258768
0.489786 0.362045 0.264013
0.514076 0.361989 0.269639
0.538273 0.361851 0.275633
0.562345 0.361621 0.281975
0.586258 0.361289 0.288650
0.609982 0.360843 0.295637
0.633485 0.360269 0.302919
0.656735 0.359551 0.310477
0.679701 0.358673 0.318293
0.702350 0.357613 0.326348
0.724646 0.356347 0.334624
0.746553 0.354849 0.343104
0.768033 0.353084 0.351771
0.789043 0.351002 0.359878
0.809534 0.348531 0.365793
0.829452 0.345129 0.371592
0.848673 0.338484 0.377048
0.867254 0.331272 0.382442
0.885144 0.323438 0.387766
0.902287 0.314920 0.393011
0.918625 0.305641 0.398170
0.934096 0.295509 0.403233
0.233780 0.387724 0.236698
0.254787 0.388022 0.237457
0.276700 0.388366 0.238326
0.305491 0.388873 0.239590
0.327047 0.389172 0.240606
0.349572 0.389477 0.243195
0.372752 0.389771 0.246290
0.396360 0.390047 0.249815
0.420240 0.390298 0.253764
0.444283 0.390517 0.258130
0.468408 0.390701 0.262904
0.492555 0.390841 0.268073
0.516673 0.390932 0.273624
0.540720 0.390969 0.279542
0.564658 0.390943 0.285810
0.588454 0.390848 0.292411
0.612073 0.390675 0.299328
0.635483 0.390415 0.306542
0.658651 0.390058 0.314036
0.681544 0.389594 0.321792
0.704128 0.389009 0.329793
0.726367 0.388290 0.338020
0.748225 0.387421 0.346459
0.769664 0.386384 0.355091
0.790641 0.385153 0.363431
0.811105 0.383679 0.369374
0.831021 0.381962 0.375266
0.850345 0.379969 0.381097
0.869025 0.377665 0.386858
0.887011 0.375002 0.392537
0.904246 0.371927 0.398124
0.920670 0.368370 0.403607
0.936221 0.364246 0.408973
0.243255 0.415880 0.242643
0.263456 0.416166 0.243385
0.284651 0.416496 0.244235
0.311707 0.416957 0.245427
0.332550 0.417251 0.246408
0.354515 0.417551 0.247834
0.377235 0.417858 0.250864
0.400454 0.418157 0.254320
0.424001 0.418443 0.258196
0.447759 0.418709 0.262486
0.471636 0.418953 0.267180
0.495566 0.419168 0.272268
0.519494 0.419350 0.277736
0.543373 0.419494 0.283569
0.567163 0.419594 0.289753
0.590825 0.419646 0.296271
0.614326 0.419642 0.303105
0.637629 0.419575 0.310239
0.660702 0.419440 0.317656
0.683510 0.419226 0.325337
0.706017 0.418926 0.333266
0.728187 0.418529 0.341426
0.749984 0.418025 0.349802
0.771368 0.417401 0.358376
0.792297 0.416642 0.366962
0.812718 0.415703 0.372902
0.832598 0.414596 0.378796
0.851890 0.413301 0.384635
0.870544 0.411797 0.390411
0.888510 0.410060 0.396114
0.905731 0.408063 0.401735
0.922148 0.405773 0.407264
0.937699 0.403155 0.412692
0.253341 0.443752 0.248871
0.272744 0.444025 0.249596
0.293219 0.444340 0.250426
0.318329 0.444753 0.251535
0.338475 0.445037 0.252482
0.359853 0.445333 0.253554
0.382074 0.445636 0.255575
0.404876 0.445945 0.258959
0.428066 0.446249 0.262760
0.451515 0.446542 0.266970
0.475124 0.446821 0.271580
0.498819 0.447082 0.276582
0.522539 0.447321 0.281961
0.546235 0.447533 0.287705
0.569861 0.447715 0.293799
0.593377 0.447861 0.300227
0.616747 0.447967 0.306972
0.639933 0.448026 0.314018
0.662899 0.448034 0.321348
0.685611 0.447983 0.328946
0.708031 0.447867 0.336794
0.730123 0.447677 0.344876
0.751848 0.447405 0.353177
0.773167 0.447043 0.361680
0.794039 0.446579 0.370370
0.814408 0.445974 0.376463
0.834241 0.445238 0.382343
0.853491 0.444361 0.388170
0.872109 0.443326 0.393939
0.890042 0.442117 0.399639
0.907235 0.440716 0.405262
0.923629 0.439103 0.410799
0.939161 0.437254 0.416241
0.263973 0.471319 0.255348
0.282597 0.471580 0.256056
0.302359 0.471881 0.256867
0.325367 0.472246 0.257885
0.344793 0.472518 0.258798
0.365562 0.472806 0.259834
0.387260 0.473101 0.260985
0.409616 0.473409 0.263711
0.432426 0.473720 0.267434
0.455545 0.474028 0.271562
0.478867 0.474328 0.276087
0.502309 0.474617 0.280999
0.525806 0.474891 0.286288
0.549304 0.475148 0.291939
0.572753 0.475382 0.297939
0.596111 0.475591 0.304272
0.619338 0.475770 0.310924
0.642395 0.475914 0.317877
0.665245 0.476019 0.325115
0.687852 0.476078 0.332623
0.710176 0.476086 0.340383
0.732181 0.476036 0.348381
0.753826 0.475922 0.356599
0.775073 0.475735 0.365023
0.795879 0.475468 0.373637
0.816190 0.475088 0.380088
0.835968 0.474600 0.385945
0.855169 0.473998 0.391753
0.873741 0.473270 0.397503
0.891634 0.472403 0.403188
0.908791 0.471383 0.408798
0.925153 0.470194 0.414327
0.940658 0.468819 0.419763
0.275093 0.498570 0.262046
0.292965 0.498820 0.262737
0.312026 0.499108 0.263528
0.332781 0.499424 0.264449
0.351477 0.499683 0.265326
0.371618 0.499961 0.266327
0.392778 0.500251 0.267442
0.414660 0.500547 0.268663
0.437070 0.500859 0.272199
0.459841 0.501173 0.276244
0.482858 0.501484 0.280682
0.506032 0.501790 0.285504
0.529292 0.502086 0.290700
0.552577 0.502371 0.296256
0.575837 0.502641 0.302160
0.599025 0.502892 0.308397
0.622099 0.503121 0.314951
0.645018 0.503323 0.321808
0.667742 0.503495 0.328951
0.690234 0.503630 0.336365
0.712455 0.503726 0.344033
0.734364 0.503774 0.351941
0.755923 0.503771 0.360072
0.777091 0.503708 0.368411
0.797824 0.503579 0.376944
0.818070 0.503359 0.383790
0.837788 0.503045 0.389620
0.856932 0.502636 0.395402
0.875454 0.502121 0.401128
0.893301 0.501491 0.406791
0.910415 0.500734 0.412381
0.926740 0.499836 0.417892
0.942210 0.498783 0.423313
0.286647 0.525499 0.268936
0.303798 0.525738 0.269610
0.322178 0.526013 0.270383
0.340533 0.526280 0.271199
0.358496 0.526526 0.272040
0.377998 0.526793 0.273006
0.398604 0.527075 0.274084
0.420007 0.527367 0.275269
0.441987 0.527667 0.277036
0.464394 0.527982 0.280998
0.487091 0.528298 0.285349
0.509982 0.528612 0.290081
0.532990 0.528922 0.295183
0.556051 0.529225 0.300643
0.579110 0.529518 0.306450
0.602118 0.529797 0.312588
0.625028 0.530060 0.319044
0.647799 0.530303 0.325802
0.670389 0.530522 0.332848
0.692759 0.530712 0.340165
0.714868 0.530870 0.347739
0.736675 0.530989 0.355553
0.758140 0.531066 0.363593
0.779222 0.531093 0.371844
0.799876 0.531064 0.380292
0.820053 0.530962 0.387569
0.839703 0.530774 0.393370
0.858787 0.530506 0.399124
0.877252 0.530148 0.404823
0.895047 0.529690 0.410459
0.912115 0.529124 0.416026
0.928396 0.528436 0.421513
0.943827 0.527617 0.426914
0.298588 0.552097 0.275992
0.315051 0.552326 0.276650
0.332773 0.552590 0.277404
0.348587 0.552808 0.278109
0.365820 0.553041 0.278915
0.384677 0.553297 0.279844
0.404719 0.553570 0.280887
0.425628 0.553854 0.282035
0.447174 0.554148 0.283282
0.469192 0.554453 0.285806
0.491555 0.554770 0.290071
0.514150 0.555088 0.294712
0.536895 0.555405 0.299720
0.559720 0.555719 0.305085
0.582568 0.556027 0.310793
0.605384 0.556326 0.316833
0.628122 0.556612 0.323189
0.650737 0.556883 0.329848
0.673185 0.557136 0.336794
0.695424 0.557366 0.344014
0.717414 0.557569 0.351490
0.739112 0.557740 0.359210
0.760478 0.557876 0.367157
0.781467 0.557969 0.375317
0.802037 0.558016 0.383677
0.822138 0.558002 0.391421
0.841716 0.557910 0.397193
0.860733 0.557748 0.402917
0.879138 0.557507 0.408588
0.896877 0.557180 0.414197
0.913892 0.556757 0.419736
0.930126 0.556229 0.425198
0.945513 0.555585 0.430575
0.310871 0.578357 0.283188
0.326683 0.578577 0.283831
0.342669 0.578810 0.284517
0.356905 0.578999 0.285153
0.373420 0.579220 0.285924
0.391631 0.579464 0.286819
0.411102 0.579727 0.287825
0.431508 0.580005 0.288937
0.452611 0.580292 0.290147
0.474230 0.580587 0.291450
0.496242 0.580898 0.294830
0.518529 0.581217 0.299382
0.540999 0.581538 0.304297
0.563579 0.581858 0.309566
0.586204 0.582175 0.315177
0.608821 0.582486 0.321117
0.631378 0.582789 0.327374
0.653827 0.583080 0.333933
0.676125 0.583357 0.340780
0.698227 0.583615 0.347900
0.720091 0.583852 0.355279
0.741674 0.584062 0.362902
0.762933 0.584242 0.370755
0.783825 0.584386 0.378823
0.804304 0.584489 0.387092
0.824325 0.584545 0.395338
0.843827 0.584526 0.401082
0.862773 0.584446 0.406778
0.881112 0.584297 0.412419
0.898790 0.584070 0.417999
0.915750 0.583759 0.423511
0.931931 0.583354 0.428946
0.947271 0.582846 0.434298
0.323458 0.604270 0.290500
0.338653 0.604482 0.291129
0.351952 0.604668 0.291703
0.365452 0.604844 0.292307
0.381264 0.605053 0.293045
0.398834 0.605287 0.293905
0.417731 0.605540 0.294876
0.437628 0.605809 0.295952
0.458279 0.606090 0.297125
0.479498 0.606380 0.298391
0.501140 0.606677 0.299745
0.523109 0.606994 0.304073
0.545294 0.607315 0.308897
0.567618 0.607638 0.314071
0.590013 0.607960 0.319585
0.612421 0.608280 0.325428
0.634788 0.608594 0.331585
0.657066 0.608899 0.338044
0.679206 0.609193 0.344791
0.701164 0.609473 0.351812
0.722896 0.609735 0.359093
0.744357 0.609974 0.366619
0.765504 0.610188 0.374377
0.786293 0.610371 0.382351
0.806677 0.610518 0.390529
0.826611 0.610625 0.398897
0.846033 0.610667 0.405028
0.864904 0.610652 0.410696
0.883174 0.610574 0.416310
0.900787 0.610428 0.421862
0.917687 0.610206 0.427345
0.933813 0.609899 0.432753
0.949102 0.609498 0.438078
0.336311 0.629825 0.297906
0.350927 0.630030 0.298520
0.361395 0.630166 0.298974
0.374194 0.630332 0.299548
0.389324 0.630529 0.300254
0.406262 0.630753 0.301080
0.424586 0.630996 0.302017
0.443970 0.631257 0.303057
0.464164 0.631531 0.304194
0.484974 0.631816 0.305423
0.506251 0.632109 0.306740
0.527879 0.632411 0.308770
0.549771 0.632731 0.313503
0.571831 0.633054 0.318584
0.593987 0.633379 0.324003
0.616179 0.633704 0.329748
0.638349 0.634025 0.335807
0.660447 0.634340 0.342167
0.682423 0.634647 0.348815
0.704230 0.634942 0.355738
0.725824 0.635222 0.362920
0.747158 0.635484 0.370350
0.768188 0.635724 0.378011
0.788869 0.635937 0.385892
0.809153 0.636120 0.393978
0.828993 0.636266 0.402256
0.848334 0.636359 0.409019
0.867125 0.636395 0.414662
0.885321 0.636376 0.420249
0.902865 0.636294 0.425774
0.919702 0.636143 0.431230
0.935769 0.635916 0.436612
0.951003 0.635604 0.441910
0.349401 0.655009 0.305382
0.361540 0.655173 0.305898
0.370962 0.655293 0.306308
0.383098 0.655449 0.306853
0.397570 0.655635 0.307528
0.413888 0.655849 0.308322
0.431644 0.656083 0.309226
0.450515 0.656335 0.310231
0.470247 0.656602 0.311333
0.490643 0.656881 0.312526
0.511549 0.657169 0.313805
0.532839 0.657465 0.315167
0.554419 0.657774 0.318099
0.576208 0.658096 0.323089
0.598118 0.658422 0.328414
0.620086 0.658749 0.334063
0.642053 0.659074 0.340025
0.663964 0.659396 0.346288
0.685770 0.659712 0.352838
0.707421 0.660019 0.359662
0.728871 0.660314 0.366747
0.750073 0.660593 0.374080
0.770981 0.660853 0.381647
0.791548 0.661091 0.389433
0.811727 0.661300 0.397427
0.831471 0.661479 0.405615
0.850725 0.661613 0.413043
0.869432 0.661692 0.418663
0.887550 0.661720 0.424226
0.905023 0.661691 0.429725
0.921792 0.661600 0.435156
0.937797 0.661438 0.440511
0.952974 0.661199 0.445784
0.362697 0.679805 0.312907
0.371764 0.679920 0.313294
0.380622 0.680032 0.313682
0.392134 0.680178 0.314201
0.405973 0.680355 0.314846
0.421686 0.680559 0.315609
0.438882 0.680784 0.316480
0.457242 0.681028 0.317452
0.476511 0.681288 0.318519
0.496491 0.681560 0.319677
0.517020 0.681843 0.320920
0.537970 0.682135 0.322245
0.559234 0.682434 0.323648
0.580738 0.682750 0.327569
0.602396 0.683075 0.332801
0.624134 0.683402 0.338357
0.645891 0.683731 0.344223
0.667611 0.684057 0.350390
0.689241 0.684380 0.356843
0.710730 0.684695 0.363571
0.732031 0.685001 0.370560
0.753095 0.685294 0.377797
0.773876 0.685570 0.385269
0.794326 0.685827 0.392963
0.814396 0.686059 0.400865
0.834038 0.686263 0.408963
0.853202 0.686433 0.417084
0.871823 0.686546 0.422685
0.889860 0.686613 0.428226
0.907257 0.686629 0.433704
0.923956 0.686587 0.439111
0.939895 0.686481 0.444442
0.955011 0.686303 0.449690
0.373997 0.704160 0.320364
0.382008 0.704260 0.320708
0.390347 0.704364 0.321075
0.401273 0.704501 0.321568
0.414507 0.704670 0.322186
0.429633 0.704864 0.322919
0.446279 0.705081 0.323759
0.464131 0.705318 0.324698
0.482939 0.705570 0.325732
0.502499 0.705836 0.326855
0.522649 0.706114 0.328063
0.543255 0.706402 0.329352
0.564207 0.706697 0.330718
0.585412 0.706999 0.332157
0.606812 0.707322 0.337149
0.628315 0.707650 0.342612
0.649857 0.707979 0.348386
0.671379 0.708309 0.354457
0.692828 0.708636 0.360816
0.714151 0.708958 0.367448
0.735298 0.709272 0.374343
0.756220 0.709575 0.381485
0.776869 0.709865 0.388864
0.797197 0.710137 0.396466
0.817154 0.710388 0.404277
0.836692 0.710613 0.412287
0.855759 0.710808 0.420480
0.874292 0.710955 0.426712
0.892244 0.711056 0.432237
0.909562 0.711109 0.437694
0.926188 0.711109 0.443081
0.942059 0.711050 0.448390
0.957111 0.710924 0.453615
0.384756 0.728079 0.327794
0.392249 0.728172 0.328118
0.400110 0.728269 0.328465
0.410486 0.728399 0.328935
0.423144 0.728559 0.329526
0.437703 0.728746 0.330231
0.453810 0.728955 0.331041
0.471163 0.729183 0.331949
0.489511 0.729429 0.332951
0.508652 0.729689 0.334041
0.528420 0.729961 0.335214
0.548679 0.730245 0.336468
0.569316 0.730537 0.337799
0.590234 0.730836 0.339201
0.611354 0.731144 0.341438
0.632617 0.731471 0.346812
0.653939 0.731801 0.352494
0.675260 0.732132 0.358474
0.696523 0.732463 0.364740
0.717675 0.732790 0.371279
0.738664 0.733111 0.378080
0.759440 0.733423 0.385130
0.779954 0.733723 0.392417
0.800156 0.734007 0.399928
0.819996 0.734273 0.407650
0.839425 0.734517 0.415571
0.858391 0.734733 0.423679
0.876834 0.734910 0.430729
0.894699 0.735039 0.436240
0.911935 0.735125 0.441682
0.928485 0.735161 0.447051
0.944285 0.735142 0.452341
0.959270 0.735061 0.457546
0.395438 0.751547 0.335198
0.402464 0.751634 0.335504
0.409887 0.751725 0.335833
0.419749 0.751848 0.336281
0.431858 0.752001 0.336847
0.445871 0.752179 0.337524
0.461454 0.752381 0.338305
0.478315 0.752603 0.339183
0.496209 0.752841 0.340154
0.514933 0.753096 0.341212
0.534319 0.753363 0.342353
0.554230 0.753642 0.343573
0.574548 0.753930 0.344869
0.595174 0.754227 0.346236
0.616024 0.754530 0.347671
0.637031 0.754846 0.350938
0.658129 0.755176 0.356532
0.679244 0.755508 0.362422
0.700317 0.755840 0.368597
0.721294 0.756171 0.375046
0.742121 0.756497 0.381756
0.762747 0.756816 0.388715
0.783122 0.757125 0.395912
0.803195 0.757421 0.403334
0.822915 0.757700 0.410968
0.842232 0.757958 0.418802
0.861094 0.758192 0.426825
0.879445 0.758396 0.434715
0.897219 0.758550 0.440219
0.914370 0.758663 0.445651
0.930841 0.758731 0.451006
0.946567 0.758747 0.456280
0.961483 0.758706 0.461468
0.406031 0.774540 0.342555
0.412634 0.774621 0.342844
0.419653 0.774707 0.343156
0.429035 0.774824 0.343584
0.440626 0.774969 0.344126
0.454113 0.775141 0.344777
0.469187 0.775336 0.345531
0.485567 0.775550 0.346381
0.503013 0.775783 0.347322
0.521323 0.776032 0.348349
0.540329 0.776294 0.349458
0.559890 0.776568 0.350646
0.579888 0.776853 0.351908
0.600221 0.777147 0.353241
0.620802 0.777448 0.354642
0.641551 0.777755 0.356105
0.662416 0.778079 0.360480
0.683321 0.778411 0.366283
0.704201 0.778746 0.372370
0.725000 0.779079 0.378730
0.745662 0.779410 0.385352
0.766135 0.779734 0.392223
0.786367 0.780051 0.399332
0.806307 0.780356 0.406667
0.825905 0.780646 0.414215
0.845107 0.780917 0.421964
0.863861 0.781167 0.429903
0.882113 0.781390 0.438020
0.899797 0.781570 0.444156
0.916862 0.781708 0.449582
0.933250 0.781803 0.454928
0.948900 0.781851 0.460190
0.963744 0.781845 0.465365
0.416521 0.797031 0.349844
0.422741 0.797107 0.350118
0.429389 0.797189 0.350416
0.438323 0.797299 0.350824
0.449422 0.797439 0.351344
0.462407 0.797604 0.351970
0.476988 0.797792 0.352698
0.492899 0.798000 0.353520
0.509903 0.798227 0.354433
0.527804 0.798470 0.355431
0.546431 0.798727 0.356510
0.565644 0.798998 0.357666
0.585322 0.799279 0.358896
0.605361 0.799570 0.360197
0.625670 0.799869 0.361564
0.646170 0.800175 0.362993
0.666788 0.800485 0.364481
0.687481 0.800817 0.370038
0.708165 0.801153 0.376040
0.728782 0.801488 0.382315
0.749276 0.801822 0.388851
0.769593 0.802152 0.395636
0.789680 0.802475 0.402660
0.809485 0.802788 0.409909
0.828956 0.803087 0.417373
0.848041 0.803371 0.425040
0.866685 0.803634 0.432897
0.884835 0.803873 0.440934
0.902428 0.804077 0.448029
0.919402 0.804238 0.453456
0.935707 0.804358 0.458798
0.951278 0.804434 0.464054
0.966049 0.804459 0.469219
0.426894 0.818991 0.357047
0.432766 0.819062 0.357307
0.439072 0.819140 0.357591
0.447589 0.819245 0.357981
0.458224 0.819379 0.358480
0.470729 0.819538 0.359083
0.484835 0.819720 0.359786
0.500288 0.819922 0.360582
0.516861 0.820144 0.361467
0.534357 0.820381 0.362437
0.552610 0.820634 0.363487
0.571477 0.820901 0.364614
0.590835 0.821179 0.365813
0.610579 0.821467 0.367082
0.630616 0.821764 0.368417
0.650865 0.822069 0.369814
0.671251 0.822379 0.371268
0.691712 0.822697 0.373667
0.712198 0.823033 0.379587
0.732631 0.823371 0.385780
0.752954 0.823708 0.392232
0.773112 0.824042 0.398935
0.793052 0.824370 0.405876
0.812719 0.824690 0.413043
0.832062 0.824999 0.420426
0.851026 0.825292 0.428012
0.869559 0.825568 0.435790
0.887603 0.825821 0.443749
0.905103 0.826048 0.451818
0.921986 0.826228 0.457253
0.938204 0.826371 0.462598
0.953694 0.826472 0.467852
0.968389 0.826526 0.473012
0.437137 0.840388 0.364143
0.442692 0.840456 0.364390
0.448684 0.840530 0.364660
0.456811 0.840631 0.365034
0.467010 0.840759 0.365513
0.479057 0.840912 0.366095
0.492705 0.841088 0.366774
0.507714 0.841286 0.367545
0.523865 0.841502 0.368405
0.540965 0.841735 0.369347
0.558847 0.841984 0.370370
0.577370 0.842246 0.371468
0.596410 0.842521 0.372638
0.615860 0.842807 0.373877
0.635625 0.843102 0.375181
0.655622 0.843405 0.376546
0.675775 0.843715 0.377969
0.696015 0.844030 0.379445
0.716288 0.844356 0.382991
0.736535 0.844696 0.389104
0.756686 0.845036 0.395477
0.776683 0.845374 0.402100
0.796473 0.845707 0.408961
0.816001 0.846033 0.416049
0.835213 0.846350 0.423353
0.854055 0.846653 0.430861
0.872473 0.846940 0.438563
0.890410 0.847206 0.446446
0.907810 0.847448 0.454499
0.924604 0.847652 0.460951
0.940734 0.847816 0.466306
0.956141 0.847940 0.471564
0.970759 0.848019 0.476725
0.447238 0.861190 0.371111
0.452503 0.861254 0.371346
0.458205 0.861325 0.371605
0.465970 0.861421 0.371963
0.475757 0.861545 0.372424
0.487368 0.861693 0.372985
0.500577 0.861864 0.373642
0.515157 0.862056 0.374389
0.530896 0.862268 0.375224
0.547607 0.862497 0.376141
0.565125 0.862741 0.377137
0.583308 0.863000 0.378207
0.602032 0.863272 0.379350
0.621189 0.863556 0.380560
0.640682 0.863849 0.381835
0.660427 0.864152 0.383171
0.680347 0.864461 0.384563
0.700370 0.864776 0.386008
0.720430 0.865095 0.387500
0.740483 0.865430 0.392267
0.760459 0.865773 0.398564
0.780295 0.866114 0.405110
0.799933 0.866452 0.411894
0.819320 0.866785 0.418906
0.838399 0.867108 0.426135
0.857118 0.867420 0.433568
0.875419 0.867717 0.441196
0.893248 0.867996 0.449006
0.910545 0.868252 0.456988
0.927249 0.868479 0.464526
0.943290 0.868661 0.469899
0.958612 0.868806 0.475169
0.973150 0.868910 0.480337
0.457183 0.881360 0.377931
0.462184 0.881422 0.378156
0.467618 0.881489 0.378403
0.475046 0.881582 0.378747
0.484445 0.881701 0.379191
0.495642 0.881844 0.379732
0.508430 0.882011 0.380368
0.522594 0.882199 0.381093
0.537933 0.882406 0.381904
0.554264 0.882630 0.382797
0.571424 0.882871 0.383768
0.589272 0.883127 0.384812
0.607683 0.883396 0.385928
0.626549 0.883678 0.387111
0.645773 0.883970 0.388358
0.665267 0.884272 0.389665
0.684953 0.884581 0.391029
0.704758 0.884896 0.392444
0.724616 0.885217 0.393907
0.744463 0.885540 0.395413
0.764264 0.885884 0.401470
0.783936 0.886229 0.407943
0.803422 0.886571 0.414655
0.822665 0.886909 0.421594
0.841611 0.887240 0.428750
0.860204 0.887560 0.436112
