public/luts/经典胶片/fuji-pro-400h.cube
TITLE "Fuji Pro 400H"
LUT_3D_SIZE 9
DOMAIN_MIN 0.000000 0.000000 0.000000
DOMAIN_MAX 1.000000 1.000000 1.000000
0.189748 0.189748 0.205984
0.302290 0.195171 0.214679
0.403646 0.202430 0.230151
0.504655 0.211905 0.252942
0.603000 0.223180 0.281893
0.697143 0.235725 0.315626
0.785253 0.248861 0.351451
0.864959 0.261601 0.377396
0.933352 0.273234 0.402223
0.216934 0.330745 0.225799
0.317419 0.332292 0.231674
0.413655 0.332961 0.245377
0.511697 0.332362 0.265786
0.608038 0.329679 0.292010
0.700420 0.318117 0.322249
0.786943 0.296830 0.354775
0.865256 0.266104 0.377209
0.933478 0.273246 0.401793
0.253341 0.443752 0.248871
0.338475 0.445037 0.252482
0.428066 0.446249 0.262760
0.522539 0.447321 0.281961
0.616747 0.447967 0.306972
0.708031 0.447867 0.336794
0.794039 0.446579 0.370370
0.872109 0.443326 0.393939
0.939161 0.437254 0.416241
0.298588 0.552097 0.275992
0.365820 0.553041 0.278915
0.447174 0.554148 0.283282
0.536895 0.555405 0.299720
0.628122 0.556612 0.323189
0.717414 0.557569 0.351490
0.802037 0.558016 0.383677
0.879138 0.557507 0.408588
0.945513 0.555585 0.430575
0.349401 0.655009 0.305382
0.397570 0.655635 0.307528
0.470247 0.656602 0.311333
0.554419 0.657774 0.318099
0.642053 0.659074 0.340025
0.728871 0.660314 0.366747
0.811727 0.661300 0.397427
0.887550 0.661720 0.424226
0.952974 0.661199 0.445784
0.395438 0.751547 0.335198
0.431858 0.752001 0.336847
0.496209 0.752841 0.340154
0.574548 0.753930 0.344869
0.658129 0.755176 0.356532
0.742121 0.756497 0.381756
0.822915 0.757700 0.410968
0.897219 0.758550 0.440219
0.961483 0.758706 0.461468
0.437137 0.840388 0.364143
0.467010 0.840759 0.365513
0.523865 0.841502 0.368405
0.596410 0.842521 0.372638
0.675775 0.843715 0.377969
0.756686 0.845036 0.395477
0.835213 0.846350 0.423353
0.907810 0.847448 0.454499
0.970759 0.848019 0.476725
0.476551 0.919651 0.391043
0.501561 0.919968 0.392209
0.551947 0.920640 0.394764
0.619006 0.921608 0.398598
0.694208 0.922786 0.403491
0.771929 0.924084 0.409198
0.848068 0.925470 0.433392
0.918829 0.926734 0.463445
0.980367 0.927623 0.490335
0.509583 0.974382 0.410312
0.531135 0.974728 0.411359
0.576432 0.975512 0.413730
0.638884 0.976728 0.417378
0.710481 0.978321 0.422105
0.785455 0.980224 0.427679
0.859404 0.982353 0.436343
0.928528 0.984662 0.466074
0.986821 0.986821 0.498303
0.192182 0.192182 0.335944
0.303101 0.197473 0.339955
0.404326 0.204596 0.346762
0.505178 0.213868 0.356857
0.603393 0.224881 0.369988
0.697427 0.237113 0.385645
0.785446 0.249915 0.403152
0.865121 0.262518 0.421747
0.933494 0.274041 0.440640
0.217106 0.329394 0.346660
0.317890 0.330945 0.350374
0.414093 0.331544 0.356583
0.512036 0.330793 0.365743
0.608277 0.327831 0.377583
0.700497 0.314088 0.390947
0.786961 0.292345 0.405710
0.865304 0.262539 0.421399
0.933621 0.274056 0.440326
0.253582 0.443415 0.359722
0.339019 0.444721 0.363215
0.428578 0.445924 0.369253
0.522944 0.446948 0.378272
0.617050 0.447514 0.390032
0.708242 0.447295 0.404077
0.794165 0.445836 0.419788
0.872208 0.442488 0.436451
0.939244 0.436299 0.453295
0.298778 0.552027 0.375370
0.366342 0.552987 0.378509
0.447703 0.554117 0.384268
0.537328 0.555350 0.392982
0.628455 0.556505 0.404407
0.717654 0.557384 0.418110
0.802190 0.557722 0.433501
0.879256 0.557155 0.449901
0.945614 0.555190 0.466582
0.349510 0.655029 0.392688
0.398041 0.655669 0.395356
0.470730 0.656655 0.400818
0.554875 0.657849 0.409203
0.642409 0.659111 0.420259
0.729136 0.660292 0.433560
0.811906 0.661196 0.448540
0.887679 0.661554 0.464545
0.953084 0.661004 0.480872
0.395791 0.751604 0.410356
0.432262 0.752065 0.412704
0.496631 0.752922 0.417903
0.574966 0.754037 0.426002
0.658511 0.755293 0.436737
0.742413 0.756568 0.449680
0.823122 0.757704 0.464277
0.897357 0.758484 0.479895
0.961601 0.758615 0.495856
0.437412 0.840444 0.425673
0.467327 0.840825 0.428560
0.524214 0.841587 0.434302
0.596771 0.842630 0.442218
0.676145 0.843859 0.452749
0.757007 0.845171 0.465453
0.835451 0.846431 0.479774
0.907965 0.847455 0.495093
0.970886 0.847995 0.510754
0.476695 0.919681 0.435560
0.501740 0.920006 0.438265
0.552178 0.920700 0.444731
0.619290 0.921705 0.455451
0.694523 0.922921 0.466945
0.772269 0.924261 0.479613
0.848341 0.925613 0.493846
0.919021 0.926815 0.509029
0.980504 0.927651 0.524524
0.509619 0.974497 0.437711
0.531203 0.974850 0.440327
0.576555 0.975653 0.446656
0.639069 0.976904 0.457234
0.710735 0.978548 0.472099
0.785760 0.980503 0.487584
0.859730 0.982671 0.502326
0.928774 0.984926 0.517954
0.987013 0.987013 0.533690
0.195105 0.195105 0.439394
0.303272 0.200209 0.441942
0.404783 0.207233 0.446151
0.505626 0.216353 0.452352
0.603791 0.227188 0.460533
0.697778 0.239234 0.470543
0.785760 0.251855 0.482088
0.865409 0.264292 0.494750
0.933767 0.275671 0.507997
0.214739 0.324025 0.446743
0.317269 0.325584 0.449180
0.413948 0.326064 0.453022
0.512005 0.325015 0.458618
0.608091 0.317945 0.465658
0.700320 0.302554 0.473933
0.786831 0.279994 0.483397
0.865593 0.264315 0.494538
0.933893 0.275687 0.507793
0.251950 0.441391 0.456970
0.338757 0.442718 0.459292
0.428657 0.443915 0.463089
0.523096 0.444908 0.468705
0.617209 0.445418 0.476099
0.708392 0.445114 0.485122
0.794302 0.443535 0.495491
0.872335 0.440015 0.506797
0.939363 0.433577 0.518512
0.297532 0.551031 0.469509
0.366270 0.552009 0.471609
0.447874 0.553137 0.475265
0.537548 0.554357 0.480748
0.628670 0.555489 0.488010
0.717853 0.556337 0.496906
0.802374 0.556636 0.507170
0.879427 0.556020 0.518414
0.945779 0.553995 0.530143
0.348510 0.654496 0.483876
0.398105 0.655152 0.485648
0.470960 0.656135 0.489125
0.555135 0.657319 0.494427
0.642658 0.658565 0.501491
0.729364 0.659725 0.510174
0.812115 0.660605 0.520219
0.887874 0.660934 0.531255
0.953271 0.660352 0.542801
0.395771 0.751344 0.499200
0.432433 0.751805 0.500714
0.496908 0.752659 0.504004
0.575259 0.753766 0.509108
0.658786 0.755008 0.515953
0.742663 0.756265 0.524397
0.823350 0.757382 0.534191
0.897569 0.758139 0.544976
0.961804 0.758247 0.556287
0.437594 0.840365 0.514546
0.467596 0.840742 0.515928
0.524537 0.841495 0.519039
0.597095 0.842530 0.523950
0.676446 0.843746 0.530583
0.757279 0.845041 0.538795
0.835698 0.846283 0.548345
0.908193 0.847287 0.558883
0.971102 0.847808 0.569958
0.477057 0.919756 0.528947
0.502139 0.920077 0.530225
0.552586 0.920759 0.533181
0.619658 0.921741 0.537920
0.694852 0.922938 0.544368
0.772564 0.924262 0.552383
0.848607 0.925595 0.561724
0.919266 0.926779 0.572052
0.980735 0.927596 0.582926
0.510209 0.975004 0.538223
0.531799 0.975353 0.539445
0.577129 0.976145 0.542332
0.639583 0.977374 0.547030
0.711168 0.978985 0.553474
0.786128 0.980911 0.561519
0.860060 0.983060 0.570926
0.929075 0.985296 0.581355
0.987367 0.987367 0.592237
0.198766 0.198766 0.538399
0.302664 0.203604 0.540219
0.404987 0.210542 0.543246
0.505981 0.219512 0.547647
0.604168 0.230169 0.553442
0.698148 0.242026 0.560557
0.786119 0.254461 0.568819
0.865763 0.266728 0.577948
0.934122 0.277957 0.587564
0.215036 0.312732 0.543382
0.315202 0.314159 0.545136
0.412905 0.312875 0.547802
0.511114 0.307002 0.551506
0.607332 0.296503 0.556295
0.699759 0.280097 0.562092
0.786409 0.255779 0.568735
0.865947 0.266752 0.577812
0.934249 0.277974 0.587430
0.247874 0.437103 0.551763
0.337467 0.438476 0.553522
0.428211 0.439675 0.556280
0.522930 0.440634 0.560298
0.617159 0.441070 0.565564
0.708398 0.440642 0.571996
0.794341 0.438871 0.579412
0.872395 0.435060 0.587529
0.939440 0.428172 0.595953
0.294350 0.548789 0.562043
0.365390 0.549802 0.563648
0.447619 0.550939 0.566325
0.537514 0.552154 0.570287
0.628726 0.553271 0.575511
0.717952 0.554092 0.581917
0.802498 0.554349 0.589335
0.879571 0.553675 0.597497
0.945942 0.551572 0.606036
0.345912 0.653169 0.573963
0.397524 0.653856 0.575326
0.470827 0.654845 0.577889
0.555179 0.656028 0.581752
0.642774 0.657267 0.586878
0.729514 0.658415 0.593182
0.812283 0.659276 0.600501
0.888058 0.659581 0.608573
0.953472 0.658967 0.617043
0.394981 0.750553 0.586925
0.432083 0.751020 0.588066
0.496871 0.751877 0.590504
0.575361 0.752982 0.594248
0.658946 0.754219 0.599250
0.742849 0.755468 0.605424
0.823551 0.756573 0.612605
0.897782 0.757315 0.620543
0.962031 0.757404 0.628889
0.437185 0.839909 0.600142
0.467427 0.840289 0.601182
0.524582 0.841044 0.603496
0.597248 0.842077 0.607116
0.676643 0.843288 0.611987
0.757496 0.844577 0.618021
0.835925 0.845809 0.625056
0.908430 0.846801 0.632847
0.971351 0.847308 0.641053
0.476895 0.919546 0.612847
0.502115 0.919868 0.613806
0.552705 0.920551 0.616005
0.619858 0.921530 0.619505
0.695086 0.922723 0.624252
0.772811 0.924041 0.630154
0.848861 0.925366 0.637052
0.919526 0.926539 0.644703
0.981006 0.927344 0.652777
0.510359 0.975521 0.621658
0.532023 0.975870 0.622570
0.577437 0.976661 0.624711
0.639933 0.977888 0.628173
0.711529 0.979495 0.632912
0.786486 0.981415 0.638835
0.860412 0.983555 0.645784
0.929424 0.985783 0.653518
0.987849 0.987849 0.661605
0.203026 0.203026 0.632136
0.300950 0.207509 0.633504
0.404793 0.214378 0.635865
0.506146 0.223197 0.639248
0.604449 0.233669 0.643678
0.698474 0.245329 0.649108
0.786470 0.257571 0.655411
0.866135 0.269659 0.662376
0.934520 0.280735 0.669700
0.213294 0.280397 0.634699
0.309817 0.280770 0.635980
0.409933 0.278402 0.638022
0.509164 0.271965 0.640864
0.605936 0.260287 0.644507
0.698824 0.245370 0.649016
0.786725 0.257603 0.655319
0.866319 0.269684 0.662284
0.934647 0.280753 0.669608
0.241613 0.429920 0.642477
0.334797 0.431347 0.643900
0.427048 0.432555 0.646060
0.522306 0.433462 0.649158
0.616787 0.433781 0.653189
0.708167 0.433154 0.658093
0.794198 0.431068 0.663731
0.872314 0.426765 0.669878
0.939402 0.419095 0.676212
0.288753 0.545003 0.651209
0.363434 0.546072 0.652528
0.446780 0.547226 0.654635
0.537112 0.548440 0.657712
0.628531 0.549541 0.661742
0.717873 0.550329 0.666668
0.802495 0.550534 0.672358
0.879626 0.549783 0.678605
0.946047 0.547568 0.685109
0.341355 0.650871 0.661360
0.396091 0.651605 0.662492
0.470199 0.652606 0.664518
0.554907 0.653792 0.667536
0.642676 0.655027 0.671514
0.729514 0.656165 0.676393
0.812350 0.657008 0.682044
0.888175 0.657287 0.688262
0.953636 0.656637 0.694757
0.393185 0.749113 0.672527
0.431056 0.749591 0.673448
0.496411 0.750455 0.675382
0.575187 0.751563 0.678323
0.658918 0.752799 0.682228
0.742907 0.754042 0.687033
0.823666 0.755138 0.692610
0.897942 0.755866 0.698758
0.962235 0.755937 0.705194
0.436054 0.839008 0.684011
0.466716 0.839392 0.684848
0.524266 0.840152 0.686690
0.597158 0.841187 0.689546
0.676676 0.842397 0.693368
0.757602 0.843681 0.698088
0.836081 0.844907 0.703578
0.908627 0.845890 0.709641
0.971588 0.846384 0.715998
0.476189 0.919035 0.695195
0.501651 0.919360 0.695966
0.552516 0.920045 0.697720
0.619846 0.921025 0.700491
0.695175 0.922217 0.704231
0.772962 0.923530 0.708865
0.849055 0.924850 0.714269
0.919757 0.926016 0.720246
0.981274 0.926811 0.726523
0.510151 0.976114 0.703328
0.531953 0.976465 0.704060
0.577539 0.977258 0.705768
0.640152 0.978484 0.708514
0.711810 0.980089 0.712257
0.786803 0.982006 0.716923
0.860752 0.984143 0.722384
0.929787 0.986365 0.728450
0.988432 0.988432 0.734765
0.207717 0.207717 0.719979
0.297728 0.211752 0.721028
0.404052 0.218581 0.722972
0.506027 0.227252 0.725706
0.604563 0.237536 0.729262
0.698700 0.248994 0.733605
0.786765 0.261038 0.738633
0.866485 0.272944 0.744170
0.934924 0.283865 0.749963
0.209637 0.224242 0.720327
0.301410 0.224531 0.721312
0.405446 0.221877 0.723000
0.506758 0.227318 0.725646
0.605055 0.237588 0.729201
0.699050 0.249036 0.733542
0.787020 0.261071 0.738569
0.866670 0.272970 0.744105
0.935051 0.283882 0.749898
0.242721 0.419162 0.728078
0.330308 0.420464 0.729184
0.424952 0.421682 0.730962
0.521077 0.422502 0.733465
0.615979 0.422629 0.736693
0.707602 0.421670 0.740597
0.793788 0.419051 0.745059
0.872011 0.413899 0.749887
0.939173 0.404826 0.754800
0.280201 0.539348 0.735661
0.360088 0.540492 0.736801
0.445191 0.541674 0.738541
0.536226 0.542890 0.741041
0.627994 0.543970 0.744292
0.717542 0.544715 0.748244
0.802302 0.544849 0.752792
0.879537 0.543989 0.757757
0.946045 0.541616 0.762887
0.334449 0.647414 0.744547
0.393566 0.648213 0.745538
0.468935 0.649233 0.747215
0.554217 0.650426 0.749677
0.642283 0.651659 0.752901
0.729300 0.652786 0.756835
0.812257 0.653610 0.761373
0.888178 0.653857 0.766342
0.953720 0.653161 0.771496
0.390076 0.746901 0.754398
0.429164 0.747395 0.755175
0.495405 0.748271 0.756778
0.574646 0.749385 0.759186
0.658631 0.750621 0.762363
0.742775 0.751861 0.766254
0.823643 0.752947 0.770753
0.898006 0.753662 0.775688
0.962375 0.753712 0.780817
0.433997 0.837572 0.764564
0.465313 0.837965 0.765267
0.523482 0.838732 0.766795
0.596745 0.839771 0.769141
0.676479 0.840981 0.772262
0.757541 0.842263 0.776099
0.836117 0.843484 0.780545
0.908742 0.844458 0.785431
0.971775 0.844941 0.790517
0.474791 0.918158 0.774548
0.500631 0.918488 0.775194
0.551927 0.919178 0.776650
0.619551 0.920161 0.778932
0.695061 0.921352 0.781996
0.772967 0.922664 0.785776
0.849146 0.923979 0.790166
0.919920 0.925138 0.794999
0.981503 0.925925 0.800037
0.509482 0.976771 0.782119
0.531502 0.977124 0.782731
0.577366 0.977920 0.784149
0.640180 0.979148 0.786415
0.711964 0.980753 0.789490
0.787036 0.982668 0.793307
0.861045 0.984802 0.797760
0.930130 0.987021 0.802683
0.989095 0.989095 0.807782
0.212628 0.212628 0.800942
0.289080 0.215943 0.801709
0.402588 0.222949 0.803409
0.505514 0.231485 0.805700
0.604429 0.241587 0.808655
0.698761 0.252848 0.812246
0.786951 0.264696 0.816385
0.866768 0.276422 0.820920
0.935295 0.287189 0.825632
0.212624 0.212624 0.800887
0.293444 0.216162 0.801698
0.403827 0.223036 0.803372
0.506249 0.231550 0.805660
0.604922 0.241639 0.808613
0.699113 0.252889 0.812202
0.787207 0.264729 0.816340
0.866953 0.276448 0.820874
0.935423 0.287207 0.825585
0.243108 0.403343 0.807186
0.323364 0.404459 0.808045
0.421648 0.405681 0.809564
0.519053 0.406341 0.811652
0.614587 0.406125 0.814317
0.706576 0.404573 0.817513
0.792998 0.400980 0.821136
0.871377 0.394220 0.825008
0.938631 0.382290 0.828865
0.272575 0.531495 0.814030
0.354933 0.532663 0.815011
0.442658 0.533886 0.816501
0.534723 0.535104 0.818600
0.627014 0.536158 0.821305
0.716875 0.536843 0.824574
0.801848 0.536876 0.828314
0.879243 0.535863 0.832368
0.945882 0.533264 0.836514
0.324729 0.642589 0.821976
0.389644 0.643469 0.822880
0.466869 0.644517 0.824315
0.552993 0.645721 0.826388
0.641507 0.646953 0.829080
0.728797 0.648068 0.832347
0.811945 0.648868 0.836095
0.888011 0.649076 0.840173
0.953677 0.648320 0.844362
0.382867 0.743739 0.830839
0.426174 0.744294 0.831554
0.493710 0.745188 0.832925
0.573633 0.746311 0.834957
0.658002 0.747549 0.837619
0.742387 0.748785 0.840860
0.823426 0.749863 0.844588
0.897923 0.750562 0.848652
0.962407 0.750588 0.852837
0.430753 0.835503 0.840059
0.463037 0.835907 0.840670
0.522103 0.836686 0.841976
0.595914 0.837731 0.843960
0.675975 0.838944 0.846582
0.757249 0.840224 0.849788
0.835979 0.841440 0.853483
0.908727 0.842406 0.857518
0.971868 0.842875 0.861681
0.472516 0.916842 0.849135
0.498904 0.917178 0.849693
0.550826 0.917875 0.850937
0.618885 0.918862 0.852870
0.694672 0.920055 0.855449
0.772765 0.921365 0.858615
0.849082 0.922677 0.862273
0.919969 0.923830 0.866275
0.981654 0.924608 0.870410
0.508219 0.977465 0.856311
0.530553 0.977822 0.856837
0.576826 0.978622 0.858048
0.639947 0.979853 0.859971
0.711929 0.981458 0.862565
0.787135 0.983374 0.865770
0.861245 0.985506 0.869493
0.930416 0.987724 0.873585
0.989808 0.989808 0.877799
0.217502 0.217502 0.873637
0.275715 0.219921 0.874153
0.400185 0.227237 0.875707
0.504476 0.235663 0.877681
0.603951 0.245600 0.880202
0.698582 0.256677 0.883246
0.786966 0.268341 0.886736
0.866930 0.279898 0.890535
0.935586 0.290521 0.894447
0.217499 0.217499 0.873596
0.280268 0.220133 0.874152
0.401450 0.227323 0.875684
0.505217 0.235727 0.877655
0.604447 0.245652 0.880174
0.698935 0.256718 0.883217
0.787222 0.268374 0.886705
0.867115 0.279924 0.890503
0.935714 0.290540 0.894413
0.242265 0.379978 0.878216
0.309577 0.380709 0.878832
0.416739 0.381993 0.880204
0.515962 0.382306 0.881986
0.612391 0.381380 0.884229
0.704899 0.378583 0.886887
0.791643 0.372855 0.889856
0.870165 0.361059 0.892914
0.937088 0.328528 0.895442
0.273267 0.521048 0.884717
0.347361 0.522055 0.885488
0.438937 0.523339 0.886804
0.532441 0.524560 0.888612
0.625469 0.525573 0.890918
0.715775 0.526172 0.893683
0.801051 0.526061 0.896823
0.878671 0.524826 0.900197
0.945491 0.521900 0.903604
0.311588 0.636145 0.891910
0.383908 0.637122 0.892761
0.463800 0.638209 0.894026
0.551097 0.639428 0.895815
0.640239 0.640660 0.898117
0.727920 0.641761 0.900891
0.811338 0.642530 0.904052
0.887611 0.642687 0.907463
0.953449 0.641853 0.910926
0.372077 0.739484 0.900054
0.421786 0.740130 0.900748
0.491149 0.741049 0.901953
0.572022 0.742183 0.903710
0.656931 0.743426 0.905990
0.741662 0.744660 0.908749
0.822945 0.745727 0.911901
0.897633 0.746408 0.915311
0.962278 0.746404 0.918784
0.425959 0.832685 0.908608
0.459656 0.833107 0.909156
0.519977 0.833901 0.910301
0.594548 0.834955 0.912018
0.675071 0.836171 0.914269
0.756651 0.837451 0.917003
0.835602 0.838662 0.920135
0.908526 0.839619 0.923529
0.971819 0.840073 0.926993
0.469125 0.915000 0.917021
0.496288 0.915344 0.917516
0.549078 0.916051 0.918605
0.617742 0.917045 0.920279
0.693923 0.918240 0.922495
0.772284 0.919550 0.925201
0.848802 0.920859 0.928307
0.919850 0.922005 0.931680
0.981677 0.922774 0.935129
0.506189 0.978159 0.923969
0.528964 0.978520 0.924432
0.575806 0.979327 0.925491
0.639359 0.980562 0.927157
0.711630 0.982170 0.929390
0.787037 0.984086 0.932136
0.861297 0.986218 0.935307
0.930596 0.988435 0.938769
0.990534 0.990534 0.942313
0.221744 0.221744 0.932271
0.257561 0.223153 0.932509
0.396409 0.230856 0.933840
0.502628 0.239202 0.935338
0.602905 0.248992 0.937167
0.697972 0.259893 0.939297
0.786637 0.271374 0.941648
0.866810 0.282753 0.944086
0.935640 0.293211 0.946423
0.221744 0.221744 0.932271
0.262408 0.223362 0.932545
0.397713 0.230945 0.933856
0.503379 0.239268 0.935350
0.603405 0.249046 0.937177
0.698326 0.259937 0.939306
0.786895 0.271409 0.941655
0.866996 0.282780 0.944092
0.935769 0.293231 0.946428
0.238969 0.342976 0.935295
0.287888 0.342996 0.935618
0.409390 0.344196 0.936770
0.511194 0.343462 0.938060
0.608809 0.339347 0.939545
0.701685 0.325051 0.941000
0.788592 0.304275 0.942498
0.867469 0.282850 0.944107
0.936097 0.293283 0.946440
0.272823 0.507033 0.941952
0.333137 0.507751 0.942451
0.433579 0.509188 0.943546
0.529069 0.510401 0.944894
0.623107 0.511343 0.946531
0.714025 0.511798 0.948411
0.799714 0.511454 0.950445
0.877638 0.509866 0.952496
0.944694 0.506421 0.954367
0.303975 0.627838 0.948925
0.375607 0.628780 0.949610
0.459356 0.629921 0.950621
0.548259 0.631156 0.951958
0.638262 0.632380 0.953601
0.726477 0.633452 0.955502
0.810265 0.634168 0.957572
0.886816 0.634241 0.959678
0.952878 0.633284 0.961629
0.357894 0.733907 0.956789
0.415469 0.734655 0.957427
0.487407 0.735606 0.958379
0.569573 0.736753 0.959690
0.655219 0.737995 0.961320
0.740423 0.739218 0.963216
0.822040 0.740263 0.965291
0.896983 0.740907 0.967411
0.961839 0.740850 0.969387
0.418981 0.828939 0.965258
0.454776 0.829386 0.965713
0.516829 0.830199 0.966607
0.592433 0.831261 0.967884
0.673585 0.832477 0.969492
0.755583 0.833750 0.971374
0.834836 0.834946 0.973441
0.907994 0.835881 0.975558
0.971484 0.836302 0.977541
0.464221 0.912496 0.973652
0.492475 0.912852 0.974051
0.546449 0.913570 0.974891
0.615931 0.914569 0.976131
0.692646 0.915764 0.977713
0.771374 0.917067 0.979576
0.848164 0.918364 0.981629
0.919428 0.919494 0.983738
0.981440 0.920238 0.985720
0.503121 0.978781 0.981039
0.526501 0.979148 0.981405
0.574114 0.979961 0.982216
0.638255 0.981199 0.983450
0.710924 0.982806 0.985051
0.786609 0.984717 0.986957
0.861079 0.986843 0.989076
0.930548 0.989050 0.991277
0.991157 0.991157 0.993377
