public/luts/经典胶片/fuji-pro-400h.cube
TITLE "Fuji Pro 400H"
LUT_3D_SIZE 5
DOMAIN_MIN 0.000000 0.000000 0.000000
DOMAIN_MAX 1.000000 1.000000 1.000000
0.189748 0.189748 0.205984
0.403646 0.202430 0.230151
0.603000 0.223180 0.281893
0.785253 0.248861 0.351451
0.933352 0.273234 0.402223
0.253341 0.443752 0.248871
0.428066 0.446249 0.262760
0.616747 0.447967 0.306972
0.794039 0.446579 0.370370
0.939161 0.437254 0.416241
0.349401 0.655009 0.305382
0.470247 0.656602 0.311333
0.642053 0.659074 0.340025
0.811727 0.661300 0.397427
0.952974 0.661199 0.445784
0.437137 0.840388 0.364143
0.523865 0.841502 0.368405
0.675775 0.843715 0.377969
0.835213 0.846350 0.423353
0.970759 0.848019 0.476725
0.509583 0.974382 0.410312
0.576432 0.975512 0.413730
0.710481 0.978321 0.422105
0.859404 0.982353 0.436343
0.986821 0.986821 0.498303
0.195105 0.195105 0.439394
0.404783 0.207233 0.446151
0.603791 0.227188 0.460533
0.785760 0.251855 0.482088
0.933767 0.275671 0.507997
0.251950 0.441391 0.456970
0.428657 0.443915 0.463089
0.617209 0.445418 0.476099
0.794302 0.443535 0.495491
0.939363 0.433577 0.518512
0.348510 0.654496 0.483876
0.470960 0.656135 0.489125
0.642658 0.658565 0.501491
0.812115 0.660605 0.520219
0.953271 0.660352 0.542801
0.437594 0.840365 0.514546
0.524537 0.841495 0.519039
0.676446 0.843746 0.530583
0.835698 0.846283 0.548345
0.971102 0.847808 0.569958
0.510209 0.975004 0.538223
0.577129 0.976145 0.542332
0.711168 0.978985 0.553474
0.860060 0.983060 0.570926
0.987367 0.987367 0.592237
0.203026 0.203026 0.632136
0.404793 0.214378 0.635865
0.604449 0.233669 0.643678
0.786470 0.257571 0.655411
0.934520 0.280735 0.669700
0.241613 0.429920 0.642477
0.427048 0.432555 0.646060
0.616787 0.433781 0.653189
0.794198 0.431068 0.663731
0.939402 0.419095 0.676212
0.341355 0.650871 0.661360
0.470199 0.652606 0.664518
0.642676 0.655027 0.671514
0.812350 0.657008 0.682044
0.953636 0.656637 0.694757
0.436054 0.839008 0.684011
0.524266 0.840152 0.686690
0.676676 0.842397 0.693368
0.836081 0.844907 0.703578
0.971588 0.846384 0.715998
0.510151 0.976114 0.703328
0.577539 0.977258 0.705768
0.711810 0.980089 0.712257
0.860752 0.984143 0.722384
0.988432 0.988432 0.734765
0.212628 0.212628 0.800942
0.402588 0.222949 0.803409
0.604429 0.241587 0.808655
0.786951 0.264696 0.816385
0.935295 0.287189 0.825632
0.243108 0.403343 0.807186
0.421648 0.405681 0.809564
0.614587 0.406125 0.814317
0.792998 0.400980 0.821136
0.938631 0.382290 0.828865
0.324729 0.642589 0.821976
0.466869 0.644517 0.824315
0.641507 0.646953 0.829080
0.811945 0.648868 0.836095
0.953677 0.648320 0.844362
0.430753 0.835503 0.840059
0.522103 0.836686 0.841976
0.675975 0.838944 0.846582
0.835979 0.841440 0.853483
0.971868 0.842875 0.861681
0.508219 0.977465 0.856311
0.576826 0.978622 0.858048
0.711929 0.981458 0.862565
0.861245 0.985506 0.869493
0.989808 0.989808 0.877799
0.221744 0.221744 0.932271
0.396409 0.230856 0.933840
0.602905 0.248992 0.937167
0.786637 0.271374 0.941648
0.935640 0.293211 0.946423
0.238969 0.342976 0.935295
0.409390 0.344196 0.936770
0.608809 0.339347 0.939545
0.788592 0.304275 0.942498
0.936097 0.293283 0.946440
0.303975 0.627838 0.948925
0.459356 0.629921 0.950621
0.638262 0.632380 0.953601
0.810265 0.634168 0.957572
0.952878 0.633284 0.961629
0.418981 0.828939 0.965258
0.516829 0.830199 0.966607
0.673585 0.832477 0.969492
0.834836 0.834946 0.973441
0.971484 0.836302 0.977541
0.503121 0.978781 0.981039
0.574114 0.979961 0.982216
0.710924 0.982806 0.985051
0.861079 0.986843 0.989076
0.991157 0.991157 0.993377
