public/luts/经典胶片/kodak-ektar-100.cube
TITLE "Kodak Ektar 100"
LUT_3D_SIZE 5
DOMAIN_MIN 0.000000 0.000000 0.000000
DOMAIN_MAX 1.000000 1.000000 1.000000
0.000000 0.000000 0.000000
0.516487 0.000000 0.000000
0.776308 0.000000 0.000000
0.975619 0.000000 0.000000
1.000000 0.000000 0.000000
0.000000 0.503437 0.000000
0.478871 0.489834 0.000000
0.755160 0.463877 0.000000
0.961117 0.423503 0.000000
1.000000 0.371024 0.000000
0.000000 0.742519 0.000000
0.423268 0.735281 0.000000
0.724097 0.722606 0.000000
0.937707 0.705506 0.000000
1.000000 0.688645 0.000000
0.000000 0.924187 0.000000
0.353813 0.919410 0.000000
0.689127 0.910977 0.000000
0.911927 0.900249 0.000000
1.000000 0.890982 0.000000
0.000000 1.000000 0.000000
0.303814 1.000000 0.000000
0.665192 1.000000 0.000000
0.893653 1.000000 0.000000
1.000000 1.000000 0.000000
0.000000 0.000000 0.560260
0.501476 0.000000 0.542871
0.770514 0.000000 0.497917
0.972911 0.000000 0.398679
1.000000 0.000000 0.000000
0.000000 0.491384 0.526137
0.463789 0.477765 0.507617
0.749955 0.450986 0.459851
0.958965 0.409597 0.351200
1.000000 0.357195 0.000000
0.000000 0.737756 0.472400
0.404935 0.730372 0.450599
0.718218 0.717721 0.393239
0.935183 0.701000 0.246357
1.000000 0.685662 0.000000
0.000000 0.921798 0.401990
0.330496 0.916594 0.374899
0.682669 0.908239 0.299185
0.909169 0.897870 0.000000
1.000000 0.889783 0.000000
0.000000 1.000000 0.337661
0.275111 1.000000 0.305483
0.658180 1.000000 0.198617
0.890636 1.000000 0.000000
1.000000 1.000000 0.000000
0.000000 0.000000 0.806685
0.455583 0.000000 0.799290
0.755075 0.000000 0.781218
0.965190 0.000000 0.752866
1.000000 0.000000 0.714632
0.000000 0.457506 0.788312
0.418323 0.444188 0.780918
0.736739 0.412465 0.763200
0.953197 0.361696 0.735835
1.000000 0.287112 0.699849
0.000000 0.725885 0.756458
0.347267 0.719324 0.748380
0.702838 0.705732 0.729207
0.928131 0.687873 0.699085
1.000000 0.670182 0.658446
0.000000 0.915910 0.719979
0.251729 0.911190 0.711030
0.665595 0.902314 0.690389
0.901390 0.891371 0.657534
1.000000 0.881926 0.612573
0.000000 1.000000 0.691815
0.166581 1.000000 0.681879
0.639418 1.000000 0.659923
0.882035 1.000000 0.624439
1.000000 1.000000 0.575150
0.000000 0.000000 0.991000
0.329573 0.000000 0.987861
0.726765 0.000000 0.976303
0.952560 0.000000 0.960916
1.000000 0.000000 0.943318
0.000000 0.378584 0.981080
0.291647 0.366203 0.978108
0.713945 0.316795 0.967269
0.945289 0.223139 0.953508
1.000000 0.000000 0.941164
0.000000 0.705052 0.955281
0.147132 0.700632 0.951921
0.674878 0.685043 0.940242
0.916979 0.665507 0.924796
1.000000 0.645577 0.907452
0.000000 0.906196 0.927905
0.000000 0.903079 0.924115
0.634194 0.893146 0.911940
0.888870 0.881512 0.895564
1.000000 0.871149 0.876979
0.000000 1.000000 0.906757
0.000000 1.000000 0.902413
0.604534 1.000000 0.889833
0.867952 1.000000 0.872555
1.000000 1.000000 0.852718
0.000000 0.000000 1.000000
0.000000 0.000000 1.000000
0.680183 0.000000 1.000000
0.934028 0.000000 1.000000
1.000000 0.000000 1.000000
0.000000 0.000000 1.000000
0.000000 0.000000 1.000000
0.680820 0.000000 1.000000
0.934258 0.000000 1.000000
1.000000 0.000000 1.000000
0.000000 0.672878 1.000000
0.000000 0.671755 1.000000
0.629061 0.653264 1.000000
0.901093 0.630756 1.000000
1.000000 0.606848 1.000000
0.000000 0.892807 1.000000
0.000000 0.892384 1.000000
0.581811 0.880773 1.000000
0.870706 0.868038 1.000000
1.000000 0.856250 1.000000
0.000000 1.000000 1.000000
0.000000 1.000000 1.000000
0.545404 1.000000 1.000000
0.847220 1.000000 1.000000
1.000000 1.000000 1.000000
