public/luts/经典胶片/kodak-ektar-100.cube
TITLE "Kodak Ektar 100"
LUT_3D_SIZE 33
DOMAIN_MIN 0.000000 0.000000 0.000000
DOMAIN_MAX 1.000000 1.000000 1.000000
0.000000 0.000000 0.000000
0.151595 0.000000 0.000000
0.232995 0.000000 0.000000
0.316277 0.000000 0.000000
0.360088 0.000000 0.000000
0.401597 0.000000 0.000000
0.441305 0.000000 0.000000
0.479532 0.000000 0.000000
0.516487 0.000000 0.000000
0.552311 0.000000 0.000000
0.587099 0.000000 0.000000
0.620914 0.000000 0.000000
0.653796 0.000000 0.000000
0.685770 0.000000 0.000000
0.716847 0.000000 0.000000
0.747028 0.000000 0.000000
0.776308 0.000000 0.000000
0.804674 0.000000 0.000000
0.832108 0.000000 0.000000
0.858589 0.000000 0.000000
0.884089 0.000000 0.000000
0.908578 0.000000 0.000000
0.932022 0.000000 0.000000
0.954383 0.000000 0.000000
0.975619 0.000000 0.000000
0.995687 0.000000 0.000000
1.000000 0.000000 0.000000
1.000000 0.000000 0.000000
1.000000 0.000000 0.000000
1.000000 0.000000 0.000000
1.000000 0.000000 0.000000
1.000000 0.000000 0.000000
1.000000 0.000000 0.000000
0.000000 0.149323 0.000000
0.138046 0.143697 0.000000
0.224945 0.136680 0.000000
0.310714 0.125440 0.000000
0.355534 0.115026 0.000000
0.397847 0.101588 0.000000
0.438229 0.083825 0.000000
0.477040 0.058808 0.000000
0.514518 0.019540 0.000000
0.550819 0.000000 0.000000
0.586050 0.000000 0.000000
0.620282 0.000000 0.000000
0.653561 0.000000 0.000000
0.685801 0.000000 0.000000
0.716874 0.000000 0.000000
0.747052 0.000000 0.000000
0.776330 0.000000 0.000000
0.804693 0.000000 0.000000
0.832126 0.000000 0.000000
0.858604 0.000000 0.000000
0.884103 0.000000 0.000000
0.908590 0.000000 0.000000
0.932033 0.000000 0.000000
0.954393 0.000000 0.000000
0.975629 0.000000 0.000000
0.995695 0.000000 0.000000
1.000000 0.000000 0.000000
1.000000 0.000000 0.000000
1.000000 0.000000 0.000000
1.000000 0.000000 0.000000
1.000000 0.000000 0.000000
1.000000 0.000000 0.000000
1.000000 0.000000 0.000000
0.000000 0.229666 0.000000
0.119048 0.226088 0.000000
0.214194 0.221739 0.000000
0.303233 0.215062 0.000000
0.349178 0.209108 0.000000
0.392318 0.201877 0.000000
0.433338 0.193179 0.000000
0.472659 0.182762 0.000000
0.510556 0.170273 0.000000
0.547208 0.155187 0.000000
0.582739 0.136648 0.000000
0.617230 0.113080 0.000000
0.650736 0.080846 0.000000
0.683291 0.026800 0.000000
0.714915 0.000000 0.000000
0.745615 0.000000 0.000000
0.775389 0.000000 0.000000
0.804229 0.000000 0.000000
0.832120 0.000000 0.000000
0.858622 0.000000 0.000000
0.884119 0.000000 0.000000
0.908605 0.000000 0.000000
0.932046 0.000000 0.000000
0.954404 0.000000 0.000000
0.975639 0.000000 0.000000
0.995704 0.000000 0.000000
1.000000 0.000000 0.000000
1.000000 0.000000 0.000000
1.000000 0.000000 0.000000
1.000000 0.000000 0.000000
1.000000 0.000000 0.000000
1.000000 0.000000 0.000000
1.000000 0.000000 0.000000
0.000000 0.313083 0.000000
0.081626 0.310523 0.000000
0.196084 0.307444 0.000000
0.291112 0.302797 0.000000
0.338977 0.298651 0.000000
0.383498 0.293682 0.000000
0.425567 0.287813 0.000000
0.465717 0.280960 0.000000
0.504287 0.273020 0.000000
0.541500 0.263869 0.000000
0.577506 0.253351 0.000000
0.612405 0.241265 0.000000
0.646268 0.227339 0.000000
0.679137 0.211192 0.000000
0.711040 0.192249 0.000000
0.741990 0.169580 0.000000
0.771992 0.141468 0.000000
0.801039 0.104000 0.000000
0.829120 0.042237 0.000000
0.856218 0.000000 0.000000
0.882309 0.000000 0.000000
0.907366 0.000000 0.000000
0.931359 0.000000 0.000000
0.954250 0.000000 0.000000
0.975654 0.000000 0.000000
0.995717 0.000000 0.000000
1.000000 0.000000 0.000000
1.000000 0.000000 0.000000
1.000000 0.000000 0.000000
1.000000 0.000000 0.000000
1.000000 0.000000 0.000000
1.000000 0.000000 0.000000
1.000000 0.000000 0.000000
0.000000 0.356463 0.000000
0.047051 0.354692 0.000000
0.183352 0.352545 0.000000
0.282585 0.349314 0.000000
0.331667 0.346759 0.000000
0.377006 0.343804 0.000000
0.419652 0.340430 0.000000
0.460220 0.336612 0.000000
0.499096 0.332323 0.000000
0.536533 0.327535 0.000000
0.572701 0.322212 0.000000
0.607715 0.316316 0.000000
0.641655 0.309798 0.000000
0.674572 0.302603 0.000000
0.706499 0.294662 0.000000
0.737457 0.285890 0.000000
0.767452 0.276178 0.000000
0.796483 0.265385 0.000000
0.824556 0.252961 0.000000
0.851907 0.231145 0.000000
0.878233 0.205624 0.000000
0.903509 0.174806 0.000000
0.927706 0.135294 0.000000
0.950790 0.076372 0.000000
0.972724 0.000000 0.000000
0.993464 0.000000 0.000000
1.000000 0.000000 0.000000
1.000000 0.000000 0.000000
1.000000 0.000000 0.000000
1.000000 0.000000 0.000000
1.000000 0.000000 0.000000
1.000000 0.000000 0.000000
1.000000 0.000000 0.000000
0.000000 0.395753 0.000000
0.000000 0.394230 0.000000
0.169687 0.392384 0.000000
0.273819 0.389630 0.000000
0.324349 0.387483 0.000000
0.370688 0.385017 0.000000
0.414071 0.382220 0.000000
0.455205 0.379079 0.000000
0.494530 0.375578 0.000000
0.532331 0.371703 0.000000
0.568798 0.367436 0.000000
0.604061 0.362759 0.000000
0.638210 0.357649 0.000000
0.671303 0.352085 0.000000
0.703380 0.346037 0.000000
0.734463 0.339475 0.000000
0.764562 0.332361 0.000000
0.793679 0.324650 0.000000
0.821807 0.316288 0.000000
0.848932 0.307208 0.000000
0.875038 0.297327 0.000000
0.900098 0.286538 0.000000
0.924087 0.274703 0.000000
0.946971 0.261635 0.000000
0.968714 0.247080 0.000000
0.989277 0.230668 0.000000
1.000000 0.211842 0.000000
1.000000 0.176437 0.000000
1.000000 0.124312 0.000000
1.000000 0.026951 0.000000
1.000000 0.000000 0.000000
1.000000 0.000000 0.000000
1.000000 0.000000 0.000000
0.000000 0.433140 0.000000
0.000000 0.431800 0.000000
0.154001 0.430177 0.000000
0.264166 0.427779 0.000000
0.316371 0.425925 0.000000
0.363843 0.423806 0.000000
0.408051 0.421414 0.000000
0.449817 0.418741 0.000000
0.489640 0.415779 0.000000
0.527845 0.412518 0.000000
0.564645 0.408950 0.000000
0.600187 0.405064 0.000000
0.634571 0.400850 0.000000
0.667864 0.396297 0.000000
0.700112 0.391394 0.000000
0.731342 0.386126 0.000000
0.761567 0.380479 0.000000
0.790792 0.374436 0.000000
0.819012 0.367977 0.000000
0.846216 0.361080 0.000000
0.872386 0.353717 0.000000
0.897499 0.345858 0.000000
0.921527 0.337465 0.000000
0.944439 0.328491 0.000000
0.966199 0.318880 0.000000
0.986764 0.308560 0.000000
1.000000 0.297441 0.000000
1.000000 0.285404 0.000000
1.000000 0.272293 0.000000
1.000000 0.257892 0.000000
1.000000 0.241898 0.000000
1.000000 0.225903 0.000000
1.000000 0.208922 0.000000
0.000000 0.468960 0.000000
0.000000 0.467762 0.000000
0.135715 0.466310 0.000000
0.253552 0.464189 0.000000
0.307700 0.462558 0.000000
0.356454 0.460699 0.000000
0.401584 0.458608 0.000000
0.444048 0.456280 0.000000
0.484421 0.453709 0.000000
0.523069 0.450892 0.000000
0.560234 0.447821 0.000000
0.596081 0.444494 0.000000
0.630723 0.440903 0.000000
0.664238 0.437045 0.000000
0.696675 0.432914 0.000000
0.728069 0.428505 0.000000
0.758437 0.423811 0.000000
0.787786 0.418827 0.000000
0.816113 0.413546 0.000000
0.843410 0.407960 0.000000
0.869660 0.402062 0.000000
0.894842 0.395842 0.000000
0.918928 0.389290 0.000000
0.941888 0.382392 0.000000
0.963685 0.375134 0.000000
0.984279 0.367500 0.000000
1.000000 0.359467 0.000000
1.000000 0.351011 0.000000
1.000000 0.342101 0.000000
1.000000 0.332699 0.000000
1.000000 0.322757 0.000000
1.000000 0.313612 0.000000
1.000000 0.304762 0.000000
0.000000 0.503437 0.000000
0.000000 0.502351 0.000000
0.113807 0.501035 0.000000
0.241878 0.499140 0.000000
0.298300 0.497684 0.000000
0.348508 0.496027 0.000000
0.394664 0.494169 0.000000
0.437898 0.492105 0.000000
0.478871 0.489834 0.000000
0.518002 0.487352 0.000000
0.555564 0.484657 0.000000
0.591743 0.481745 0.000000
0.626666 0.478615 0.000000
0.660419 0.475265 0.000000
0.693064 0.471693 0.000000
0.724637 0.467897 0.000000
0.755160 0.463877 0.000000
0.784646 0.459631 0.000000
0.813092 0.455157 0.000000
0.840494 0.450456 0.000000
0.866835 0.445526 0.000000
0.892096 0.440367 0.000000
0.916251 0.434977 0.000000
0.939270 0.429357 0.000000
0.961117 0.423503 0.000000
0.981753 0.417417 0.000000
1.000000 0.411095 0.000000
1.000000 0.404536 0.000000
1.000000 0.397737 0.000000
1.000000 0.390695 0.000000
1.000000 0.383404 0.000000
1.000000 0.376981 0.000000
1.000000 0.371024 0.000000
0.000000 0.536727 0.000000
0.000000 0.535732 0.000000
0.086135 0.534527 0.000000
0.229017 0.532820 0.000000
0.288125 0.531504 0.000000
0.339986 0.530010 0.000000
0.387285 0.528338 0.000000
0.431365 0.526485 0.000000
0.472994 0.524450 0.000000
0.512649 0.522231 0.000000
0.550639 0.519828 0.000000
0.587175 0.517239 0.000000
0.622399 0.514464 0.000000
0.656411 0.511503 0.000000
0.689277 0.508355 0.000000
0.721043 0.505022 0.000000
0.751735 0.501504 0.000000
0.781367 0.497804 0.000000
0.809943 0.493922 0.000000
0.837459 0.489860 0.000000
0.863900 0.485622 0.000000
0.889249 0.481211 0.000000
0.913482 0.476629 0.000000
0.936568 0.471881 0.000000
0.958473 0.466971 0.000000
0.979159 0.461903 0.000000
0.998580 0.456683 0.000000
1.000000 0.451317 0.000000
1.000000 0.445810 0.000000
1.000000 0.440169 0.000000
1.000000 0.434401 0.000000
1.000000 0.429471 0.000000
1.000000 0.425029 0.000000
0.000000 0.568938 0.000000
0.000000 0.568018 0.000000
0.046408 0.566904 0.000000
0.214795 0.565357 0.000000
0.277119 0.564158 0.000000
0.330869 0.562798 0.000000
0.379442 0.561278 0.000000
0.424451 0.559596 0.000000
0.466793 0.557753 0.000000
0.507013 0.555747 0.000000
0.545465 0.553578 0.000000
0.582383 0.551248 0.000000
0.617930 0.548755 0.000000
0.652216 0.546101 0.000000
0.685320 0.543287 0.000000
0.717291 0.540316 0.000000
0.748162 0.537189 0.000000
0.777952 0.533909 0.000000
0.806667 0.530479 0.000000
0.834304 0.526904 0.000000
0.860854 0.523187 0.000000
0.886298 0.519334 0.000000
0.910614 0.515349 0.000000
0.933774 0.511238 0.000000
0.955744 0.507009 0.000000
0.976486 0.502668 0.000000
0.995955 0.498223 0.000000
1.000000 0.493682 0.000000
1.000000 0.489055 0.000000
1.000000 0.484352 0.000000
1.000000 0.479583 0.000000
1.000000 0.475606 0.000000
1.000000 0.472103 0.000000
0.000000 0.600146 0.000000
0.000000 0.599290 0.000000
0.000000 0.598253 0.000000
0.198968 0.596845 0.000000
0.265214 0.595744 0.000000
0.321136 0.594496 0.000000
0.371131 0.593102 0.000000
0.417159 0.591563 0.000000
0.460274 0.589878 0.000000
0.501104 0.588047 0.000000
0.540049 0.586072 0.000000
0.577375 0.583952 0.000000
0.613265 0.581689 0.000000
0.647844 0.579285 0.000000
0.681198 0.576741 0.000000
0.713387 0.574061 0.000000
0.744449 0.571246 0.000000
0.774405 0.568301 0.000000
0.803267 0.565230 0.000000
0.831034 0.562038 0.000000
0.857698 0.558729 0.000000
0.883243 0.555308 0.000000
0.907650 0.551783 0.000000
0.930889 0.548161 0.000000
0.952928 0.544448 0.000000
0.973730 0.540653 0.000000
0.993252 0.536785 0.000000
1.000000 0.532853 0.000000
1.000000 0.528867 0.000000
1.000000 0.524840 0.000000
1.000000 0.520782 0.000000
1.000000 0.517470 0.000000
1.000000 0.514607 0.000000
0.000000 0.630406 0.000000
0.000000 0.629603 0.000000
0.000000 0.628632 0.000000
0.181180 0.627346 0.000000
0.252322 0.626329 0.000000
0.310759 0.625177 0.000000
0.362346 0.623890 0.000000
0.409493 0.622471 0.000000
0.453446 0.620919 0.000000
0.494930 0.619235 0.000000
0.534401 0.617421 0.000000
0.572162 0.615477 0.000000
0.608415 0.613406 0.000000
0.643302 0.611208 0.000000
0.676922 0.608887 0.000000
0.709340 0.606446 0.000000
0.740601 0.603888 0.000000
0.770733 0.601216 0.000000
0.799749 0.598437 0.000000
0.827653 0.595553 0.000000
0.854438 0.592572 0.000000
0.880090 0.589499 0.000000
0.904591 0.586340 0.000000
0.927914 0.583103 0.000000
0.950028 0.579797 0.000000
0.970895 0.576428 0.000000
0.990473 0.573008 0.000000
1.000000 0.569545 0.000000
1.000000 0.566049 0.000000
1.000000 0.562534 0.000000
1.000000 0.559009 0.000000
1.000000 0.556188 0.000000
1.000000 0.553792 0.000000
0.000000 0.659753 0.000000
0.000000 0.658997 0.000000
0.000000 0.658082 0.000000
0.160872 0.656906 0.000000
0.238328 0.655962 0.000000
0.299710 0.654891 0.000000
0.353084 0.653696 0.000000
0.401459 0.652380 0.000000
0.446318 0.650942 0.000000
0.488503 0.649383 0.000000
0.528535 0.647706 0.000000
0.566755 0.645911 0.000000
0.603392 0.644001 0.000000
0.638604 0.641978 0.000000
0.672501 0.639844 0.000000
0.705160 0.637603 0.000000
0.736631 0.635258 0.000000
0.766946 0.632814 0.000000
0.796124 0.630276 0.000000
0.824170 0.627648 0.000000
0.851081 0.624936 0.000000
0.876845 0.622147 0.000000
0.901446 0.619287 0.000000
0.924856 0.616364 0.000000
0.947048 0.613386 0.000000
0.967983 0.610361 0.000000
0.987621 0.607298 0.000000
1.000000 0.604208 0.000000
1.000000 0.601100 0.000000
1.000000 0.597986 0.000000
1.000000 0.594878 0.000000
1.000000 0.592435 0.000000
1.000000 0.590395 0.000000
0.000000 0.688213 0.000000
0.000000 0.687497 0.000000
0.000000 0.686630 0.000000
0.137080 0.685554 0.000000
0.223077 0.684673 0.000000
0.287951 0.683674 0.000000
0.343341 0.682559 0.000000
0.393064 0.681331 0.000000
0.438902 0.679991 0.000000
0.481837 0.678541 0.000000
0.522464 0.676981 0.000000
0.561169 0.675314 0.000000
0.598209 0.673542 0.000000
0.633761 0.671667 0.000000
0.667949 0.669692 0.000000
0.700858 0.667621 0.000000
0.732547 0.665458 0.000000
0.763054 0.663206 0.000000
0.792399 0.660871 0.000000
0.820594 0.658458 0.000000
0.847636 0.655972 0.000000
0.873517 0.653420 0.000000
0.898220 0.650809 0.000000
0.921723 0.648146 0.000000
0.943995 0.645439 0.000000
0.965002 0.642696 0.000000
0.984702 0.639926 0.000000
1.000000 0.637140 0.000000
1.000000 0.634346 0.000000
1.000000 0.631557 0.000000
1.000000 0.628783 0.000000
1.000000 0.626642 0.000000
1.000000 0.624882 0.000000
0.000000 0.715800 0.000000
0.000000 0.715118 0.000000
0.000000 0.714294 0.000000
0.107890 0.713309 0.000000
0.206356 0.712484 0.000000
0.275438 0.711547 0.000000
0.333112 0.710503 0.000000
0.384317 0.709352 0.000000
0.431213 0.708098 0.000000
0.474948 0.706741 0.000000
0.516205 0.705284 0.000000
0.555420 0.703728 0.000000
0.592881 0.702075 0.000000
0.628789 0.700328 0.000000
0.663279 0.698491 0.000000
0.696450 0.696566 0.000000
0.728365 0.694558 0.000000
0.759069 0.692470 0.000000
0.788588 0.690309 0.000000
0.816936 0.688079 0.000000
0.844114 0.685785 0.000000
0.870115 0.683434 0.000000
0.894925 0.681033 0.000000
0.918522 0.678589 0.000000
0.940878 0.676109 0.000000
0.961959 0.673603 0.000000
0.981724 0.671078 0.000000
1.000000 0.668544 0.000000
1.000000 0.666011 0.000000
1.000000 0.663489 0.000000
1.000000 0.660990 0.000000
1.000000 0.659096 0.000000
1.000000 0.657561 0.000000
0.000000 0.742519 0.000000
0.000000 0.741868 0.000000
0.000000 0.741081 0.000000
0.068254 0.740181 0.000000
0.187853 0.739406 0.000000
0.262116 0.738525 0.000000
0.322395 0.737542 0.000000
0.375231 0.736460 0.000000
0.423268 0.735281 0.000000
0.467854 0.734006 0.000000
0.509776 0.732638 0.000000
0.549526 0.731179 0.000000
0.587428 0.729630 0.000000
0.623704 0.727995 0.000000
0.658509 0.726277 0.000000
0.691948 0.724479 0.000000
0.724097 0.722606 0.000000
0.755005 0.720661 0.000000
0.784703 0.718650 0.000000
0.813209 0.716577 0.000000
0.840526 0.714448 0.000000
0.866651 0.712270 0.000000
0.891571 0.710049 0.000000
0.915265 0.707792 0.000000
0.937707 0.705506 0.000000
0.958863 0.703201 0.000000
0.978695 0.700883 0.000000
0.997157 0.698563 0.000000
1.000000 0.696249 0.000000
1.000000 0.693952 0.000000
1.000000 0.691683 0.000000
1.000000 0.689993 0.000000
1.000000 0.688645 0.000000
0.000000 0.768373 0.000000
0.000000 0.767748 0.000000
0.000000 0.766993 0.000000
0.003502 0.766174 0.000000
0.167086 0.765443 0.000000
0.247913 0.764611 0.000000
0.311186 0.763683 0.000000
0.365821 0.762662 0.000000
0.415087 0.761549 0.000000
0.460578 0.760347 0.000000
0.503199 0.759058 0.000000
0.543507 0.757684 0.000000
0.581867 0.756227 0.000000
0.618526 0.754690 0.000000
0.653654 0.753077 0.000000
0.687371 0.751391 0.000000
0.719760 0.749635 0.000000
0.750878 0.747814 0.000000
0.780759 0.745934 0.000000
0.809426 0.743998 0.000000
0.836886 0.742013 0.000000
0.863138 0.739985 0.000000
0.888169 0.737919 0.000000
0.911963 0.735824 0.000000
0.934493 0.733706 0.000000
0.955727 0.731573 0.000000
0.975627 0.729433 0.000000
0.994148 0.727296 0.000000
1.000000 0.725170 0.000000
1.000000 0.723065 0.000000
1.000000 0.720991 0.000000
1.000000 0.719474 0.000000
1.000000 0.718282 0.000000
0.000000 0.793355 0.000000
0.000000 0.792754 0.000000
0.000000 0.792028 0.000000
0.000000 0.791284 0.000000
0.143245 0.790593 0.000000
0.232737 0.789805 0.000000
0.299482 0.788927 0.000000
0.356105 0.787960 0.000000
0.406693 0.786906 0.000000
0.453144 0.785769 0.000000
0.496498 0.784550 0.000000
0.537388 0.783251 0.000000
0.576222 0.781876 0.000000
0.613275 0.780426 0.000000
0.648736 0.778905 0.000000
0.682737 0.777317 0.000000
0.715372 0.775665 0.000000
0.746703 0.773954 0.000000
0.776771 0.772188 0.000000
0.805603 0.770373 0.000000
0.833208 0.768514 0.000000
0.859588 0.766617 0.000000
0.884734 0.764687 0.000000
0.908628 0.762733 0.000000
0.931247 0.760761 0.000000
0.952560 0.758778 0.000000
0.972529 0.756793 0.000000
0.991110 0.754814 0.000000
1.000000 0.752850 0.000000
1.000000 0.750910 0.000000
1.000000 0.749004 0.000000
1.000000 0.747637 0.000000
1.000000 0.746578 0.000000
0.000000 0.817457 0.000000
0.000000 0.816876 0.000000
0.000000 0.816176 0.000000
0.000000 0.815504 0.000000
0.114773 0.814849 0.000000
0.216467 0.814102 0.000000
0.287284 0.813267 0.000000
0.346105 0.812349 0.000000
0.398116 0.811349 0.000000
0.445579 0.810269 0.000000
0.489700 0.809113 0.000000
0.531193 0.807882 0.000000
0.570516 0.806578 0.000000
0.607973 0.805206 0.000000
0.643774 0.803768 0.000000
0.678066 0.802267 0.000000
0.710951 0.800707 0.000000
0.742499 0.799093 0.000000
0.772757 0.797429 0.000000
0.801755 0.795720 0.000000
0.829508 0.793972 0.000000
0.856017 0.792190 0.000000
0.881278 0.790381 0.000000
0.905274 0.788551 0.000000
0.927983 0.786707 0.000000
0.949376 0.784856 0.000000
0.969414 0.783006 0.000000
0.988057 0.781165 0.000000
1.000000 0.779343 0.000000
1.000000 0.777547 0.000000
1.000000 0.775787 0.000000
1.000000 0.774549 0.000000
1.000000 0.773605 0.000000
0.000000 0.840666 0.000000
0.000000 0.840103 0.000000
0.000000 0.839425 0.000000
0.000000 0.838824 0.000000
0.077880 0.838201 0.000000
0.198931 0.837490 0.000000
0.274589 0.836695 0.000000
0.335848 0.835821 0.000000
0.389386 0.834868 0.000000
0.437918 0.833841 0.000000
0.482835 0.832741 0.000000
0.524951 0.831570 0.000000
0.564775 0.830332 0.000000
0.602645 0.829028 0.000000
0.638793 0.827663 0.000000
0.673379 0.826240 0.000000
0.706517 0.824763 0.000000
0.738285 0.823235 0.000000
0.768735 0.821662 0.000000
0.797901 0.820048 0.000000
0.825801 0.818399 0.000000
0.852442 0.816720 0.000000
0.877818 0.815017 0.000000
0.901917 0.813297 0.000000
0.924716 0.811566 0.000000
0.946188 0.809831 0.000000
0.966297 0.808101 0.000000
0.985000 0.806383 0.000000
1.000000 0.804685 0.000000
1.000000 0.803015 0.000000
1.000000 0.801384 0.000000
1.000000 0.800260 0.000000
1.000000 0.799416 0.000000
0.000000 0.862965 0.000000
0.000000 0.862418 0.000000
0.000000 0.861760 0.000000
0.000000 0.861226 0.000000
0.019266 0.860634 0.000000
0.179882 0.859955 0.000000
0.261401 0.859197 0.000000
0.325370 0.858362 0.000000
0.380543 0.857452 0.000000
0.430195 0.856472 0.000000
0.475939 0.855422 0.000000
0.518693 0.854306 0.000000
0.559029 0.853126 0.000000
0.597319 0.851885 0.000000
0.633817 0.850586 0.000000
0.668701 0.849233 0.000000
0.702094 0.847830 0.000000
0.734081 0.846380 0.000000
0.764724 0.844888 0.000000
0.794058 0.843359 0.000000
0.822107 0.841798 0.000000
0.848878 0.840210 0.000000
0.874370 0.838603 0.000000
0.898570 0.836980 0.000000
0.921460 0.835350 0.000000
0.943011 0.833719 0.000000
0.963190 0.832095 0.000000
0.981953 0.830485 0.000000
0.999254 0.828898 0.000000
1.000000 0.827341 0.000000
1.000000 0.825823 0.000000
1.000000 0.824799 0.000000
1.000000 0.824043 0.000000
0.000000 0.884334 0.000000
0.000000 0.883801 0.000000
0.000000 0.883168 0.000000
0.000000 0.882693 0.000000
0.000000 0.882128 0.000000
0.158938 0.881480 0.000000
0.247725 0.880754 0.000000
0.314711 0.879955 0.000000
0.371631 0.879085 0.000000
0.422452 0.878147 0.000000
0.469048 0.877143 0.000000
0.512455 0.876076 0.000000
0.553309 0.874949 0.000000
0.592023 0.873764 0.000000
0.628874 0.872525 0.000000
0.664056 0.871235 0.000000
0.697703 0.869898 0.000000
0.729911 0.868518 0.000000
0.760745 0.867099 0.000000
0.790247 0.865646 0.000000
0.818443 0.864164 0.000000
0.845344 0.862659 0.000000
0.870951 0.861137 0.000000
0.895253 0.859602 0.000000
0.918232 0.858063 0.000000
0.939861 0.856525 0.000000
0.960109 0.854995 0.000000
0.978932 0.853482 0.000000
0.996284 0.851993 0.000000
1.000000 0.850537 0.000000
1.000000 0.849120 0.000000
1.000000 0.848186 0.000000
1.000000 0.847509 0.000000
0.000000 0.904750 0.000000
0.000000 0.904229 0.000000
0.000000 0.903655 0.000000
0.000000 0.903203 0.000000
0.000000 0.902663 0.000000
0.135464 0.902042 0.000000
0.233570 0.901346 0.000000
0.303922 0.900580 0.000000
0.362701 0.899745 0.000000
0.414738 0.898846 0.000000
0.462205 0.897884 0.000000
0.506274 0.896861 0.000000
0.547651 0.895782 0.000000
0.586789 0.894648 0.000000
0.623992 0.893463 0.000000
0.659471 0.892230 0.000000
0.693372 0.890953 0.000000
0.725799 0.889636 0.000000
0.756822 0.888283 0.000000
0.786490 0.886899 0.000000
0.814831 0.885489 0.000000
0.841860 0.884058 0.000000
0.867580 0.882612 0.000000
0.891981 0.881157 0.000000
0.915048 0.879699 0.000000
0.936755 0.878245 0.000000
0.957069 0.876801 0.000000
0.975951 0.875375 0.000000
0.993354 0.873974 0.000000
1.000000 0.872607 0.000000
1.000000 0.871282 0.000000
1.000000 0.870429 0.000000
1.000000 0.869821 0.000000
0.000000 0.924187 0.000000
0.000000 0.923677 0.000000
0.000000 0.923162 0.000000
0.000000 0.922731 0.000000
0.000000 0.922213 0.000000
0.108259 0.921617 0.000000
0.218953 0.920949 0.000000
0.293066 0.920212 0.000000
0.353813 0.919410 0.000000
0.407104 0.918546 0.000000
0.455457 0.917622 0.000000
0.500192 0.916640 0.000000
0.542091 0.915604 0.000000
0.581652 0.914517 0.000000
0.619204 0.913380 0.000000
0.654976 0.912199 0.000000
0.689127 0.910977 0.000000
0.721768 0.909717 0.000000
0.752978 0.908424 0.000000
0.782808 0.907102 0.000000
0.811292 0.905757 0.000000
0.838446 0.904394 0.000000
0.864276 0.903017 0.000000
0.888774 0.901634 0.000000
0.911927 0.900249 0.000000
0.933709 0.898870 0.000000
0.954089 0.897503 0.000000
0.973028 0.896156 0.000000
0.990479 0.894836 0.000000
1.000000 0.893550 0.000000
1.000000 0.892306 0.000000
1.000000 0.891527 0.000000
1.000000 0.890982 0.000000
0.000000 0.942616 0.000000
0.000000 0.942115 0.000000
0.000000 0.941660 0.000000
0.000000 0.941247 0.000000
0.000000 0.940751 0.000000
0.074522 0.940178 0.000000
0.203902 0.939535 0.000000
0.282221 0.938825 0.000000
0.345038 0.938053 0.000000
0.399611 0.937221 0.000000
0.448855 0.936331 0.000000
0.494255 0.935387 0.000000
0.536671 0.934390 0.000000
0.576648 0.933345 0.000000
0.614542 0.932253 0.000000
0.650601 0.931119 0.000000
0.684996 0.929946 0.000000
0.717846 0.928738 0.000000
0.749237 0.927500 0.000000
0.779225 0.926235 0.000000
0.807847 0.924949 0.000000
0.835123 0.923646 0.000000
0.861059 0.922333 0.000000
0.885652 0.921014 0.000000
0.908887 0.919696 0.000000
0.930741 0.918386 0.000000
0.951185 0.917089 0.000000
0.970178 0.915813 0.000000
0.987676 0.914565 0.000000
1.000000 0.913353 0.000000
1.000000 0.912184 0.000000
1.000000 0.911471 0.000000
1.000000 0.910984 0.000000
0.000000 0.960006 0.000000
0.000000 0.959513 0.000000
0.000000 0.959117 0.000000
0.000000 0.958722 0.000000
0.000000 0.958245 0.000000
0.025248 0.957693 0.000000
0.188458 0.957073 0.000000
0.271479 0.956389 0.000000
0.336454 0.955644 0.000000
0.392326 0.954841 0.000000
0.442458 0.953982 0.000000
0.488511 0.953072 0.000000
0.531434 0.952111 0.000000
0.571816 0.951104 0.000000
0.610043 0.950053 0.000000
0.646380 0.948962 0.000000
0.681010 0.947835 0.000000
0.714062 0.946674 0.000000
0.745627 0.945485 0.000000
0.775767 0.944272 0.000000
0.804522 0.943039 0.000000
0.831914 0.941792 0.000000
0.857952 0.940537 0.000000
0.882635 0.939277 0.000000
0.905949 0.938020 0.000000
0.927872 0.936772 0.000000
