public/luts/经典胶片/kodak-ektar-100.cube
TITLE "Kodak Ektar 100"
LUT_3D_SIZE 9
DOMAIN_MIN 0.000000 0.000000 0.000000
DOMAIN_MAX 1.000000 1.000000 1.000000
0.000000 0.000000 0.000000
0.360088 0.000000 0.000000
0.516487 0.000000 0.000000
0.653796 0.000000 0.000000
0.776308 0.000000 0.000000
0.884089 0.000000 0.000000
0.975619 0.000000 0.000000
1.000000 0.000000 0.000000
1.000000 0.000000 0.000000
0.000000 0.356463 0.000000
0.331667 0.346759 0.000000
0.499096 0.332323 0.000000
0.641655 0.309798 0.000000
0.767452 0.276178 0.000000
0.878233 0.205624 0.000000
0.972724 0.000000 0.000000
1.000000 0.000000 0.000000
1.000000 0.000000 0.000000
0.000000 0.503437 0.000000
0.298300 0.497684 0.000000
0.478871 0.489834 0.000000
0.626666 0.478615 0.000000
0.755160 0.463877 0.000000
0.866835 0.445526 0.000000
0.961117 0.423503 0.000000
1.000000 0.397737 0.000000
1.000000 0.371024 0.000000
0.000000 0.630406 0.000000
0.252322 0.626329 0.000000
0.453446 0.620919 0.000000
0.608415 0.613406 0.000000
0.740601 0.603888 0.000000
0.854438 0.592572 0.000000
0.950028 0.579797 0.000000
1.000000 0.566049 0.000000
1.000000 0.553792 0.000000
0.000000 0.742519 0.000000
0.187853 0.739406 0.000000
0.423268 0.735281 0.000000
0.587428 0.729630 0.000000
0.724097 0.722606 0.000000
0.840526 0.714448 0.000000
0.937707 0.705506 0.000000
1.000000 0.696249 0.000000
1.000000 0.688645 0.000000
0.000000 0.840666 0.000000
0.077880 0.838201 0.000000
0.389386 0.834868 0.000000
0.564775 0.830332 0.000000
0.706517 0.824763 0.000000
0.825801 0.818399 0.000000
0.924716 0.811566 0.000000
1.000000 0.804685 0.000000
1.000000 0.799416 0.000000
0.000000 0.924187 0.000000
0.000000 0.922213 0.000000
0.353813 0.919410 0.000000
0.542091 0.915604 0.000000
0.689127 0.910977 0.000000
0.811292 0.905757 0.000000
0.911927 0.900249 0.000000
0.990479 0.894836 0.000000
1.000000 0.890982 0.000000
0.000000 0.991521 0.000000
0.000000 0.989960 0.000000
0.320241 0.987529 0.000000
0.521700 0.984226 0.000000
0.673602 0.980241 0.000000
0.798328 0.975800 0.000000
0.900460 0.971188 0.000000
0.979878 0.966764 0.000000
1.000000 0.963871 0.000000
0.000000 1.000000 0.000000
0.000000 1.000000 0.000000
0.303814 1.000000 0.000000
0.511221 1.000000 0.000000
0.665192 1.000000 0.000000
0.790967 1.000000 0.000000
0.893653 1.000000 0.000000
0.973305 1.000000 0.000000
1.000000 1.000000 0.000000
0.000000 0.000000 0.405141
0.349352 0.000000 0.392838
0.511620 0.000000 0.368010
0.651097 0.000000 0.305800
0.775024 0.000000 0.050260
0.883421 0.000000 0.000000
0.975184 0.000000 0.000000
1.000000 0.000000 0.000000
1.000000 0.000000 0.000000
0.000000 0.347671 0.380523
0.320840 0.337993 0.367456
0.494639 0.323115 0.341201
0.639357 0.300260 0.273548
0.766543 0.266767 0.000000
0.878217 0.180687 0.000000
0.972818 0.000000 0.000000
1.000000 0.000000 0.000000
1.000000 0.000000 0.000000
0.000000 0.499280 0.350115
0.285566 0.493568 0.335349
0.473916 0.485719 0.305391
0.624096 0.474799 0.223975
0.754052 0.460972 0.000000
0.866339 0.442928 0.000000
0.960843 0.420631 0.000000
1.000000 0.394485 0.000000
1.000000 0.367235 0.000000
0.000000 0.627910 0.308250
0.236604 0.623720 0.290611
0.448032 0.618350 0.254255
0.605667 0.611114 0.141003
0.739400 0.602325 0.000000
0.853876 0.591315 0.000000
0.949697 0.578474 0.000000
1.000000 0.564651 0.000000
1.000000 0.552298 0.000000
0.000000 0.740735 0.250230
0.165464 0.737529 0.227640
0.417306 0.733450 0.176724
0.584506 0.728035 0.000000
0.722822 0.721609 0.000000
0.839920 0.713711 0.000000
0.937341 0.704741 0.000000
1.000000 0.695453 0.000000
1.000000 0.687807 0.000000
0.000000 0.839302 0.164138
0.011596 0.836751 0.126430
0.382735 0.833464 0.000000
0.561668 0.829133 0.000000
0.705173 0.824075 0.000000
0.825157 0.817935 0.000000
0.924322 0.811085 0.000000
1.000000 0.804187 0.000000
1.000000 0.798892 0.000000
0.000000 0.923098 0.000000
0.000000 0.921039 0.000000
0.346306 0.918281 0.000000
0.538791 0.914659 0.000000
0.687715 0.910482 0.000000
0.810613 0.905462 0.000000
0.911508 0.899942 0.000000
0.990241 0.894517 0.000000
1.000000 0.890645 0.000000
0.000000 0.990625 0.000000
0.000000 0.988976 0.000000
0.311753 0.986588 0.000000
0.518214 0.983455 0.000000
0.672129 0.979881 0.000000
0.797618 0.975622 0.000000
0.900020 0.971001 0.000000
0.979623 0.966569 0.000000
1.000000 0.963659 0.000000
0.000000 1.000000 0.000000
0.000000 1.000000 0.000000
0.294686 1.000000 0.000000
0.507581 1.000000 0.000000
0.663645 1.000000 0.000000
0.790206 1.000000 0.000000
0.893171 1.000000 0.000000
0.973015 1.000000 0.000000
1.000000 1.000000 0.000000
0.000000 0.000000 0.560260
0.324245 0.000000 0.554269
0.501476 0.000000 0.542871
0.645002 0.000000 0.524781
0.770514 0.000000 0.497917
0.880105 0.000000 0.458685
0.972911 0.000000 0.398679
1.000000 0.000000 0.286071
1.000000 0.000000 0.000000
0.000000 0.328707 0.545611
0.295939 0.319159 0.539581
0.485756 0.302197 0.528311
0.634386 0.275608 0.510576
0.763854 0.212090 0.485890
0.876500 0.069070 0.450063
0.971844 0.000000 0.395129
1.000000 0.000000 0.286064
1.000000 0.000000 0.000000
0.000000 0.491384 0.526137
0.255390 0.486115 0.519659
0.463789 0.477765 0.507617
0.618391 0.466151 0.488456
0.749955 0.450986 0.459851
0.863427 0.432151 0.417587
0.958965 0.409597 0.351200
1.000000 0.383382 0.214228
1.000000 0.357195 0.000000
0.000000 0.623232 0.501720
0.197729 0.619409 0.494664
0.436870 0.613760 0.481787
0.599527 0.606153 0.461104
0.735027 0.596613 0.429903
0.850759 0.585354 0.382988
0.947651 0.572763 0.306441
1.000000 0.559463 0.114168
1.000000 0.548449 0.000000
0.000000 0.737756 0.472400
0.101151 0.734646 0.464542
0.404935 0.730372 0.450599
0.577954 0.724696 0.427928
0.718218 0.717721 0.393239
0.836650 0.709694 0.339703
0.935183 0.701000 0.246357
1.000000 0.692206 0.000000
1.000000 0.685662 0.000000
0.000000 0.837392 0.438865
0.000000 0.834673 0.429900
0.368841 0.831236 0.414561
0.554684 0.826698 0.389213
0.700346 0.821195 0.349605
0.821749 0.814970 0.285805
0.922070 0.808377 0.156831
1.000000 0.801917 0.000000
1.000000 0.797554 0.000000
0.000000 0.921798 0.401990
0.000000 0.919473 0.392053
0.330496 0.916594 0.374899
0.531355 0.912797 0.345929
0.682669 0.908239 0.299185
0.807074 0.903154 0.217744
0.909169 0.897870 0.000000
0.988876 0.892838 0.000000
1.000000 0.889783 0.000000
0.000000 0.989688 0.364193
0.000000 0.987765 0.353529
0.293704 0.985277 0.334101
0.510342 0.981988 0.300339
0.666880 0.978072 0.243037
0.793959 0.973760 0.123849
0.897603 0.969358 0.000000
0.978203 0.965287 0.000000
1.000000 0.963119 0.000000
0.000000 1.000000 0.337661
0.000000 1.000000 0.326836
0.275111 1.000000 0.305483
0.499333 1.000000 0.267286
0.658180 1.000000 0.198617
0.786395 1.000000 0.000000
0.890636 1.000000 0.000000
0.971497 1.000000 0.000000
1.000000 1.000000 0.000000
0.000000 0.000000 0.691893
0.238594 0.000000 0.689026
0.483820 0.000000 0.681042
0.635241 0.000000 0.670105
0.764155 0.000000 0.655078
0.875615 0.000000 0.635366
0.969576 0.000000 0.610177
1.000000 0.000000 0.578221
1.000000 0.000000 0.538805
0.000000 0.276556 0.683672
0.210946 0.265400 0.681027
0.472881 0.232644 0.673733
0.628969 0.175653 0.664040
0.760889 0.024760 0.650914
0.874695 0.000000 0.633830
0.969632 0.000000 0.610172
1.000000 0.000000 0.578218
1.000000 0.000000 0.538805
0.000000 0.478042 0.667457
0.139875 0.474343 0.664397
0.446284 0.464511 0.656354
0.609446 0.452084 0.645309
0.744434 0.435869 0.630187
0.859726 0.415577 0.610408
0.956376 0.390930 0.585196
1.000000 0.361512 0.553276
1.000000 0.329698 0.514064
0.000000 0.615724 0.649320
0.000000 0.613015 0.645928
0.417396 0.606556 0.637648
0.589812 0.598623 0.626059
0.729034 0.588724 0.610116
0.846702 0.577018 0.589154
0.944755 0.563840 0.562248
1.000000 0.549694 0.527856
1.000000 0.537028 0.484976
0.000000 0.732814 0.628352
0.000000 0.730482 0.624487
0.383154 0.725731 0.616010
0.567535 0.719856 0.603831
0.711857 0.712679 0.586999
0.832347 0.704409 0.564757
0.932097 0.695397 0.536025
1.000000 0.686126 0.498958
1.000000 0.678531 0.452085
0.000000 0.833882 0.605345
0.000000 0.831694 0.600867
0.344087 0.827999 0.592201
0.543533 0.823316 0.579352
0.693640 0.817672 0.561501
0.817231 0.811279 0.537779
0.918827 0.804464 0.506903
0.998256 0.797660 0.466615
1.000000 0.792485 0.414748
0.000000 0.919380 0.581643
0.000000 0.917323 0.576603
0.301863 0.914243 0.567566
0.519442 0.910330 0.553979
0.675630 0.905660 0.534986
0.802357 0.900444 0.509584
0.905786 0.894984 0.476218
0.986294 0.889673 0.432067
1.000000 0.885936 0.373863
0.000000 0.988210 0.559204
0.000000 0.986188 0.553506
0.260288 0.983538 0.544106
0.497692 0.980151 0.529761
0.659532 0.976141 0.509575
0.789061 0.971717 0.482380
0.894092 0.967166 0.446292
0.975519 0.962853 0.397736
1.000000 0.960080 0.331755
0.000000 1.000000 0.544438
0.000000 1.000000 0.538287
0.238270 1.000000 0.528647
0.486021 1.000000 0.513710
0.650470 1.000000 0.492550
0.781241 1.000000 0.463852
0.886920 1.000000 0.425414
0.968636 1.000000 0.372903
1.000000 1.000000 0.299380
0.000000 0.000000 0.806685
0.000000 0.000000 0.805959
0.455583 0.000000 0.799290
0.620785 0.000000 0.791463
0.755075 0.000000 0.781218
0.869420 0.000000 0.768379
0.965190 0.000000 0.752866
1.000000 0.000000 0.734609
1.000000 0.000000 0.714632
0.000000 0.104766 0.804754
0.000000 0.090335 0.804242
0.453632 0.000000 0.798091
0.620686 0.000000 0.791215
0.755212 0.000000 0.781212
0.869508 0.000000 0.768375
0.965247 0.000000 0.752862
1.000000 0.000000 0.734607
1.000000 0.000000 0.714632
0.000000 0.457506 0.788312
0.000000 0.456627 0.787639
0.418323 0.444188 0.780918
0.596388 0.430401 0.773212
0.736739 0.412465 0.763200
0.854815 0.389784 0.750750
0.953197 0.361696 0.735835
1.000000 0.327085 0.718472
1.000000 0.287112 0.699849
0.000000 0.604869 0.773321
0.000000 0.604422 0.772586
0.385829 0.596253 0.765599
0.575492 0.587832 0.757588
0.720575 0.577447 0.747124
0.841211 0.565175 0.734049
0.941074 0.551316 0.718292
1.000000 0.536347 0.699803
1.000000 0.522640 0.679709
0.000000 0.725885 0.756458
0.000000 0.725408 0.755487
0.347267 0.719324 0.748380
0.552104 0.713161 0.740085
0.702838 0.705732 0.729207
0.826485 0.697192 0.715571
0.928131 0.687873 0.699085
1.000000 0.678248 0.679662
1.000000 0.670182 0.658446
0.000000 0.829077 0.738316
0.000000 0.828476 0.737012
0.302325 0.823660 0.729829
0.526950 0.818770 0.721241
0.684103 0.812958 0.709932
0.811053 0.806393 0.695713
0.914634 0.799387 0.678470
0.995392 0.792366 0.658083
1.000000 0.786883 0.635721
0.000000 0.915910 0.719979
0.000000 0.915123 0.718215
0.251729 0.911190 0.711030
0.501653 0.907113 0.702144
0.665595 0.902314 0.690389
0.795889 0.896970 0.675566
0.901390 0.891371 0.657534
0.983271 0.885901 0.636136
1.000000 0.881926 0.612573
0.000000 0.985662 0.702944
0.000000 0.984627 0.700569
0.198314 0.981370 0.693497
0.478728 0.977846 0.684331
0.649035 0.973730 0.672146
0.782329 0.969201 0.656732
0.889514 0.964537 0.637921
0.972356 0.960094 0.615518
1.000000 0.957121 0.590757
0.000000 1.000000 0.691815
0.000000 1.000000 0.688658
0.166581 1.000000 0.681879
0.465983 1.000000 0.672485
0.639418 1.000000 0.659923
0.774122 1.000000 0.643972
0.882035 1.000000 0.624439
0.965209 1.000000 0.601081
1.000000 1.000000 0.575150
0.000000 0.000000 0.906388
0.000000 0.000000 0.905918
0.410510 0.000000 0.901320
0.600451 0.000000 0.895124
0.742804 0.000000 0.887419
0.861260 0.000000 0.878093
0.959563 0.000000 0.867218
1.000000 0.000000 0.854951
1.000000 0.000000 0.842330
0.000000 0.000000 0.906388
0.000000 0.000000 0.905918
0.411137 0.000000 0.901310
0.600701 0.000000 0.895118
0.742947 0.000000 0.887414
0.861350 0.000000 0.878089
0.959621 0.000000 0.867215
1.000000 0.000000 0.854949
1.000000 0.000000 0.842330
0.000000 0.426679 0.892538
0.000000 0.425631 0.892127
0.373511 0.413723 0.887576
0.578322 0.397485 0.881589
0.726618 0.376447 0.874235
0.848620 0.349280 0.865444
0.949415 0.314288 0.855349
1.000000 0.268038 0.844193
1.000000 0.205589 0.833178
0.000000 0.590015 0.879216
0.000000 0.589567 0.878773
0.333807 0.582310 0.874018
0.555394 0.573127 0.867806
0.709248 0.562047 0.860116
0.834091 0.548982 0.850859
0.936474 0.534177 0.840135
1.000000 0.518078 0.828128
1.000000 0.502954 0.815960
0.000000 0.716728 0.864691
0.000000 0.716472 0.864225
0.286006 0.710990 0.859261
0.530310 0.704385 0.852876
0.690699 0.696617 0.844931
0.818834 0.687729 0.835337
0.923124 0.678029 0.824185
1.000000 0.667981 0.811654
1.000000 0.659359 0.798886
0.000000 0.822874 0.849293
0.000000 0.822714 0.848808
0.226572 0.818177 0.843600
0.503394 0.812970 0.837053
0.671228 0.806937 0.828863
0.802963 0.800160 0.818947
0.909312 0.792932 0.807393
0.991923 0.785670 0.794374
1.000000 0.779847 0.781070
0.000000 0.911527 0.833897
0.000000 0.911425 0.833393
0.148673 0.907443 0.827908
0.476233 0.903117 0.821207
0.652013 0.898152 0.812779
0.787399 0.892655 0.802546
0.895793 0.886898 0.790596
0.979589 0.881261 0.777100
1.000000 0.877034 0.763278
0.000000 0.982528 0.819722
0.000000 0.982466 0.819200
0.007306 0.978811 0.813410
0.451465 0.975079 0.806574
0.634799 0.970826 0.797924
0.773476 0.966175 0.787394
0.883669 0.961387 0.775071
0.968483 0.956813 0.761121
1.000000 0.953632 0.746813
0.000000 1.000000 0.810230
0.000000 1.000000 0.809685
0.000000 1.000000 0.803570
0.437026 1.000000 0.796617
0.624381 1.000000 0.787750
0.764725 1.000000 0.776917
0.875764 1.000000 0.764196
0.960973 1.000000 0.749750
1.000000 1.000000 0.734881
0.000000 0.000000 0.991000
0.000000 0.000000 0.990691
0.329573 0.000000 0.987861
0.572413 0.000000 0.982485
0.726765 0.000000 0.976303
0.850878 0.000000 0.969078
0.952560 0.000000 0.960916
1.000000 0.000000 0.952030
1.000000 0.000000 0.943318
0.000000 0.000000 0.991000
0.000000 0.000000 0.990691
0.330605 0.000000 0.987849
0.572694 0.000000 0.982479
0.726916 0.000000 0.976298
0.850972 0.000000 0.969074
0.952620 0.000000 0.960914
1.000000 0.000000 0.952029
1.000000 0.000000 0.943318
0.000000 0.378584 0.981080
0.000000 0.377176 0.980837
0.291647 0.366203 0.978108
0.554038 0.344674 0.973009
0.713945 0.316795 0.967269
0.841271 0.278612 0.960706
0.945289 0.223139 0.953508
1.000000 0.092230 0.946438
1.000000 0.000000 0.941164
0.000000 0.570230 0.968439
0.000000 0.569739 0.968162
0.231268 0.564072 0.965257
0.527689 0.553586 0.959949
0.694578 0.541493 0.953883
0.825172 0.527284 0.946854
0.930895 0.511109 0.938993
1.000000 0.493356 0.930540
1.000000 0.476127 0.922453
0.000000 0.705052 0.955281
0.000000 0.704781 0.954988
0.147132 0.700632 0.951921
0.499990 0.693275 0.946495
0.674878 0.685043 0.940242
0.809177 0.675700 0.932966
0.916979 0.665507 0.924796
1.000000 0.654917 0.915966
1.000000 0.645577 0.907452
0.000000 0.815162 0.941536
0.000000 0.814995 0.941229
0.000000 0.811581 0.937975
0.470340 0.805838 0.932453
0.654387 0.799507 0.926035
0.792715 0.792461 0.918544
0.902750 0.784959 0.910109
0.987794 0.777407 0.900966
1.000000 0.771166 0.892117
0.000000 0.906196 0.927905
0.000000 0.906089 0.927586
0.000000 0.903079 0.924115
0.440222 0.898333 0.918512
0.634194 0.893146 0.911940
0.776619 0.887457 0.904247
0.888870 0.881512 0.895564
0.975183 0.875680 0.886130
1.000000 0.871149 0.876979
0.000000 0.978811 0.915420
0.000000 0.978745 0.915089
0.000000 0.975953 0.911372
0.412461 0.971876 0.905707
0.616072 0.967441 0.898999
0.762214 0.962638 0.891122
0.876423 0.957704 0.882211
0.963832 0.952980 0.872508
1.000000 0.949552 0.863085
0.000000 1.000000 0.906757
0.000000 1.000000 0.906409
0.000000 1.000000 0.902413
0.395250 1.000000 0.896691
0.604534 1.000000 0.889833
0.752730 1.000000 0.881742
0.867952 1.000000 0.872555
0.955843 1.000000 0.862513
1.000000 1.000000 0.852718
0.000000 0.000000 1.000000
0.000000 0.000000 1.000000
0.000000 0.000000 1.000000
0.533434 0.000000 1.000000
0.706166 0.000000 1.000000
0.837966 0.000000 1.000000
0.944043 0.000000 1.000000
1.000000 0.000000 1.000000
1.000000 0.000000 1.000000
0.000000 0.000000 1.000000
0.000000 0.000000 1.000000
0.000000 0.000000 1.000000
0.533765 0.000000 1.000000
0.706329 0.000000 1.000000
0.838064 0.000000 1.000000
0.944105 0.000000 1.000000
1.000000 0.000000 1.000000
1.000000 0.000000 1.000000
0.000000 0.288586 1.000000
0.000000 0.285881 1.000000
0.000000 0.274716 1.000000
0.523452 0.215200 1.000000
0.700979 0.111315 1.000000
0.835759 0.000000 1.000000
0.944169 0.000000 1.000000
1.000000 0.000000 1.000000
1.000000 0.000000 1.000000
0.000000 0.544028 1.000000
0.000000 0.543472 1.000000
0.000000 0.542048 1.000000
0.489080 0.527747 1.000000
0.675932 0.514117 1.000000
0.814277 0.498193 1.000000
0.924306 0.479934 1.000000
1.000000 0.459607 1.000000
1.000000 0.439020 1.000000
0.000000 0.690477 1.000000
0.000000 0.690188 1.000000
0.000000 0.689447 1.000000
0.457121 0.679519 1.000000
0.654592 0.670640 1.000000
0.797254 0.660694 1.000000
0.909605 0.649855 1.000000
0.996337 0.638558 0.997990
1.000000 0.628272 0.992038
0.000000 0.805810 1.000000
0.000000 0.805634 1.000000
0.000000 0.804931 1.000000
0.422927 0.797296 1.000000
0.632693 0.790557 1.000000
0.780013 0.783169 0.997493
0.894832 0.775325 0.991011
0.982970 0.767416 0.984261
1.000000 0.760651 0.978061
0.000000 0.899877 1.000000
0.000000 0.899766 1.000000
0.000000 0.898965 1.000000
0.387688 0.892766 0.995992
0.611154 0.887275 0.990540
0.763222 0.881346 0.984425
0.880491 0.875171 0.977764
0.970008 0.869105 0.970807
1.000000 0.864202 0.964397
0.000000 0.974516 0.991484
0.000000 0.974447 0.991280
0.000000 0.973460 0.989966
0.354481 0.968279 0.984269
0.591777 0.963596 0.978721
0.748190 0.958604 0.972475
0.867635 0.953493 0.965654
0.958348 0.948592 0.958511
1.000000 0.944864 0.951918
0.000000 1.000000 0.983164
0.000000 1.000000 0.982946
0.000000 1.000000 0.981149
0.332129 1.000000 0.975653
0.578680 1.000000 0.969990
0.737742 1.000000 0.963574
0.858434 1.000000 0.956533
0.949749 1.000000 0.949123
1.000000 1.000000 0.942241
0.000000 0.000000 1.000000
0.000000 0.000000 1.000000
0.000000 0.000000 1.000000
0.477198 0.000000 1.000000
0.680183 0.000000 1.000000
0.822373 0.000000 1.000000
0.934028 0.000000 1.000000
1.000000 0.000000 1.000000
1.000000 0.000000 1.000000
0.000000 0.000000 1.000000
0.000000 0.000000 1.000000
0.000000 0.000000 1.000000
0.477629 0.000000 1.000000
0.680363 0.000000 1.000000
0.822477 0.000000 1.000000
0.934093 0.000000 1.000000
1.000000 0.000000 1.000000
1.000000 0.000000 1.000000
0.000000 0.000000 1.000000
0.000000 0.000000 1.000000
0.000000 0.000000 1.000000
0.478720 0.000000 1.000000
0.680820 0.000000 1.000000
0.822742 0.000000 1.000000
0.934258 0.000000 1.000000
1.000000 0.000000 1.000000
1.000000 0.000000 1.000000
0.000000 0.509350 1.000000
0.000000 0.508685 1.000000
0.000000 0.506980 1.000000
0.433052 0.493574 1.000000
0.652782 0.477418 1.000000
0.801476 0.458695 1.000000
0.916904 0.436925 1.000000
1.000000 0.412064 1.000000
1.000000 0.385261 1.000000
0.000000 0.672878 1.000000
0.000000 0.672562 1.000000
0.000000 0.671755 1.000000
0.393244 0.663097 1.000000
0.629061 0.653264 1.000000
0.783004 0.642484 1.000000
0.901093 0.630756 1.000000
0.991472 0.618471 1.000000
1.000000 0.606848 1.000000
0.000000 0.794982 1.000000
0.000000 0.794794 1.000000
0.000000 0.794314 1.000000
0.350207 0.787585 1.000000
0.605212 0.780250 1.000000
0.764746 0.772401 1.000000
0.885622 0.764098 1.000000
0.977556 0.755707 1.000000
1.000000 0.748231 1.000000
0.000000 0.892807 1.000000
0.000000 0.892688 1.000000
0.000000 0.892384 1.000000
0.303986 0.886711 1.000000
0.581811 0.880773 1.000000
0.747066 0.874521 1.000000
0.870706 0.868038 1.000000
0.964159 0.861656 1.000000
1.000000 0.856250 1.000000
0.000000 0.969902 1.000000
0.000000 0.969827 1.000000
0.000000 0.969637 1.000000
0.257489 0.964594 1.000000
0.560688 0.959546 1.000000
0.731235 0.954299 1.000000
0.857342 0.948949 1.000000
0.952122 0.943807 1.000000
1.000000 0.939674 1.000000
0.000000 1.000000 1.000000
0.000000 1.000000 1.000000
0.000000 1.000000 1.000000
0.221220 1.000000 1.000000
0.545404 1.000000 1.000000
0.719537 1.000000 1.000000
0.847220 1.000000 1.000000
0.942762 1.000000 1.000000
1.000000 1.000000 1.000000
