public/luts/LunaUltra/Luna_I-Log_to_Rec2020_HLG_1K_DW203_s33_v2.cube
# Version 2.0
# Create Date 2026.05.20
# Output: HLG / Rec2020 / 1000 nits / 203 nits Diffuse White
TITLE "Insta360 I-Log to HLG Rendering LUT"
LUT_3D_SIZE 33
0.0011596857 0.0015411612 0.0014343481
0.0011596857 0.0015411612 0.0014343481
0.0011596857 0.0015411612 0.0014343481
0.0028849088 0.0000929847 0.0002808614
0.0153849088 0.0012169070 0.0000000000
0.0271691653 0.0025720989 0.0000000000
0.0407835508 0.0042563134 0.0000000000
0.0580829900 0.0064564736 0.0000000000
0.0799153124 0.0092164492 0.0000000000
0.1087243458 0.0147139887 0.0000000000
0.1464856565 0.0281462196 0.0000000000
0.1919532502 0.0423504616 0.0000000000
0.2460269322 0.0583962768 0.0000095369
0.3081936179 0.0768573091 0.0000138285
0.3780050736 0.0985027085 0.0000152590
0.4547174220 0.1233892195 0.0000000000
0.5348210880 0.1514534218 0.0000152590
0.6032997635 0.1844577325 0.0000152590
0.6606765469 0.2216544594 0.0000066758
0.7115572786 0.2626320859 0.0000166896
0.7600118257 0.3003852903 0.0000095369
0.8028930152 0.3386453803 0.0960255016
0.8422760739 0.3985427634 0.1511434730
0.8787570573 0.4703021286 0.2111429007
0.9122453651 0.5491493095 0.2827725643
0.9431901846 0.6171721218 0.3642180705
0.9720140002 0.6717917906 0.4461413748
0.9981012055 0.7167005226 0.5249847410
1.0000000000 0.7542954147 0.5880579080
1.0000000000 0.7895013161 0.6468780995
1.0000000000 0.8202916381 0.7001783398
1.0000000000 0.8463530938 0.7444285496
1.0000000000 0.8746471351 0.7915770199
0.0011596857 0.0015411612 0.0014343481
0.0011596857 0.0015411612 0.0014343481
0.0011596857 0.0015411612 0.0014343481
0.0028849088 0.0000929847 0.0002808614
0.0153849088 0.0012169070 0.0000000000
0.0271691653 0.0025720989 0.0000000000
0.0407835508 0.0042563134 0.0000000000
0.0580829900 0.0064564736 0.0000000000
0.0799153124 0.0092164492 0.0000000000
0.1087243458 0.0147139887 0.0000000000
0.1464856565 0.0281462196 0.0000000000
0.1919532502 0.0423504616 0.0000000000
0.2460269322 0.0583962768 0.0000095369
0.3081936179 0.0768573091 0.0000138285
0.3780050736 0.0985027085 0.0000152590
0.4547174220 0.1233892195 0.0000000000
0.5348210880 0.1514534218 0.0000152590
0.6032997635 0.1844577325 0.0000152590
0.6606765469 0.2216544594 0.0000066758
0.7115572786 0.2626320859 0.0000166896
0.7600118257 0.3003852903 0.0000095369
0.8028930152 0.3386453803 0.0960255016
0.8422760739 0.3985427634 0.1511434730
0.8787570573 0.4703021286 0.2111429007
0.9122453651 0.5491493095 0.2827725643
0.9431901846 0.6171721218 0.3642180705
0.9720140002 0.6717917906 0.4461413748
0.9981012055 0.7167005226 0.5249847410
1.0000000000 0.7542954147 0.5880579080
1.0000000000 0.7895013161 0.6468780995
1.0000000000 0.8202916381 0.7001783398
1.0000000000 0.8463530938 0.7444285496
1.0000000000 0.8746471351 0.7915770199
0.0011596857 0.0015411612 0.0014343481
0.0011596857 0.0015411612 0.0014343481
0.0011596857 0.0015411612 0.0014343481
0.0028849088 0.0000929847 0.0002808614
0.0153849088 0.0012169070 0.0000000000
0.0271691653 0.0025720989 0.0000000000
0.0407835508 0.0042563134 0.0000000000
0.0580829900 0.0064564736 0.0000000000
0.0799153124 0.0092164492 0.0000000000
0.1087243458 0.0147139887 0.0000000000
0.1464856565 0.0281462196 0.0000000000
0.1919532502 0.0423504616 0.0000000000
0.2460269322 0.0583962768 0.0000095369
0.3081936179 0.0768573091 0.0000138285
0.3780050736 0.0985027085 0.0000152590
0.4547174220 0.1233892195 0.0000000000
0.5348210880 0.1514534218 0.0000152590
0.6032997635 0.1844577325 0.0000152590
0.6606765469 0.2216544594 0.0000066758
0.7115572786 0.2626320859 0.0000166896
0.7600118257 0.3003852903 0.0000095369
0.8028930152 0.3386453803 0.0960255016
0.8422760739 0.3985427634 0.1511434730
0.8787570573 0.4703021286 0.2111429007
0.9122453651 0.5491493095 0.2827725643
0.9431901846 0.6171721218 0.3642180705
0.9720140002 0.6717917906 0.4461413748
0.9981012055 0.7167005226 0.5249847410
1.0000000000 0.7542954147 0.5880579080
1.0000000000 0.7895013161 0.6468780995
1.0000000000 0.8202916381 0.7001783398
1.0000000000 0.8463530938 0.7444285496
1.0000000000 0.8746471351 0.7915770199
0.0000000000 0.0035629816 0.0000000000
0.0000000000 0.0035629816 0.0000000000
0.0000000000 0.0035629816 0.0000000000
0.0043135348 0.0043531128 0.0000000000
0.0163524262 0.0038152323 0.0000000000
0.0278019379 0.0042873083 0.0000000000
0.0411602579 0.0047398337 0.0000000000
0.0582098306 0.0064731632 0.0000000000
0.0802266918 0.0093966964 0.0000000000
0.1095597772 0.0156366827 0.0000000000
0.1468175402 0.0288629168 0.0000000000
0.1923533227 0.0428988327 0.0000000000
0.2465681506 0.0588774128 0.0000119211
0.3089012551 0.0773622873 0.0000104906
0.3788333524 0.0989833677 0.0000085832
0.4554207675 0.1237830930 0.0000090600
0.5353813802 0.1518325132 0.0000152590
0.6038476577 0.1848511292 0.0000157359
0.6612697414 0.2222338254 0.0000128748
0.7122458419 0.2632686732 0.0000200275
0.7608477340 0.3005865187 0.0000119211
0.8034313725 0.3393964103 0.0968647478
0.8426475357 0.3992222667 0.1516865988
0.8791590372 0.4712095636 0.2119611658
0.9128809987 0.5504181926 0.2842636568
0.9437466621 0.6181987678 0.3657277600
0.9725270848 0.6726825360 0.4476329442
0.9981851301 0.7174167430 0.5262459945
1.0000000000 0.7550688563 0.5892967498
1.0000000000 0.7900711452 0.6478580148
1.0000000000 0.8209935531 0.7013427939
1.0000000000 0.8472447929 0.7459267948
1.0000000000 0.8755092699 0.7930037385
0.0000000000 0.0190794995 0.0000000000
0.0000000000 0.0190794995 0.0000000000
0.0000000000 0.0190794995 0.0000000000
0.0034342336 0.0195577745 0.0000000000
0.0233825437 0.0234264134 0.0000000000
0.0358024338 0.0245808537 0.0000000000
0.0496776532 0.0258287556 0.0000000000
0.0664725910 0.0278014611 0.0000000000
0.0882200351 0.0298599985 0.0000000000
0.1154430838 0.0337438964 0.0000000000
0.1506418326 0.0406176089 0.0000000000
0.1950441558 0.0504787518 0.0000000000
0.2488860914 0.0636930648 0.0000038148
0.3109478714 0.0805819409 0.0000014305
0.3816557946 0.1013113222 0.0000019074
0.4587205310 0.1257066835 0.0000147822
0.5384622721 0.1535515373 0.0000152590
0.6063692111 0.1866402495 0.0000147822
0.6636520562 0.2242895018 0.0000085832
0.7151579309 0.2656629091 0.0000133516
0.7640650034 0.3016689555 0.0000209812
0.8064230945 0.3432502670 0.1012273976
0.8456206607 0.4044995041 0.1561598764
0.8820992599 0.4776135843 0.2175168803
0.9154859998 0.5563344015 0.2906195163
0.9461194400 0.6228727970 0.3722695888
0.9750419623 0.6772526131 0.4552119097
0.9991073472 0.7215176051 0.5333371481
1.0000000000 0.7589379721 0.5957141222
1.0000000000 0.7940408751 0.6546921492
1.0000000000 0.8248054475 0.7078364614
1.0000000000 0.8507948997 0.7519340810
1.0000000000 0.8788643473 0.7984988937
0.0000000000 0.0334611276 0.0000000000
0.0000000000 0.0334611276 0.0000000000
0.0000000000 0.0334611276 0.0000000000
0.0029764630 0.0338249599 0.0000000000
0.0262235828 0.0379062715 0.0000000000
0.0409161135 0.0410028992 0.0000000000
0.0558079652 0.0426832990 0.0000000000
0.0750691424 0.0442640383 0.0034795338
0.0977478637 0.0463168536 0.0016246090
0.1232285229 0.0504654002 0.0000000000
0.1564416915 0.0566367208 0.0000000000
0.1995584421 0.0641913672 0.0000000000
0.2527819104 0.0745136187 0.0000000000
0.3142738613 0.0886191539 0.0000038148
0.3843270771 0.1071412222 0.0000152590
0.4624136912 0.1301823453 0.0000004768
0.5422279126 0.1572075036 0.0000205043
0.6097920005 0.1899433509 0.0000152590
0.6673309110 0.2276054780 0.0000066758
0.7184457733 0.2690651942 0.0000152590
0.7671745060 0.3026264591 0.0127512970
0.8092212177 0.3473902304 0.1057068742
0.8483353361 0.4096422713 0.1605587663
0.8848353933 0.4840505074 0.2228933013
0.9181286717 0.5626511597 0.2974045357
0.9487153811 0.6282916571 0.3796559091
0.9775377661 0.6814807927 0.4624523156
0.9999213207 0.7254310674 0.5401145380
1.0000000000 0.7625581750 0.6013151369
1.0000000000 0.7981050202 0.6617980850
1.0000000000 0.8287227245 0.7145160983
1.0000000000 0.8548800259 0.7587481880
1.0000000000 0.8824626154 0.8043874456
0.0015182727 0.0500448234 0.0031986725
0.0015182727 0.0500448234 0.0031986725
0.0015182727 0.0500448234 0.0031986725
0.0029206722 0.0503075647 0.0013451781
0.0281652934 0.0543717098 0.0000000000
0.0444457160 0.0577220188 0.0000000000
0.0607242313 0.0608863584 0.0000000000
0.0794303616 0.0627846761 0.0000000000
0.1048619059 0.0643406195 0.0074883650
0.1333481155 0.0661707485 0.0081578546
0.1656548028 0.0703679332 0.0000000000
0.2047069314 0.0792982757 0.0000100137
0.2569199664 0.0881961929 0.0000000000
0.3180423629 0.1000348096 0.0000042916
0.3876764324 0.1159514000 0.0000152590
0.4659633211 0.1368033303 0.0000004768
0.5456530861 0.1622329671 0.0000200275
0.6128209163 0.1940747311 0.0000047684
0.6706731136 0.2316939422 0.0000190738
0.7215834096 0.2730005913 0.0000276570
0.7707026780 0.3042191196 0.0199530785
0.8125514992 0.3526917868 0.1109292744
0.8515239948 0.4157063020 0.1657473106
0.8876983673 0.4910968376 0.2289091707
0.9211051347 0.5694275959 0.3050640879
0.9517228389 0.6339751659 0.3880698291
0.9801089113 0.6861877241 0.4705529488
1.0000000000 0.7294642176 0.5470168612
1.0000000000 0.7663214313 0.6074340047
1.0000000000 0.8020461395 0.6685883497
1.0000000000 0.8325694285 0.7210479133
1.0000000000 0.8585002289 0.7647702564
1.0000000000 0.8858911269 0.8099717708
0.0028524834 0.0713106546 0.0160863470
0.0028524834 0.0713106546 0.0160863470
0.0028524834 0.0713106546 0.0160863470
0.0035472457 0.0715271420 0.0157578012
0.0255779355 0.0767223621 0.0053616388
0.0464227131 0.0795710307 0.0047698749
0.0645594911 0.0820310712 0.0000000000
0.0846756504 0.0849937057 0.0000000000
0.1087191005 0.0870708400 0.0000000000
0.1409490158 0.0883249409 0.0127522507
0.1760705158 0.0898031586 0.0145618753
0.2164444572 0.0938925765 0.0076333257
0.2653677424 0.1019688907 0.0000000000
0.3223573281 0.1154921988 0.0000109674
0.3917353323 0.1290312428 0.0000109674
0.4700784886 0.1472419318 0.0000147822
0.5496862364 0.1703617342 0.0000109674
0.6162685016 0.2004959182 0.0000152590
0.6737106126 0.2367599374 0.0000047684
0.7247377356 0.2772654879 0.0000114443
0.7733763447 0.3064707790 0.0467269398
0.8153748951 0.3576547837 0.1158970397
0.8545853361 0.4220173381 0.1709773404
0.8906552796 0.4981736858 0.2348625734
0.9234616999 0.5749904631 0.3113884756
0.9538800832 0.6384169718 0.3942707141
0.9823710613 0.6899509804 0.4771167124
1.0000000000 0.7330939574 0.5531576638
1.0000000000 0.7698562791 0.6134460594
1.0000000000 0.8058999962 0.6752985046
1.0000000000 0.8359497787 0.7268453880
1.0000000000 0.8618748569 0.7704408904
1.0000000000 0.8886806668 0.8144874876
0.0037193866 0.0976234073 0.0284390021
0.0037193866 0.0976234073 0.0284390021
0.0037193866 0.0976234073 0.0284390021
0.0043163958 0.0978193904 0.0282387274
0.0241741054 0.1031567102 0.0209105821
0.0440847448 0.1076223583 0.0148756390
0.0656319142 0.1098563745 0.0153400855
0.0885423819 0.1120279240 0.0103069924
0.1141603723 0.1145380331 0.0000000000
0.1441491188 0.1162823301 0.0000000000
0.1836308843 0.1168411917 0.0195782788
0.2258468757 0.1179179065 0.0229276341
0.2762169070 0.1215533684 0.0205138476
0.3346127070 0.1286693179 0.0106183719
0.3988965820 0.1425345235 0.0000085832
0.4728913939 0.1618767643 0.0000147822
0.5524719615 0.1821850919 0.0000152590
0.6187743191 0.2094605936 0.0000038148
0.6762235828 0.2438019760 0.0000038148
0.7276202602 0.2820763714 0.0000276570
0.7759117266 0.3110875868 0.0655451286
0.8180895705 0.3631933318 0.1213874266
0.8568427176 0.4274938964 0.1754959182
0.8928182460 0.5041042000 0.2399328603
0.9256656748 0.5805409323 0.3177195392
0.9562070840 0.6429832341 0.4009818227
0.9845387961 0.6936856260 0.4836995499
1.0000000000 0.7363765545 0.5586666476
1.0000000000 0.7728885328 0.6183775845
1.0000000000 0.8089270047 0.6804717899
1.0000000000 0.8388723583 0.7317740520
1.0000000000 0.8647359236 0.7751573587
1.0000000000 0.8912756542 0.8187266346
0.0036106661 0.1294890135 0.0407077325
0.0036106661 0.1294890135 0.0407077325
0.0036106661 0.1294890135 0.0407077325
0.0038538567 0.1296396963 0.0401684215
0.0255683986 0.1346532387 0.0341086824
0.0414172770 0.1403219654 0.0259536889
0.0632295720 0.1436632143 0.0233629931
0.0889152743 0.1459864004 0.0246695468
0.1173785954 0.1478813802 0.0212076562
0.1494897765 0.1500948920 0.0016789693
0.1866259442 0.1508378157 0.0000071527
0.2329313535 0.1501926452 0.0285977913
0.2842550736 0.1509541657 0.0344224460
0.3435149157 0.1543645571 0.0342116808
0.4099846456 0.1611843862 0.0303883421
0.4840576600 0.1731755932 0.0203216793
0.5566290913 0.1942812047 0.0000109674
0.6204361219 0.2221398871 0.0000038148
0.6779330701 0.2525959411 0.0000238422
0.7316157397 0.2801585031 0.0000066758
0.7777394713 0.3173752575 0.0794708934
0.8200637064 0.3695477607 0.1273045892
0.8588340200 0.4334019989 0.1805042153
0.8946092737 0.5095364118 0.2445692187
0.9274686236 0.5846336881 0.3225156405
0.9578221561 0.6460317006 0.4057025826
0.9858396277 0.6961752308 0.4880807965
1.0000000000 0.7385762379 0.5623049706
1.0000000000 0.7751282712 0.6221179522
1.0000000000 0.8111343175 0.6843413825
1.0000000000 0.8409399557 0.7353341726
1.0000000000 0.8665078775 0.7780956741
1.0000000000 0.8928873884 0.8213168536
0.0000000000 0.1682459754 0.0542305638
0.0000000000 0.1682459754 0.0542305638
0.0000000000 0.1682459754 0.0542305638
0.0000166896 0.1685163462 0.0541185054
0.0270189593 0.1731555657 0.0488155184
0.0432745861 0.1783612764 0.0420772297
0.0592622263 0.1835297932 0.0345283055
0.0859931716 0.1864638170 0.0335688945
0.1168764782 0.1883211261 0.0348783093
0.1514758335 0.1899090181 0.0313982986
0.1908283742 0.1915941863 0.0183327611
0.2356336309 0.1914125086 0.0064550431
0.2896152819 0.1895323110 0.0407330053
0.3488283932 0.1895904860 0.0490835050
0.4156252384 0.1924801633 0.0504234379
0.4903772793 0.1995198177 0.0495765621
0.5633077745 0.2117837797 0.0472953384
0.6259784848 0.2299529831 0.0438982986
0.6818522545 0.2549792096 0.0443808652
0.7322561418 0.2862082284 0.0609583619
0.7783808270 0.3256713970 0.0929179065
0.8207756352 0.3761129549 0.1336928740
0.8597552834 0.4390039673 0.1848020142
0.8956745441 0.5142113947 0.2483901732
0.9284370947 0.5877765698 0.3261062791
0.9588912413 0.6483877890 0.4089432174
0.9869287404 0.6981822690 0.4915588998
1.0000000000 0.7399967575 0.5646548600
1.0000000000 0.7765316243 0.6244630732
1.0000000000 0.8125324254 0.6867570764
1.0000000000 0.8422579538 0.7375276570
1.0000000000 0.8677328908 0.7800960365
1.0000000000 0.8939497978 0.8230287251
0.0000433928 0.2140182727 0.0699602312
0.0000433928 0.2140182727 0.0699602312
0.0000433928 0.2140182727 0.0699602312
0.0000047684 0.2143854429 0.0699688144
0.0279445144 0.2188577668 0.0654244869
0.0455624857 0.2238746471 0.0597805562
0.0613999199 0.2287327382 0.0541423476
0.0807569429 0.2337329290 0.0463368811
0.1131489853 0.2359431029 0.0465004387
0.1495803769 0.2372186618 0.0476777676
0.1912260624 0.2381795033 0.0435082399
0.2383254177 0.2394207294 0.0298595216
0.2913595789 0.2376893072 0.0209778172
0.3530136568 0.2347433623 0.0558308537
0.4201366636 0.2343480583 0.0667391470
0.4944652667 0.2371433204 0.0700155451
0.5657802129 0.2443436713 0.0713440337
0.6275749599 0.2569762341 0.0731889448
0.6825780117 0.2763485161 0.0772135119
0.7325889792 0.3034814412 0.0875567445
0.7787355993 0.3396348325 0.1088163767
0.8210879683 0.3866712444 0.1430724041
0.8601091020 0.4462448501 0.1905932898
0.8958314260 0.5186784733 0.2518501564
0.9288204776 0.5903276875 0.3287170024
0.9592717632 0.6498860342 0.4107814527
0.9874914168 0.6993982223 0.4935373274
1.0000000000 0.7409137293 0.5660672732
1.0000000000 0.7774519341 0.6259994659
1.0000000000 0.8133301862 0.6881270504
1.0000000000 0.8426623178 0.7381766423
1.0000000000 0.8680232891 0.7805724041
1.0000000000 0.8941553178 0.8233477340
0.0000114443 0.2676146334 0.0882753491
0.0000114443 0.2676146334 0.0882753491
0.0000114443 0.2676146334 0.0882753491
0.0000114443 0.2681229496 0.0883349546
0.0258220798 0.2724269474 0.0844834821
0.0474941825 0.2772988670 0.0794470512
0.0633926528 0.2815623331 0.0741197452
0.0826051919 0.2865525101 0.0689202335
0.1073357748 0.2910563058 0.0616216526
0.1453064202 0.2925731479 0.0626173037
0.1883697642 0.2930485618 0.0634937438
0.2367227436 0.2931811246 0.0585851072
0.2916857404 0.2931067369 0.0435301747
0.3528310254 0.2904526207 0.0351329442
0.4219996948 0.2863174258 0.0737668803
0.4963702602 0.2852640764 0.0883220798
0.5671759365 0.2882791638 0.0938830396
0.6278572519 0.2960140574 0.0975628481
0.6822919051 0.3093575952 0.1025539788
0.7317292287 0.3304527161 0.1112206264
0.7774948501 0.3604161898 0.1274319066
0.8204122797 0.4021915770 0.1558785382
0.8594262608 0.4567263676 0.1982738231
0.8956673915 0.5248550393 0.2565179866
0.9287136645 0.5931124590 0.3311760891
0.9592092966 0.6509870680 0.4118872549
0.9874103532 0.6997653925 0.4938229572
1.0000000000 0.7408927481 0.5658875029
1.0000000000 0.7772716869 0.6255931945
1.0000000000 0.8130254826 0.6875524529
1.0000000000 0.8424143587 0.7377546349
1.0000000000 0.8678993095 0.7803664073
1.0000000000 0.8939154650 0.8229743648
0.0000000000 0.3289964332 0.1096017395
0.0000000000 0.3289964332 0.1096017395
0.0000000000 0.3289964332 0.1096017395
0.0000000000 0.3295605402 0.1097171359
0.0000066758 0.3327224956 0.1087262531
0.0478756580 0.3386329824 0.1012617304
0.0658178836 0.3427266918 0.0970507172
0.0842336156 0.3467188334 0.0918278401
0.1085126268 0.3508020523 0.0869325551
0.1394717517 0.3541299496 0.0810873960
0.1833357176 0.3547446021 0.0825045777
0.2327124819 0.3548084993 0.0830157549
0.2888895247 0.3540498398 0.0764605745
0.3517438201 0.3535710880 0.0602564469
0.4202515831 0.3492284657 0.0512135691
0.4962949187 0.3437242504 0.0956697757
0.5668922141 0.3424129282 0.1145542458
0.6271047913 0.3455057412 0.1226920729
0.6813792248 0.3539439803 0.1290741588
0.7305418860 0.3687566758 0.1374041543
0.7759894522 0.3916189822 0.1506656748
0.8185587854 0.4254320211 0.1733558404
0.8582179370 0.4730463684 0.2098806935
0.8945553902 0.5340195125 0.2633220798
0.9281891356 0.5967584115 0.3341783017
0.9588125620 0.6523713474 0.4129215305
0.9872429808 0.7002727550 0.4942406729
1.0000000000 0.7409313725 0.5656695850
1.0000000000 0.7770270657 0.6250243191
1.0000000000 0.8125476844 0.6866488327
1.0000000000 0.8416337644 0.7364089799
1.0000000000 0.8670586328 0.7789587625
1.0000000000 0.8931172274 0.8216687648
0.0000305180 0.3980611505 0.1339141299
0.0000305180 0.3980611505 0.1339141299
0.0000305180 0.3980611505 0.1339141299
0.0000224117 0.3988846609 0.1341225109
0.0000219348 0.4020780880 0.1342870222
0.0450341421 0.4072985809 0.1261654078
0.0667238880 0.4116206989 0.1221532387
0.0866655222 0.4154783703 0.1180290112
0.1100366217 0.4187266346 0.1131084535
0.1402084764 0.4217126345 0.1091401541
0.1785229267 0.4234187839 0.1054722667
0.2275000954 0.4229495689 0.1072885672
0.2833609903 0.4218499657 0.1066195544
0.3467641337 0.4208357176 0.0984545472
0.4174153124 0.4195410849 0.0792639429
0.4938348783 0.4141341459 0.0700188830
0.5661402304 0.4075846876 0.1216687648
0.6256589990 0.4061851492 0.1458195048
0.6792114900 0.4092183566 0.1572461280
0.7279840925 0.4179031243 0.1664125086
0.7733253223 0.4336709392 0.1781872282
0.8161898222 0.4593103876 0.1967555505
0.8558785382 0.4975366217 0.2270017929
0.8929112306 0.5480401694 0.2741316663
0.9269312200 0.6028515297 0.3393005646
0.9581106470 0.6545753223 0.4146257725
0.9865272374 0.7005827039 0.4937409400
1.0000000000 0.7404688334 0.5643968872
1.0000000000 0.7762684062 0.6234683757
1.0000000000 0.8115100710 0.6846890021
1.0000000000 0.8403858625 0.7342269398
1.0000000000 0.8659847791 0.7771596284
1.0000000000 0.8920452811 0.8199092088
0.0000753414 0.4760528725 0.1619945449
0.0000753414 0.4760528725 0.1619945449
0.0000753414 0.4760528725 0.1619945449
0.0000057221 0.4771286336 0.1622706378
0.0000615129 0.4804665446 0.1624775883
0.0354772259 0.4846484703 0.1550254635
0.0651894026 0.4883783474 0.1503366522
0.0878447585 0.4918674182 0.1466854543
0.1122186618 0.4945921073 0.1426232166
0.1413958190 0.4969691768 0.1387746052
0.1789086938 0.4979710269 0.1363541428
0.2248235676 0.4980659190 0.1356445983
0.2788915274 0.4965900855 0.1373583772
0.3404516670 0.4949130236 0.1355110819
0.4103303578 0.4930852789 0.1249756809
0.4878962577 0.4907544633 0.1020790417
0.5628781376 0.4844462882 0.0903253033
0.6240286679 0.4771853780 0.1516026741
0.6766274701 0.4753857671 0.1826872091
0.7250391012 0.4786020829 0.1979180972
0.7700241283 0.4873612383 0.2100828756
0.8125104906 0.5040951400 0.2255560006
0.8525453956 0.5306587129 0.2502622644
0.8901708057 0.5675888838 0.2899338140
0.9250391012 0.6121361677 0.3471036469
0.9569213970 0.6583671893 0.4175912680
0.9855129892 0.7015864614 0.4937461852
1.0000000000 0.7404855230 0.5636120012
1.0000000000 0.7755974861 0.6218571183
1.0000000000 0.8104901007 0.6826876860
1.0000000000 0.8391150721 0.7318679904
1.0000000000 0.8648470283 0.7751964599
1.0000000000 0.8909409094 0.8181229496
0.0000762951 0.5557946136 0.1930876631
0.0000762951 0.5557946136 0.1930876631
0.0000762951 0.5557946136 0.1930876631
0.0000057221 0.5564722095 0.1933499275
0.0000000000 0.5597257191 0.1939364462
0.0095249676 0.5621223392 0.1892309453
0.0616617075 0.5647173266 0.1816138323
0.0881709201 0.5671892882 0.1783231289
0.1145876249 0.5688410773 0.1749523156
0.1442401961 0.5697418364 0.1713917182
0.1805075532 0.5698481727 0.1689974823
0.2256418326 0.5689674411 0.1692783436
0.2789673457 0.5672636759 0.1714751659
0.3374394408 0.5656028267 0.1728933013
0.4042954147 0.5640135042 0.1693436713
0.4799873159 0.5620121881 0.1557798314
0.5568932631 0.5599298085 0.1295719844
0.6212086099 0.5535977913 0.1143139162
0.6745403220 0.5464456016 0.1867990387
0.7219405661 0.5441686694 0.2248445487
0.7662355993 0.5464866102 0.2439898528
0.8088063630 0.5544918746 0.2597376402
0.8489337758 0.5694419013 0.2803196765
0.8870698863 0.5934882124 0.3122620546
0.9228313115 0.6263790341 0.3601472496
0.9553816663 0.6648255703 0.4230082208
0.9844386587 0.7042000458 0.4951466773
1.0000000000 0.7412122339 0.5633893149
1.0000000000 0.7755226215 0.6209506371
1.0000000000 0.8099598497 0.6813515679
1.0000000000 0.8383497368 0.7303864347
1.0000000000 0.8642280842 0.7740486954
1.0000000000 0.8902800031 0.8169832914
0.0000886931 0.6238250553 0.2272106508
0.0000886931 0.6238250553 0.2272106508
0.0000886931 0.6238250553 0.2272106508
0.0000219348 0.6246652552 0.2276021401
0.0000267033 0.6273599031 0.2283684291
0.0103489548 0.6280217632 0.2213402190
0.0614456970 0.6295724613 0.2156834134
0.0891927977 0.6309982261 0.2125057221
0.1171964408 0.6319695583 0.2099212253
0.1481379225 0.6324278058 0.2072089342
0.1839832723 0.6318422408 0.2046120394
0.2279435607 0.6304155222 0.2048204204
0.2815551804 0.6277966926 0.2087348363
0.3397111276 0.6250925078 0.2128175784
0.4018663691 0.6232714389 0.2136801900
0.4730992981 0.6213983940 0.2074535554
0.5485880636 0.6197513733 0.1912999733
0.6150535019 0.6181200885 0.1613703555
0.6723058289 0.6119468605 0.1432059205
0.7198295758 0.6048127909 0.2276054780
0.7630269131 0.6020084688 0.2725556954
0.8049424926 0.6030646792 0.2945363165
0.8450613222 0.6097605287 0.3138294423
0.8834244106 0.6232394903 0.3392266537
0.9202329862 0.6454628252 0.3784432937
0.9536211566 0.6752117189 0.4330500877
0.9834873541 0.7093571183 0.4999279965
1.0000000000 0.7435087167 0.5647344930
1.0000000000 0.7763723583 0.6212310216
1.0000000000 0.8099803540 0.6806892309
1.0000000000 0.8380636301 0.7294966430
1.0000000000 0.8637836652 0.7731226635
1.0000000000 0.8898184176 0.8161216335
0.0096332113 0.6806105516 0.2576209277
0.0096332113 0.6806105516 0.2576209277
0.0096332113 0.6806105516 0.2576209277
0.0105683032 0.6810935950 0.2577677958
0.0249456397 0.6829194324 0.2556448844
0.0528014611 0.6845473793 0.2535534447
0.0727626459 0.6862258717 0.2518072404
0.0970058938 0.6871399825 0.2500567445
0.1235770962 0.6874885557 0.2480001144
0.1537837606 0.6872367819 0.2458595598
0.1893377584 0.6860818647 0.2438696880
0.2308656634 0.6844062333 0.2427028496
0.2825761044 0.6815871290 0.2456607156
0.3434557870 0.6776884489 0.2540183680
0.4053215839 0.6747568093 0.2591887922
0.4708853094 0.6728284504 0.2594534409
0.5417439155 0.6712291142 0.2511081865
