public/luts/LunaUltra/Luna_I-Log_to_Rec2020_St2084_1K_DW203_s33_v2.cube
# Version 2.0
# Create Date 2026.05.20
# Output: ST2084 / Rec2020 / 1000 nits / 203 nits Diffuse White
TITLE "Insta360 I-Log to PQ Rendering LUT"
LUT_3D_SIZE 33
0.0007476921 0.0010376135 0.0009613184
0.0007476921 0.0010376135 0.0009613184
0.0007476921 0.0010376135 0.0009613184
0.0023465515 0.0000557908 0.0001359007
0.0201533532 0.0011921111 0.0000000000
0.0388995384 0.0032458801 0.0000000000
0.0598630503 0.0063029297 0.0000000000
0.0847333486 0.0107743000 0.0000000000
0.1133669032 0.0167696651 0.0000000000
0.1472691119 0.0284442473 0.0000000000
0.1866588464 0.0545405127 0.0000152590
0.2276865415 0.0802796216 0.0000152590
0.2697013046 0.1069695583 0.0000095369
0.3114332990 0.1348511292 0.0000152590
0.3519951171 0.1641250858 0.0000152590
0.3908941787 0.1942149233 0.0000147822
0.4275349050 0.2244602121 0.0000305180
0.4619025139 0.2559452964 0.0000157359
0.4936169604 0.2873521782 0.0000133516
0.5236295491 0.3182269017 0.0000319486
0.5533703365 0.3444781415 0.0000095369
0.5806844625 0.3688458457 0.1845268750
0.6069514382 0.4019016556 0.2456750210
0.6320086595 0.4366116388 0.2985198749
0.6556115053 0.4719462882 0.3497024491
0.6777685588 0.5057993820 0.3976386664
0.6984931716 0.5355420768 0.4385223545
0.7173604753 0.5615000572 0.4732595178
0.7340981918 0.5841096361 0.5028973068
0.7465171283 0.6055304417 0.5326175898
0.7518272679 0.6241397726 0.5606441215
0.7518272679 0.6397931449 0.5846537156
0.7518272679 0.6571297780 0.6112306401
0.0007476921 0.0010376135 0.0009613184
0.0007476921 0.0010376135 0.0009613184
0.0007476921 0.0010376135 0.0009613184
0.0023465515 0.0000557908 0.0001359007
0.0201533532 0.0011921111 0.0000000000
0.0388995384 0.0032458801 0.0000000000
0.0598630503 0.0063029297 0.0000000000
0.0847333486 0.0107743000 0.0000000000
0.1133669032 0.0167696651 0.0000000000
0.1472691119 0.0284442473 0.0000000000
0.1866588464 0.0545405127 0.0000152590
0.2276865415 0.0802796216 0.0000152590
0.2697013046 0.1069695583 0.0000095369
0.3114332990 0.1348511292 0.0000152590
0.3519951171 0.1641250858 0.0000152590
0.3908941787 0.1942149233 0.0000147822
0.4275349050 0.2244602121 0.0000305180
0.4619025139 0.2559452964 0.0000157359
0.4936169604 0.2873521782 0.0000133516
0.5236295491 0.3182269017 0.0000319486
0.5533703365 0.3444781415 0.0000095369
0.5806844625 0.3688458457 0.1845268750
0.6069514382 0.4019016556 0.2456750210
0.6320086595 0.4366116388 0.2985198749
0.6556115053 0.4719462882 0.3497024491
0.6777685588 0.5057993820 0.3976386664
0.6984931716 0.5355420768 0.4385223545
0.7173604753 0.5615000572 0.4732595178
0.7340981918 0.5841096361 0.5028973068
0.7465171283 0.6055304417 0.5326175898
0.7518272679 0.6241397726 0.5606441215
0.7518272679 0.6397931449 0.5846537156
0.7518272679 0.6571297780 0.6112306401
0.0007476921 0.0010376135 0.0009613184
0.0007476921 0.0010376135 0.0009613184
0.0007476921 0.0010376135 0.0009613184
0.0023465515 0.0000557908 0.0001359007
0.0201533532 0.0011921111 0.0000000000
0.0388995384 0.0032458801 0.0000000000
0.0598630503 0.0063029297 0.0000000000
0.0847333486 0.0107743000 0.0000000000
0.1133669032 0.0167696651 0.0000000000
0.1472691119 0.0284442473 0.0000000000
0.1866588464 0.0545405127 0.0000152590
0.2276865415 0.0802796216 0.0000152590
0.2697013046 0.1069695583 0.0000095369
0.3114332990 0.1348511292 0.0000152590
0.3519951171 0.1641250858 0.0000152590
0.3908941787 0.1942149233 0.0000147822
0.4275349050 0.2244602121 0.0000305180
0.4619025139 0.2559452964 0.0000157359
0.4936169604 0.2873521782 0.0000133516
0.5236295491 0.3182269017 0.0000319486
0.5533703365 0.3444781415 0.0000095369
0.5806844625 0.3688458457 0.1845268750
0.6069514382 0.4019016556 0.2456750210
0.6320086595 0.4366116388 0.2985198749
0.6556115053 0.4719462882 0.3497024491
0.6777685588 0.5057993820 0.3976386664
0.6984931716 0.5355420768 0.4385223545
0.7173604753 0.5615000572 0.4732595178
0.7340981918 0.5841096361 0.5028973068
0.7465171283 0.6055304417 0.5326175898
0.7518272679 0.6241397726 0.5606441215
0.7518272679 0.6397931449 0.5846537156
0.7518272679 0.6571297780 0.6112306401
0.0000000000 0.0034752422 0.0000000000
0.0000000000 0.0034752422 0.0000000000
0.0000000000 0.0034752422 0.0000000000
0.0046921492 0.0047317273 0.0000000000
0.0220469024 0.0049219883 0.0000000000
0.0400582704 0.0059724765 0.0000000000
0.0604529068 0.0071331159 0.0000000000
0.0849102579 0.0108119707 0.0000000000
0.1137698367 0.0171091783 0.0000000000
0.1482509346 0.0301918822 0.0000000000
0.1870336461 0.0557764935 0.0000000000
0.2280436980 0.0811503395 0.0000152590
0.2701247425 0.1076876860 0.0000152590
0.3118944076 0.1355077440 0.0000104906
0.3524547951 0.1647073129 0.0000214580
0.3912341688 0.1946455138 0.0000238422
0.4278143359 0.2248240444 0.0000214580
0.4621981575 0.2562895781 0.0000305180
0.4939664874 0.2878042267 0.0000195506
0.5240410658 0.3186751354 0.0000338560
0.5538767453 0.3446459907 0.0000238422
0.5810354200 0.3692864500 0.1855644884
0.6072098878 0.4022344930 0.2461928740
0.6322990578 0.4370255398 0.2991588464
0.6560521096 0.4725518807 0.3506466011
0.6781610018 0.5063482300 0.3984445335
0.6988617723 0.5360427634 0.4391980430
0.7176613642 0.5619139582 0.4738207637
0.7344539178 0.5845745594 0.5035119593
0.7466558900 0.6058694781 0.5331321050
0.7518272679 0.6245574884 0.5612687877
0.7518272679 0.6403281643 0.5854786564
0.7518272679 0.6576667048 0.6120498589
0.0000000000 0.0284771496 0.0000000000
0.0000000000 0.0284771496 0.0000000000
0.0000000000 0.0284771496 0.0000000000
0.0051885443 0.0293912604 0.0000000000
0.0369935912 0.0370679789 0.0000000000
0.0559319448 0.0400825895 0.0000000000
0.0759174487 0.0434081025 0.0000000000
0.0986123827 0.0481569963 0.0000000000
0.1255397879 0.0533398184 0.0000000000
0.1561975471 0.0616984245 0.0000000000
0.1915894179 0.0749809262 0.0000028611
0.2308041505 0.0926594568 0.0000128748
0.2720626383 0.1144235904 0.0000152590
0.3133158808 0.1396305409 0.0000014305
0.3540550851 0.1674458305 0.0000152590
0.3928211070 0.1967207408 0.0000152590
0.4292896925 0.2265087358 0.0000152590
0.4635481041 0.2578502899 0.0000147822
0.4953431373 0.2894092851 0.0000152590
0.5258015755 0.3203803311 0.0000267033
0.5558499275 0.3454947738 0.0000362402
0.5829995422 0.3715457389 0.1909809644
0.6092326619 0.4049544137 0.2505464637
0.6343428130 0.4399152171 0.3035172045
0.6579022660 0.4753585870 0.3547188525
0.6798599985 0.5088097009 0.4019374189
0.7006704433 0.5386224918 0.4426747158
0.7195506218 0.5643582628 0.4770103761
0.7361963073 0.5869535363 0.5066948959
0.7475838293 0.6082694362 0.5366674296
0.7518272679 0.6268177310 0.5647364004
0.7518272679 0.6424897002 0.5888184749
0.7518272679 0.6597467002 0.6152208743
0.0000000000 0.0528310254 0.0000000000
0.0000000000 0.0528310254 0.0000000000
0.0000000000 0.0528310254 0.0000000000
0.0049987602 0.0534494926 0.0000000000
0.0442010948 0.0609531167 0.0000000000
0.0667048142 0.0668168727 0.0000000000
0.0875014305 0.0705872816 0.0000000000
0.1121809911 0.0745903906 0.0061851492
0.1387846189 0.0795386053 0.0029364080
0.1662355993 0.0876139658 0.0000019074
0.1985151064 0.0988169490 0.0000000000
0.2355506600 0.1120627337 0.0000052453
0.2755073625 0.1287913901 0.0000057221
0.3157988098 0.1494826238 0.0000038148
0.3557469291 0.1739619097 0.0000152590
0.3947127489 0.2013032158 0.0000104906
0.4311799039 0.2299310483 0.0000228885
0.4654321164 0.2606608110 0.0000209812
0.4974846456 0.2919747082 0.0000133516
0.5278167201 0.3227512016 0.0000305180
0.5577582589 0.3462667849 0.0328641184
0.5848578050 0.3739371138 0.1964112688
0.6110804341 0.4075617990 0.2547188525
0.6362573434 0.4427686542 0.3076590753
0.6597934310 0.4783770123 0.3589765965
0.6817349508 0.5116807813 0.4058227474
0.7024691005 0.5410319867 0.4459611276
0.7212314984 0.5666800183 0.4800841154
0.7377560655 0.5891608492 0.5095097086
0.7484836347 0.6107289998 0.5403624971
0.7518272679 0.6291638056 0.5683122568
0.7518272679 0.6449750134 0.5926184482
0.7518272679 0.6619821469 0.6186236362
0.0022669184 0.0790846494 0.0054674983
0.0022669184 0.0790846494 0.0054674983
0.0022669184 0.0790846494 0.0054674983
0.0048828870 0.0794837682 0.0022564279
0.0498989090 0.0862401770 0.0000000000
0.0747734989 0.0919651713 0.0000000000
0.0972648203 0.0974727245 0.0000000000
0.1206254292 0.1014405470 0.0000000000
0.1492751965 0.1054570077 0.0153019379
0.1782630465 0.1100542649 0.0172188525
0.2081721599 0.1178749905 0.0000000000
0.2409843023 0.1317936027 0.0000123980
0.2793793393 0.1457551308 0.0000057221
0.3187628748 0.1627832456 0.0000152590
0.3579575799 0.1834668498 0.0000238422
0.3966253719 0.2078583963 0.0000009537
0.4329718853 0.2345025559 0.0000276570
0.4671478027 0.2640769245 0.0000047684
0.4994773785 0.2950341421 0.0000257496
0.5297765507 0.3254224842 0.0000429160
0.5599431601 0.3474240864 0.0460431449
0.5870760853 0.3769512474 0.2025740063
0.6132658122 0.4106031128 0.2595807584
0.6382681964 0.4458614672 0.3121957733
0.6619172961 0.4816662852 0.3637140459
0.6838888571 0.5147292477 0.4101744297
0.7043307012 0.5437151904 0.4495651179
0.7230144198 0.5690928511 0.4832651446
0.7393015183 0.5914578088 0.5125782025
0.7492957008 0.6131237125 0.5439149882
0.7518272679 0.6314650568 0.5718442435
0.7518272679 0.6471909094 0.5960054742
0.7518272679 0.6641155489 0.6218699931
0.0050593194 0.1097028305 0.0311570153
0.0050593194 0.1097028305 0.0311570153
0.0050593194 0.1097028305 0.0311570153
0.0064865148 0.1099989509 0.0305647745
0.0484407187 0.1173032540 0.0103909171
0.0809963188 0.1217774853 0.0093156329
0.1056687266 0.1258235103 0.0000042916
0.1303444724 0.1306887541 0.0000042916
0.1567969406 0.1347476539 0.0000114443
0.1884074350 0.1384188792 0.0277370871
0.2192421035 0.1425354772 0.0322666323
0.2512879568 0.1498955711 0.0175445373
0.2861195354 0.1619683185 0.0000000000
0.3223282406 0.1796702144 0.0000123980
0.3607776379 0.1968814374 0.0000152590
0.3989666781 0.2177963111 0.0000147822
0.4351954108 0.2416337644 0.0000219348
0.4691705768 0.2692125391 0.0000262264
0.5013275349 0.2987253948 0.0000071527
0.5317511635 0.3282682918 0.0000171664
0.5616340505 0.3489051652 0.1097905699
0.5889734493 0.3797264820 0.2082942321
0.6153748951 0.4137188144 0.2643601701
0.6403391318 0.4489328222 0.3166361486
0.6636191539 0.4843704700 0.3675435836
0.6854486152 0.5171134699 0.4133502136
0.7059567407 0.5458853094 0.4524791142
0.7246499962 0.5712734607 0.4861209659
0.7406075952 0.5936055161 0.5155904288
0.7500472076 0.6154626345 0.5474479286
0.7518272679 0.6335016594 0.5749914168
0.7518272679 0.6492580301 0.5992003319
0.7518272679 0.6658541238 0.6245078965
0.0073128862 0.1434805829 0.0552796216
0.0073128862 0.1434805829 0.0552796216
0.0073128862 0.1434805829 0.0552796216
0.0086223011 0.1437218662 0.0549591821
0.0484969863 0.1502479591 0.0426031891
0.0811517700 0.1558966583 0.0314545663
0.1110084306 0.1591840238 0.0327010376
0.1387088006 0.1625901236 0.0224832151
0.1662775616 0.1666399634 0.0000152590
0.1950308042 0.1701810101 0.0000038148
0.2285553521 0.1731012055 0.0435330358
0.2605592432 0.1767361906 0.0511372740
0.2947947662 0.1833867399 0.0474879835
0.3302586404 0.1936722744 0.0260476272
0.3651836805 0.2101749065 0.0000152590
0.4009522583 0.2309762913 0.0000185969
0.4370107576 0.2515297169 0.0000267033
0.4708128290 0.2761010338 0.0000042916
0.5029764630 0.3036688411 0.0000076295
0.5335932136 0.3314073587 0.0000414855
0.5633173114 0.3517223621 0.1417410544
0.5908097772 0.3827582589 0.2144111925
0.6169403754 0.4163738842 0.2684185931
0.6418888762 0.4515030137 0.3203269245
0.6652132448 0.4870870527 0.3713244831
0.6871237697 0.5195792325 0.4167310407
0.7075188830 0.5480354009 0.4553549630
0.7260709926 0.5732456893 0.4887011711
0.7417277028 0.5954623484 0.5180819409
0.7506151293 0.6172975319 0.5501902609
0.7518272679 0.6352693217 0.5776874952
0.7518272679 0.6510223545 0.6018663691
0.7518272679 0.6674830243 0.6269779507
0.0075417716 0.1795557717 0.0780961509
0.0075417716 0.1795557717 0.0780961509
0.0075417716 0.1795557717 0.0780961509
0.0080996796 0.1797002556 0.0772831312
0.0533531701 0.1850938430 0.0681153201
0.0803788052 0.1911249714 0.0545219158
0.1118791485 0.1949912261 0.0501311322
0.1434715229 0.1980721180 0.0530045968
0.1738283932 0.2009970817 0.0468304150
0.2040088312 0.2045157168 0.0039740215
0.2348353933 0.2070167659 0.0000104906
0.2688162814 0.2088087472 0.0631833181
0.3023875601 0.2122076944 0.0749475471
0.3370799001 0.2183141642 0.0760914969
0.3718022812 0.2275430114 0.0705944343
0.4064183261 0.2410853933 0.0512345502
0.4394908255 0.2613403143 0.0000143053
0.4721909094 0.2854371710 0.0000038148
0.5042410544 0.3096322576 0.0000357633
0.5358644236 0.3304980163 0.0000133516
0.5646291104 0.3554169528 0.1618305104
0.5922174220 0.3861195354 0.2207966163
0.6183594644 0.4191658083 0.2727888724
0.6431663424 0.4538538567 0.3236591135
0.6665064469 0.4891274701 0.3741636149
0.6882901312 0.5212429427 0.4190880827
0.7084706645 0.5494697490 0.4572437438
0.7270423247 0.5745598726 0.4904263943
0.7424205577 0.5968099107 0.5199778744
0.7509894522 0.6186336500 0.5522378309
0.7518272679 0.6365167468 0.5796330205
0.7518272679 0.6521024071 0.6035353246
0.7518272679 0.6684953651 0.6284909781
0.0000000000 0.2179055085 0.1016956588
0.0000000000 0.2179055085 0.1016956588
0.0000000000 0.2179055085 0.1016956588
0.0000209812 0.2181544213 0.1015549897
0.0583934157 0.2225013352 0.0943360418
0.0863717861 0.2273527504 0.0844944495
0.1103294041 0.2321498054 0.0725204089
0.1444538224 0.2352612154 0.0712901503
0.1779201953 0.2376983673 0.0740367742
0.2102888724 0.2401860647 0.0684648470
0.2425211719 0.2430828946 0.0434863050
0.2747792210 0.2448229000 0.0158226520
0.3090543221 0.2457274739 0.0872978180
0.3426341840 0.2485055695 0.1022578584
0.3765220874 0.2538166629 0.1060893034
0.4105582895 0.2625095369 0.1066743915
0.4434748608 0.2749732967 0.1049248493
0.4753900587 0.2912894827 0.1010152018
0.5065260929 0.3114375906 0.1036869612
0.5364495117 0.3342383841 0.1330796521
0.5652532998 0.3600833524 0.1793822004
0.5928449493 0.3894574464 0.2274080644
0.6190928511 0.4217345693 0.2764648661
0.6439722095 0.4558494507 0.3263423171
0.6672312505 0.4906614786 0.3762531472
0.6890778782 0.5225180247 0.4206950484
0.7092603189 0.5506246662 0.4587558175
0.7276646067 0.5754220073 0.4915522240
0.7428616388 0.5976644160 0.5211614023
0.7512278744 0.6194757572 0.5535267414
0.7518272679 0.6373054475 0.5808375296
0.7518272679 0.6528620203 0.6046759365
0.7518272679 0.6691519799 0.6295004578
0.0000562676 0.2573600938 0.1269164378
0.0000562676 0.2573600938 0.1269164378
0.0000562676 0.2573600938 0.1269164378
0.0000071527 0.2576481079 0.1269584001
0.0624976158 0.2612945373 0.1214022087
0.0930876631 0.2653562982 0.1141546502
0.1168612192 0.2692878805 0.1065237087
0.1424114977 0.2733587015 0.0951395247
0.1787499046 0.2756404021 0.0958433471
0.2133936065 0.2774781605 0.0981894217
0.2474736782 0.2793836309 0.0921368353
0.2811541543 0.2818455787 0.0688291562
0.3142543107 0.2825412947 0.0510409514
0.3483205539 0.2828936828 0.1143382353
0.3814450294 0.2853155756 0.1316014343
0.4144245441 0.2902213512 0.1379916266
0.4462248226 0.2981841764 0.1419060426
0.4773641947 0.3096861410 0.1466482605
0.5077215419 0.3251244564 0.1544203479
0.5372158007 0.3445038911 0.1703836690
0.5658894102 0.3677071412 0.1983710994
0.5933313306 0.3946769856 0.2367756733
0.6195062753 0.4249485008 0.2812528611
0.6441948959 0.4577096208 0.3287065118
0.6675593194 0.4918864920 0.3777361334
0.6893768597 0.5233043412 0.4215953307
0.7096746967 0.5513280117 0.4596046006
0.7280022126 0.5759689479 0.4922131304
0.7431420233 0.5982251850 0.5219424735
0.7513251507 0.6199669070 0.5542539292
0.7518272679 0.6375448234 0.5811989776
0.7518272679 0.6530436980 0.6049477379
0.7518272679 0.6692807279 0.6296883345
0.0000171664 0.2974593729 0.1536831464
0.0000171664 0.2974593729 0.1536831464
0.0000171664 0.2974593729 0.1536831464
0.0000114443 0.2978127146 0.1537880522
0.0605973907 0.3008316167 0.1495784695
0.0992661364 0.3042825399 0.1438572900
0.1231574731 0.3072804608 0.1374942779
0.1485751888 0.3108086328 0.1311083772
0.1771419852 0.3141031510 0.1215094987
0.2143797208 0.3157444495 0.1233639467
0.2501668956 0.3169747082 0.1251306554
0.2847757877 0.3182917525 0.1187418936
0.3190413519 0.3198290990 0.0959010452
0.3524218929 0.3201123445 0.0816453040
0.3858052949 0.3199273289 0.1430409323
0.4180457008 0.3219081407 0.1631857023
0.4491187915 0.3265449760 0.1718070497
0.4792443923 0.3340939002 0.1783188373
0.5088435569 0.3448596170 0.1864404517
0.5376368544 0.3596828031 0.1987191958
0.5657778286 0.3785458152 0.2186121920
0.5933394369 0.4020938239 0.2488908598
0.6193360418 0.4294489586 0.2874113069
0.6442416266 0.4602883955 0.3318474861
0.6675764858 0.4931868467 0.3791237507
0.6893687533 0.5238641566 0.4221169986
0.7096293965 0.5515173190 0.4597266728
0.7279201953 0.5759412909 0.4921282521
0.7430514229 0.5981116960 0.5217364767
0.7512979706 0.6197833219 0.5539482719
0.7518272679 0.6374084459 0.5809710460
0.7518272679 0.6529626345 0.6048280499
0.7518272679 0.6691424430 0.6294708934
0.0000000000 0.3373946174 0.1818455787
0.0000000000 0.3373946174 0.1818455787
0.0000000000 0.3373946174 0.1818455787
0.0000000000 0.3377346075 0.1819929236
0.0000200275 0.3396381704 0.1811741817
0.1029068437 0.3432722019 0.1735575456
0.1300226024 0.3457904173 0.1691805905
0.1543822004 0.3482695315 0.1634899290
0.1825274662 0.3508664263 0.1580500877
0.2136110475 0.3531490806 0.1512698367
0.2510323682 0.3541886015 0.1534905013
0.2869249256 0.3551694705 0.1547112230
0.3220845731 0.3560034714 0.1470392729
0.3564350156 0.3573229000 0.1253738460
0.3891694324 0.3568427176 0.1120016976
0.4214913787 0.3561374647 0.1740520333
0.4518463416 0.3578841459 0.1967231250
0.4811441405 0.3621714542 0.2071779393
0.5101448653 0.3694128138 0.2158827344
0.5383216030 0.3798819333 0.2265249485
0.5658579385 0.3940623331 0.2416633288
0.5928568704 0.4127760929 0.2644831960
0.6189965286 0.4362993057 0.2964322499
0.6437762264 0.4640864614 0.3363174258
0.6673561837 0.4948763066 0.3807755398
0.6891541733 0.5245431830 0.4226062409
0.7095459487 0.5517757687 0.4598892767
0.7277823873 0.5759493973 0.4920276379
0.7429260128 0.5979519532 0.5214465553
0.7512135691 0.6194962615 0.5534652285
0.7518272679 0.6369301709 0.5802300298
0.7518272679 0.6524481193 0.6040302892
0.7518272679 0.6686446174 0.6287088960
0.0000524529 0.3764744030 0.2107433051
0.0000524529 0.3764744030 0.2107433051
0.0000524529 0.3764744030 0.2107433051
0.0000381476 0.3769054704 0.2109879263
0.0000352865 0.3785887312 0.2113508049
0.1010008965 0.3813644427 0.2038648241
0.1346589609 0.3836995499 0.2001831083
0.1611119059 0.3857914664 0.1962953956
0.1881837949 0.3876049058 0.1914616236
0.2186107614 0.3893940261 0.1875705730
0.2518387121 0.3906843671 0.1839465553
0.2881156062 0.3911612116 0.1863817998
0.3235513466 0.3915770199 0.1862201495
0.3584430076 0.3923285267 0.1777628367
0.3923685817 0.3932812619 0.1551155871
0.4245937285 0.3925268940 0.1434052415
0.4549477379 0.3915159838 0.2063572900
0.4833023384 0.3931267643 0.2315175097
0.5112983520 0.3970349813 0.2437886244
0.5386820974 0.4037069886 0.2540007248
0.5656586175 0.4135900664 0.2663586252
0.5924005303 0.4276197833 0.2839036393
0.6181849393 0.4462396048 0.3091105898
0.6431243801 0.4700722896 0.3432435912
0.6667362860 0.4976997024 0.3835479133
0.6887817578 0.5256270504 0.4233858816
0.7090867475 0.5518902113 0.4596589609
0.7273179408 0.5756384947 0.4914082170
0.7425764858 0.5974851225 0.5206597620
0.7510023270 0.6188596742 0.5524342908
0.7518272679 0.6361772335 0.5790255207
0.7518272679 0.6517857824 0.6030084115
0.7518272679 0.6679655909 0.6276674678
0.0001201648 0.4150439651 0.2407158389
0.0001201648 0.4150439651 0.2407158389
0.0001201648 0.4150439651 0.2407158389
0.0000114443 0.4155322538 0.2409981308
0.0000934615 0.4170705539 0.2413719768
0.0861057069 0.4189998665 0.2351858740
0.1356660563 0.4207780194 0.2312948234
0.1661531052 0.4224379149 0.2282578012
0.1944404707 0.4237997826 0.2247591936
0.2238765545 0.4250538834 0.2214332036
0.2565341993 0.4258292325 0.2194199664
0.2908665217 0.4263756962 0.2191042954
0.3255536164 0.4264400702 0.2211695087
0.3597672045 0.4266660945 0.2199850271
0.3935730907 0.4271109903 0.2103499084
0.4265359159 0.4276212139 0.1865858892
0.4574444953 0.4266918441 0.1733129244
0.4858610857 0.4255807965 0.2391136416
0.5127641718 0.4269450484 0.2671749828
0.5393544480 0.4306167506 0.2810163462
0.5655479896 0.4367012856 0.2923194667
0.5915164607 0.4460917830 0.3059181163
0.6170605402 0.4597686351 0.3253995956
0.6419761387 0.4786292630 0.3530427443
0.6658207446 0.5020556764 0.3877312696
0.6881466011 0.5274872206 0.4247591936
0.7084544518 0.5523603799 0.4596279660
0.7268196384 0.5755993935 0.4910334173
0.7421811818 0.5970554856 0.5198462654
0.7507863165 0.6182292859 0.5513647288
0.7518272679 0.6354061761 0.5777399481
0.7518272679 0.6510876822 0.6018940261
0.7518272679 0.6672751202 0.6266241321
0.0001144427 0.4521248188 0.2704737926
0.0001144427 0.4521248188 0.2704737926
0.0001144427 0.4521248188 0.2704737926
0.0000100137 0.4524605173 0.2707298581
0.0000000000 0.4540722515 0.2713817044
0.0250662814 0.4552581636 0.2679179065
0.1334058137 0.4566176471 0.2621280613
0.1699831197 0.4579337377 0.2597052148
0.2007362478 0.4588654917 0.2571488518
0.2305189975 0.4594806210 0.2543764782
0.2620088502 0.4597800793 0.2525625620
0.2957584688 0.4597261959 0.2530327306
0.3300125887 0.4594319829 0.2551804379
0.3626177806 0.4593342298 0.2568055238
0.3951733806 0.4595073243 0.2544728008
0.4275606546 0.4597519455 0.2434948882
0.4589532311 0.4602044709 0.2196688792
0.4882486458 0.4589265278 0.2045586328
0.5148708705 0.4575112535 0.2727426184
0.5403458076 0.4584883078 0.3025973716
0.5655813687 0.4616731518 0.3174505989
0.5910558289 0.4675845922 0.3298518921
0.6161287861 0.4768072404 0.3450417716
0.6408913176 0.4905036431 0.3663180934
0.6649080644 0.5089036393 0.3946059358
0.6873836500 0.5307350080 0.4272573816
0.7078650721 0.5537050813 0.4602016098
0.7263399329 0.5759570268 0.4909022850
0.7418879225 0.5969806210 0.5193904021
0.7506313420 0.6179007401 0.5506694896
0.7518272679 0.6349479286 0.5769359884
0.7518272679 0.6507028687 0.6012521935
0.7518272679 0.6668650340 0.6259632258
0.0001478218 0.4875181201 0.2998850805
0.0001478218 0.4875181201 0.2998850805
0.0001478218 0.4875181201 0.2998850805
0.0000309949 0.4879835203 0.3002160105
0.0000534066 0.4894560159 0.3009322309
0.0273961433 0.4898074502 0.2960979820
0.1358176928 0.4907115473 0.2922574769
0.1744730869 0.4915617609 0.2901178759
0.2070835241 0.4921911955 0.2883835927
0.2379472801 0.4925707637 0.2865329595
0.2688029297 0.4924372473 0.2847257191
0.3015135042 0.4919537270 0.2850065805
0.3357747768 0.4909747654 0.2880712596
0.3679894331 0.4900983253 0.2913219081
0.3982151713 0.4898374914 0.2923895628
0.4288338293 0.4897693027 0.2884536889
0.4592817769 0.4900573167 0.2769970245
0.4892085336 0.4906109331 0.2531533722
0.5172755970 0.4890387770 0.2372634852
0.5422226673 0.4872110323 0.3068064775
0.5663080797 0.4877069505 0.3375276570
0.5908169299 0.4902804799 0.3523918517
0.6153577287 0.4957880331 0.3654445144
0.6397306783 0.5047708286 0.3815671015
0.6639653429 0.5183556497 0.4040245670
0.6866526474 0.5360570687 0.4318670367
0.7074483101 0.5564478904 0.4621714542
0.7260180629 0.5772001602 0.4915269512
0.7416847868 0.5974455444 0.5195248722
0.7504954414 0.6178959716 0.5503290227
0.7518272679 0.6347757877 0.5764639124
0.7518272679 0.6504234379 0.6007176509
0.7518272679 0.6665774968 0.6254568170
0.0276045243 0.5196641108 0.3242809186
0.0276045243 0.5196641108 0.3242809186
0.0276045243 0.5196641108 0.3242809186
0.0298299573 0.5199607080 0.3244096666
0.0666475929 0.5210259785 0.3231984817
0.1241707675 0.5220035096 0.3220054170
0.1552748531 0.5230220493 0.3210374228
0.1872219997 0.5236147669 0.3200222210
0.2172131304 0.5238870451 0.3187752728
0.2467331388 0.5238398375 0.3174386778
0.2768625544 0.5233262760 0.3161678874
0.3074735828 0.5225638018 0.3154488060
0.3404364080 0.5212710765 0.3174715801
0.3739614328 0.5195301175 0.3230125124
0.4037460899 0.5184395743 0.3265621424
0.4318336576 0.5180590524 0.3271806096
0.4601758602 0.5180409323 0.3224641413
