public/luts/LunaUltra/Luna_I-Log_to_Rec709_BT1886_s33_v2.cube
# Version 2.0
# Create Date 2026.05.20
# Output: Rec709 / BT1886
TITLE "Insta360 I-Log to Rec709 Rendering LUT"
LUT_3D_SIZE 33
0.0005035477 0.0013122759 0.0011749447
0.0005035477 0.0013122759 0.0011749447
0.0005035477 0.0013122759 0.0011749447
0.0030341611 0.0000000000 0.0003290227
0.0174334325 0.0000000000 0.0019703212
0.0308742466 0.0000000000 0.0035028992
0.0451094835 0.0000000000 0.0051289387
0.0626077668 0.0000219348 0.0071302548
0.0842450599 0.0000457771 0.0096131838
0.1131289578 0.0000000000 0.0067149233
0.1513017853 0.0244268330 0.0000305180
0.1962310216 0.0433213169 0.0000071527
0.2502098116 0.0635004196 0.0000267033
0.3121838521 0.0865978103 0.0000829709
0.3819132906 0.1116054398 0.0000610361
0.4575269894 0.1391513123 0.0000772488
0.5373922332 0.1687190051 0.0001525902
0.6199106394 0.1994482910 0.0000033379
0.7031977188 0.2302576867 0.0001068132
0.7863059815 0.2604653048 0.0001735714
0.8691195544 0.2879739834 0.0000801099
0.9905732624 0.2557331006 0.0902647440
1.0000000000 0.3455558099 0.2285467689
1.0000000000 0.4264906157 0.3233534562
1.0000000000 0.4973601892 0.4046463722
1.0000000000 0.5616221294 0.4789721141
1.0000000000 0.6184328985 0.5457179370
1.0000000000 0.6698715381 0.6066367208
1.0000000000 0.7187457084 0.6646887160
1.0000000000 0.7662017433 0.7209835393
1.0000000000 0.8071183337 0.7695277333
1.0000000000 0.8425631342 0.8116121157
1.0000000000 0.8826123445 0.8592050050
0.0005035477 0.0013122759 0.0011749447
0.0005035477 0.0013122759 0.0011749447
0.0005035477 0.0013122759 0.0011749447
0.0030341611 0.0000000000 0.0003290227
0.0174334325 0.0000000000 0.0019703212
0.0308742466 0.0000000000 0.0035028992
0.0451094835 0.0000000000 0.0051289387
0.0626077668 0.0000219348 0.0071302548
0.0842450599 0.0000457771 0.0096131838
0.1131289578 0.0000000000 0.0067149233
0.1513017853 0.0244268330 0.0000305180
0.1962310216 0.0433213169 0.0000071527
0.2502098116 0.0635004196 0.0000267033
0.3121838521 0.0865978103 0.0000829709
0.3819132906 0.1116054398 0.0000610361
0.4575269894 0.1391513123 0.0000772488
0.5373922332 0.1687190051 0.0001525902
0.6199106394 0.1994482910 0.0000033379
0.7031977188 0.2302576867 0.0001068132
0.7863059815 0.2604653048 0.0001735714
0.8691195544 0.2879739834 0.0000801099
0.9905732624 0.2557331006 0.0902647440
1.0000000000 0.3455558099 0.2285467689
1.0000000000 0.4264906157 0.3233534562
1.0000000000 0.4973601892 0.4046463722
1.0000000000 0.5616221294 0.4789721141
1.0000000000 0.6184328985 0.5457179370
1.0000000000 0.6698715381 0.6066367208
1.0000000000 0.7187457084 0.6646887160
1.0000000000 0.7662017433 0.7209835393
1.0000000000 0.8071183337 0.7695277333
1.0000000000 0.8425631342 0.8116121157
1.0000000000 0.8826123445 0.8592050050
0.0005035477 0.0013122759 0.0011749447
0.0005035477 0.0013122759 0.0011749447
0.0005035477 0.0013122759 0.0011749447
0.0030341611 0.0000000000 0.0003290227
0.0174334325 0.0000000000 0.0019703212
0.0308742466 0.0000000000 0.0035028992
0.0451094835 0.0000000000 0.0051289387
0.0626077668 0.0000219348 0.0071302548
0.0842450599 0.0000457771 0.0096131838
0.1131289578 0.0000000000 0.0067149233
0.1513017853 0.0244268330 0.0000305180
0.1962310216 0.0433213169 0.0000071527
0.2502098116 0.0635004196 0.0000267033
0.3121838521 0.0865978103 0.0000829709
0.3819132906 0.1116054398 0.0000610361
0.4575269894 0.1391513123 0.0000772488
0.5373922332 0.1687190051 0.0001525902
0.6199106394 0.1994482910 0.0000033379
0.7031977188 0.2302576867 0.0001068132
0.7863059815 0.2604653048 0.0001735714
0.8691195544 0.2879739834 0.0000801099
0.9905732624 0.2557331006 0.0902647440
1.0000000000 0.3455558099 0.2285467689
1.0000000000 0.4264906157 0.3233534562
1.0000000000 0.4973601892 0.4046463722
1.0000000000 0.5616221294 0.4789721141
1.0000000000 0.6184328985 0.5457179370
1.0000000000 0.6698715381 0.6066367208
1.0000000000 0.7187457084 0.6646887160
1.0000000000 0.7662017433 0.7209835393
1.0000000000 0.8071183337 0.7695277333
1.0000000000 0.8425631342 0.8116121157
1.0000000000 0.8826123445 0.8592050050
0.0000000000 0.0033898871 0.0014844167
0.0000000000 0.0033898871 0.0014844167
0.0000000000 0.0033898871 0.0014844167
0.0046044099 0.0046191920 0.0000000000
0.0186379416 0.0035353246 0.0011501488
0.0317277981 0.0026398108 0.0020022698
0.0455415045 0.0000000000 0.0045986877
0.0627684634 0.0000181201 0.0071517128
0.0845178149 0.0000405318 0.0095230602
0.1142075799 0.0000033379 0.0042820630
0.1516947051 0.0258692874 0.0000348096
0.1966220340 0.0441934653 0.0000119211
0.2507815480 0.0641770619 0.0000243191
0.3129119936 0.0872177081 0.0000729572
0.3827177272 0.1121595331 0.0000906004
0.4584635119 0.1396787022 0.0000543603
0.5381198978 0.1691286145 0.0001640345
0.6207107843 0.1998326276 0.0001764324
0.7043640803 0.2307378691 0.0000033379
0.7875457771 0.2609445335 0.0001068132
0.8707413024 0.2877293622 0.0002446212
0.9915078775 0.2565060655 0.0925087739
1.0000000000 0.3463936255 0.2295529107
1.0000000000 0.4273150797 0.3243042840
1.0000000000 0.4984869726 0.4059266995
1.0000000000 0.5626020447 0.4801251240
1.0000000000 0.6193818189 0.5468447204
1.0000000000 0.6708242733 0.6077706569
1.0000000000 0.7198124094 0.6659471084
1.0000000000 0.7670519570 0.7220001717
1.0000000000 0.8080515183 0.7706425956
1.0000000000 0.8437900549 0.8130664912
1.0000000000 0.8838211452 0.8606317235
0.0000000000 0.0194552529 0.0085107195
0.0000000000 0.0194552529 0.0085107195
0.0000000000 0.0194552529 0.0085107195
0.0000090600 0.0204036965 0.0064402609
0.0265335317 0.0263694972 0.0000019074
0.0413009270 0.0283202678 0.0000152590
0.0560521096 0.0299353399 0.0000152590
0.0732061112 0.0320339322 0.0000109674
0.0949073014 0.0339246204 0.0000286107
0.1218332761 0.0376196880 0.0000252728
0.1562895781 0.0447270542 0.0000495918
0.1998426413 0.0555929084 0.0000438697
0.2532654307 0.0711718929 0.0000324254
0.3153901541 0.0913605325 0.0000910773
0.3851939803 0.1149061570 0.0000419623
0.4614595254 0.1418822004 0.0001091974
0.5415655756 0.1710650797 0.0000247959
0.6245369841 0.2016169795 0.0002045663
0.7084019989 0.2324473564 0.0001401923
0.7919561112 0.2626111048 0.0001525902
0.8775597009 0.2870775158 0.0000286107
0.9963960098 0.2610170138 0.1046988251
1.0000000000 0.3531481270 0.2377946899
1.0000000000 0.4332503624 0.3311365110
1.0000000000 0.5037823301 0.4120222019
1.0000000000 0.5674372473 0.4857785916
1.0000000000 0.6243228809 0.5526827268
1.0000000000 0.6758902686 0.6137912947
1.0000000000 0.7250038148 0.6721122301
1.0000000000 0.7722447929 0.7281571870
1.0000000000 0.8130588617 0.7765754940
1.0000000000 0.8489409285 0.8191858358
1.0000000000 0.8885137713 0.8662260624
0.0000157359 0.0344529641 0.0150701915
0.0000157359 0.0344529641 0.0150701915
0.0000157359 0.0344529641 0.0150701915
0.0000000000 0.0349617571 0.0145170520
0.0273999580 0.0421287289 0.0000286107
0.0466921302 0.0464274815 0.0000252728
0.0630354963 0.0487902457 0.0000205043
0.0841959449 0.0504859045 0.0005784123
0.1069905394 0.0527456703 0.0007562753
0.1306224727 0.0586499580 0.0000357633
0.1633964675 0.0653033684 0.0000143053
0.2056687266 0.0738460365 0.0000514992
0.2578340772 0.0854395552 0.0000867857
0.3189359693 0.1012922484 0.0000629435
0.3884541657 0.1219195850 0.0000534066
0.4650120165 0.1469558251 0.0001268406
0.5456526093 0.1749437324 0.0001087205
0.6291232738 0.2047155146 0.0000419623
0.7136019875 0.2352125772 0.0000967994
0.7974488823 0.2650468261 0.0001134890
0.8878323606 0.2804255360 0.0003094720
0.9981355383 0.2665202754 0.1166928931
1.0000000000 0.3599560349 0.2459472992
1.0000000000 0.4394426642 0.3382333867
1.0000000000 0.5097223812 0.4188453689
1.0000000000 0.5727860113 0.4920333600
1.0000000000 0.6291495003 0.5583824483
1.0000000000 0.6806596666 0.6194461929
1.0000000000 0.7300402457 0.6780847066
1.0000000000 0.7775077249 0.7343990806
1.0000000000 0.8184786755 0.7830162318
1.0000000000 0.8545581559 0.8258573663
1.0000000000 0.8935893034 0.8722590982
0.0000000000 0.0502870603 0.0232452125
0.0000000000 0.0502870603 0.0232452125
0.0000000000 0.0502870603 0.0232452125
0.0000000000 0.0505312047 0.0226944572
0.0226262684 0.0584058137 0.0000295644
0.0484326123 0.0630626764 0.0000429160
0.0675469215 0.0671988251 0.0000181201
0.0876630808 0.0701328489 0.0000305180
0.1155889982 0.0716687648 0.0069867247
0.1444638361 0.0736691272 0.0089761196
0.1747482261 0.0797398337 0.0000610361
0.2116783970 0.0909494926 0.0000205043
0.2628070878 0.1012664988 0.0000314717
0.3231169413 0.1145442321 0.0000185969
0.3922798886 0.1321583886 0.0000677119
0.4687948234 0.1544723239 0.0001297017
0.5495145724 0.1803644999 0.0000171664
0.6330934806 0.2087548638 0.0001750019
0.7188248646 0.2387541009 0.0001583124
0.8032673381 0.2680228122 0.0001549744
0.8991407263 0.2751163500 0.0000629435
0.9990773060 0.2741755360 0.1309047646
1.0000000000 0.3671940566 0.2544995041
1.0000000000 0.4456220912 0.3452973602
1.0000000000 0.5157883192 0.4258106355
1.0000000000 0.5784113451 0.4986161975
1.0000000000 0.6342727169 0.5644474327
1.0000000000 0.6859321355 0.6257090677
1.0000000000 0.7353732738 0.6844233997
1.0000000000 0.7828989281 0.7407930877
1.0000000000 0.8236228733 0.7891231785
1.0000000000 0.8597543297 0.8320310712
1.0000000000 0.8982700084 0.8778133822
0.0000000000 0.0701347562 0.0378352216
0.0000000000 0.0701347562 0.0378352216
0.0000000000 0.0701347562 0.0378352216
0.0000453002 0.0702763790 0.0377102884
0.0036416609 0.0784900244 0.0276092927
0.0419694629 0.0846575303 0.0012312123
0.0690694858 0.0878509575 0.0000510224
0.0922803655 0.0918988899 0.0000438697
0.1178330282 0.0952377546 0.0000457771
0.1531071183 0.0963049325 0.0124470703
0.1890273327 0.0977178225 0.0156610018
0.2277962158 0.1032134546 0.0091630426
0.2731388762 0.1151665141 0.0000610361
0.3282778286 0.1316987106 0.0000987068
0.3967884527 0.1467870222 0.0000944152
0.4731932364 0.1660496300 0.0000915541
0.5541227970 0.1890416381 0.0001530671
0.6380054551 0.2152451934 0.0000491150
0.7237530518 0.2435306516 0.0000514992
0.8084654192 0.2716015297 0.0002875372
0.9158345731 0.2591711490 0.0130955787
0.9999260891 0.2820887694 0.1439469368
1.0000000000 0.3743691348 0.2628042267
1.0000000000 0.4517524033 0.3522464141
1.0000000000 0.5211413748 0.4319414244
1.0000000000 0.5831411650 0.5041437781
1.0000000000 0.6386263066 0.5695863851
1.0000000000 0.6904554818 0.6310740444
1.0000000000 0.7400153544 0.6899328603
1.0000000000 0.7878809987 0.7467150187
1.0000000000 0.8283960861 0.7947904746
1.0000000000 0.8645251583 0.8377017052
1.0000000000 0.9022712100 0.8825842107
0.0000228885 0.0944991226 0.0550240330
0.0000228885 0.0944991226 0.0550240330
0.0000228885 0.0944991226 0.0550240330
0.0000000000 0.0946321622 0.0549606126
0.0000000000 0.1019932097 0.0498817426
0.0153944457 0.1105830854 0.0331068322
0.0575455863 0.1153257801 0.0137350271
0.0923099298 0.1180862325 0.0039330129
0.1223277638 0.1216868849 0.0000762951
0.1539859426 0.1250925078 0.0000281338
0.1975404364 0.1251106279 0.0191338598
0.2411798085 0.1256561379 0.0240620470
0.2909552148 0.1295719844 0.0232452125
0.3465600443 0.1387717441 0.0167172122
0.4045881971 0.1604333562 0.0001029984
0.4765635729 0.1817339971 0.0001029984
0.5574387732 0.2014496071 0.0001602197
0.6414830816 0.2246299687 0.0001711872
0.7279144732 0.2503862440 0.0001869230
0.8128442817 0.2762154765 0.0001649882
0.9277065690 0.2522049287 0.0343823911
1.0000000000 0.2900535019 0.1556758793
1.0000000000 0.3806401160 0.2698643854
1.0000000000 0.4570463302 0.3581459335
1.0000000000 0.5261577783 0.4376478218
1.0000000000 0.5877188716 0.5094787137
1.0000000000 0.6428492409 0.5745651179
1.0000000000 0.6945882925 0.6359864958
1.0000000000 0.7442511635 0.6949454490
1.0000000000 0.7919489586 0.7515325780
1.0000000000 0.8323863203 0.7995126650
1.0000000000 0.8685244526 0.8424544137
1.0000000000 0.9056801709 0.8866292821
0.0000000000 0.1238636797 0.0742675669
0.0000000000 0.1238636797 0.0742675669
0.0000000000 0.1238636797 0.0742675669
0.0000000000 0.1240959030 0.0740906577
0.0000166896 0.1305437934 0.0704342145
0.0113245785 0.1392533570 0.0622148470
0.0246042191 0.1467450599 0.0410801480
0.0762016480 0.1514057374 0.0222858015
0.1200684749 0.1539759289 0.0179870489
0.1584091516 0.1572599565 0.0000915541
0.1976610780 0.1598973831 0.0000638972
0.2491631380 0.1583333333 0.0280394064
0.3028753719 0.1574120699 0.0353561074
0.3621299687 0.1595387961 0.0364724002
0.4266703861 0.1660715648 0.0351467727
0.4963044556 0.1801494430 0.0290274281
0.5646529526 0.2105878538 0.0001482986
0.6438706416 0.2373688678 0.0000047684
0.7301575494 0.2594725147 0.0001058595
0.8189149882 0.2758940833 0.0001902609
0.9381213283 0.2483787289 0.0564688716
1.0000000000 0.2982084955 0.1665965705
1.0000000000 0.3864394980 0.2760590715
1.0000000000 0.4614890898 0.3629158083
1.0000000000 0.5298480774 0.4417563134
1.0000000000 0.5907415885 0.5129649233
1.0000000000 0.6456454566 0.5778520066
1.0000000000 0.6974722477 0.6393878271
1.0000000000 0.7472958152 0.6985580224
1.0000000000 0.7950398642 0.7551909285
1.0000000000 0.8350189784 0.8026483940
1.0000000000 0.8710893988 0.8455057412
1.0000000000 0.9078154803 0.8891703861
0.0000524529 0.1596084154 0.0972066453
0.0000524529 0.1596084154 0.0972066453
0.0000524529 0.1596084154 0.0972066453
0.0000505455 0.1599488823 0.0973153658
0.0000963226 0.1657768750 0.0943989853
0.0000052453 0.1736414702 0.0885862516
0.0200236515 0.1818026627 0.0786106661
0.0349250401 0.1891699092 0.0518968872
0.0991426337 0.1933546960 0.0312380789
0.1524891279 0.1956926642 0.0274390593
0.2003080415 0.1986781872 0.0053158618
0.2476048104 0.2003538186 0.0000824941
0.3084430076 0.1964971008 0.0395189593
0.3718380446 0.1933308537 0.0492942702
0.4391927977 0.1927243076 0.0517853056
0.5119287404 0.1961203937 0.0522411688
0.5883001450 0.2046463722 0.0509737163
0.6679570077 0.2190504120 0.0472858015
0.7528973068 0.2356412604 0.0425211719
0.8443927863 0.2454203861 0.0497105554
0.9459401465 0.2482270924 0.0723687724
1.0000000000 0.3054970626 0.1748779278
1.0000000000 0.3912575341 0.2805981537
1.0000000000 0.4650773442 0.3664587625
1.0000000000 0.5329184787 0.4450360494
1.0000000000 0.5932912757 0.5158312352
1.0000000000 0.6478894865 0.5804627298
1.0000000000 0.6994821469 0.6417462997
1.0000000000 0.7491521706 0.7007495995
1.0000000000 0.7968695163 0.7573586633
1.0000000000 0.8368152514 0.8047760739
1.0000000000 0.8728613527 0.8476057641
1.0000000000 0.9092202640 0.8908445869
0.0000238422 0.2019407568 0.1244358930
0.0000238422 0.2019407568 0.1244358930
0.0000238422 0.2019407568 0.1244358930
0.0000906004 0.2022626268 0.1245727474
0.0000247959 0.2076600290 0.1224536507
0.0000886931 0.2151584077 0.1181157969
0.0091005760 0.2228060388 0.1117413405
0.0298042077 0.2309863050 0.0995226787
0.0479834249 0.2382815480 0.0659680896
0.1251974136 0.2418693256 0.0429055085
0.1903801404 0.2432784009 0.0386711299
0.2478422789 0.2456540398 0.0226472496
0.3043707561 0.2457899405 0.0106012055
0.3748884184 0.2393468185 0.0536526284
0.4466291867 0.2337520027 0.0650749599
0.5217026207 0.2301852064 0.0688081750
0.5999341955 0.2296053635 0.0707722972
0.6815890364 0.2328274014 0.0720798047
0.7672260052 0.2395957313 0.0733086328
0.8568541619 0.2472219043 0.0758711948
0.9535057603 0.2552176318 0.0876873999
1.0000000000 0.3160458152 0.1853341726
1.0000000000 0.3970678836 0.2853942550
1.0000000000 0.4685673686 0.3694085222
1.0000000000 0.5351033799 0.4470583467
1.0000000000 0.5949192226 0.5175054360
1.0000000000 0.6492489700 0.5819728962
1.0000000000 0.7006618601 0.6431105516
1.0000000000 0.7503547723 0.7021472305
1.0000000000 0.7979228656 0.7586013199
1.0000000000 0.8373660067 0.8054298276
1.0000000000 0.8732681010 0.8480830854
1.0000000000 0.9094954032 0.8911564431
0.0000000000 0.2512149996 0.1557888914
0.0000000000 0.2512149996 0.1557888914
0.0000000000 0.2512149996 0.1557888914
0.0001244564 0.2517838750 0.1561026551
0.0001850156 0.2563935302 0.1546845197
0.0000171664 0.2637011711 0.1509761006
0.0001659419 0.2704461357 0.1458953231
0.0224317159 0.2782644770 0.1385805295
0.0416838331 0.2865548943 0.1226348516
0.0636401350 0.2937132830 0.0815771153
0.1560435264 0.2963845655 0.0565995270
0.2324573701 0.2968533036 0.0524338140
0.3006141756 0.2978179599 0.0369554437
0.3659637980 0.2960641260 0.0298461700
0.4451047150 0.2867151141 0.0688324941
0.5249861715 0.2782849813 0.0827501526
0.6058899825 0.2719882506 0.0879930571
0.6887860494 0.2680099374 0.0908536469
0.7750095369 0.2664272908 0.0929865721
0.8643744755 0.2674663348 0.0954966812
0.9584420539 0.2720645457 0.1046349279
1.0000000000 0.3301828222 0.1964823186
1.0000000000 0.4044680323 0.2904077974
1.0000000000 0.4726896887 0.3722452697
1.0000000000 0.5373502708 0.4487258717
1.0000000000 0.5959425307 0.5182893683
1.0000000000 0.6496356909 0.5822346838
1.0000000000 0.7006017777 0.6429484245
1.0000000000 0.7501049058 0.7018253605
1.0000000000 0.7975165942 0.7581187533
1.0000000000 0.8370374609 0.8050383383
1.0000000000 0.8730721180 0.8478480011
1.0000000000 0.9091916533 0.8908007172
0.0000128748 0.3070749409 0.1912551499
0.0000128748 0.3070749409 0.1912551499
0.0000128748 0.3070749409 0.1912551499
0.0000000000 0.3075269894 0.1914830816
0.0000190738 0.3100022889 0.1923976692
0.0001001373 0.3187986381 0.1871781300
0.0000000000 0.3253137636 0.1830839437
0.0014333944 0.3317969406 0.1772611963
0.0352697986 0.3393577859 0.1675011444
0.0560988403 0.3471818494 0.1473806935
0.0830395972 0.3541123064 0.0969920653
0.1912031739 0.3559734302 0.0727287900
0.2799057755 0.3551394293 0.0677238308
0.3581502251 0.3547360189 0.0530494202
0.4320086595 0.3503075647 0.0459883078
0.5193851568 0.3376630808 0.0865224689
0.6053416114 0.3262097543 0.1032144083
0.6910892081 0.3167591745 0.1099693866
0.7793421454 0.3089441711 0.1132825017
0.8697904746 0.3032153620 0.1161688411
0.9622730220 0.3025067712 0.1259842069
1.0000000000 0.3516694324 0.2109616999
1.0000000000 0.4160887312 0.2976825360
1.0000000000 0.4788524262 0.3760566873
1.0000000000 0.5401789120 0.4503738460
1.0000000000 0.5971470397 0.5189373999
1.0000000000 0.6501401923 0.5824926566
1.0000000000 0.7005898566 0.6427791447
1.0000000000 0.7497734989 0.7013628214
1.0000000000 0.7969095712 0.7573634318
1.0000000000 0.8359688525 0.8037541962
1.0000000000 0.8719191081 0.8464680133
1.0000000000 0.9081278134 0.8895256352
0.0000000000 0.3681048295 0.2300869764
0.0000000000 0.3681048295 0.2300869764
0.0000000000 0.3681048295 0.2300869764
0.0000095369 0.3688382162 0.2305108911
0.0000095369 0.3713750286 0.2317511635
0.0000600824 0.3787870985 0.2266069657
0.0000000000 0.3853198672 0.2230010681
0.0000000000 0.3914601930 0.2184810597
0.0210908293 0.3977922103 0.2110351339
0.0498650530 0.4049510758 0.1986462387
0.0737115663 0.4121213855 0.1735246433
0.1062795644 0.4188444152 0.1143959335
0.2310597391 0.4190165560 0.0918144884
0.3307087816 0.4170037957 0.0858114939
0.4188878080 0.4149738689 0.0700045777
0.5012326429 0.4075255589 0.0629935340
0.5948758297 0.3919642176 0.1065880827
0.6864347295 0.3775587472 0.1272678721
0.7776007095 0.3644569696 0.1355354009
0.8697380217 0.3530684939 0.1398646715
0.9618467231 0.3464961471 0.1507333867
1.0000000000 0.3821159495 0.2284356641
1.0000000000 0.4340648127 0.3082751583
1.0000000000 0.4889896620 0.3822189479
1.0000000000 0.5452821012 0.4535086213
1.0000000000 0.5990873198 0.5198834592
1.0000000000 0.6504205768 0.5822184710
1.0000000000 0.6998521782 0.6416304265
1.0000000000 0.7487487602 0.7000371939
1.0000000000 0.7955534257 0.7557025826
1.0000000000 0.8342669947 0.8016994736
1.0000000000 0.8703502899 0.8445940146
1.0000000000 0.9066863127 0.8878204395
0.0000000000 0.4333891241 0.2716897459
0.0000000000 0.4333891241 0.2716897459
0.0000000000 0.4333891241 0.2716897459
0.0000000000 0.4342216945 0.2721785115
0.0003314069 0.4370565347 0.2736824788
0.0000000000 0.4427553025 0.2688940070
0.0000000000 0.4489113642 0.2648627642
0.0000610361 0.4545586328 0.2609478714
0.0002851530 0.4601935035 0.2551060502
0.0375491150 0.4661821927 0.2459706645
0.0665641451 0.4727187762 0.2304546235
0.0940089265 0.4796568627 0.2007901312
0.1345263981 0.4865596628 0.1327439536
0.2741555085 0.4852450027 0.1143930724
0.3839880407 0.4813391699 0.1070139048
0.4815265698 0.4771443694 0.0891508354
0.5696102274 0.4667029068 0.0793016136
0.6692530709 0.4484249828 0.1289764057
0.7669432364 0.4309004730 0.1551413367
0.8626568818 0.4151388571 0.1663810369
0.9563115129 0.4027323186 0.1785276951
1.0000000000 0.4224083505 0.2485389487
1.0000000000 0.4597834173 0.3221222438
1.0000000000 0.5042267491 0.3909456779
1.0000000000 0.5529321164 0.4578212024
1.0000000000 0.6026135843 0.5217555505
1.0000000000 0.6516036278 0.5825727665
1.0000000000 0.6997010185 0.6409919318
1.0000000000 0.7478174830 0.6987263485
1.0000000000 0.7942249371 0.7540417334
1.0000000000 0.8327401389 0.7998450256
1.0000000000 0.8686961166 0.8426074807
1.0000000000 0.9052228771 0.8860718509
0.0001678492 0.5003433280 0.3142595560
0.0001678492 0.5003433280 0.3142595560
0.0001678492 0.5003433280 0.3142595560
0.0002212558 0.5009794385 0.3146305409
0.0002746624 0.5040531777 0.3163004501
0.0002918288 0.5080276761 0.3133745327
0.0002021820 0.5145370794 0.3072699702
0.0000934615 0.5199087320 0.3038076028
0.0000724804 0.5248455024 0.2990157931
0.0002288853 0.5298194667 0.2917219806
0.0533569848 0.5349975204 0.2803406577
0.0856355383 0.5408178836 0.2618138209
0.1178892958 0.5476443885 0.2267719539
0.1686737049 0.5552595941 0.1519965476
0.3221990158 0.5521944381 0.1403906310
0.4407873655 0.5463550011 0.1311675059
0.5448462654 0.5400930800 0.1110246433
0.6379801823 0.5261677920 0.0973821241
0.7439497978 0.5047207599 0.1549649042
0.8456239986 0.4849426833 0.1883225566
0.9437247272 0.4673952850 0.2065671015
0.9991702907 0.4722695888 0.2708915084
1.0000000000 0.4951686122 0.3409475853
1.0000000000 0.5270423247 0.4045090410
1.0000000000 0.5659342336 0.4659533074
1.0000000000 0.6091234646 0.5258368620
1.0000000000 0.6543783856 0.5841601816
1.0000000000 0.7005216678 0.6411936370
1.0000000000 0.7476100557 0.6981441215
1.0000000000 0.7934891661 0.7530193790
1.0000000000 0.8317435340 0.7985914015
1.0000000000 0.8678349355 0.8415507935
1.0000000000 0.9044022278 0.8850690471
0.0000157359 0.5672231441 0.3562747959
0.0000157359 0.5672231441 0.3562747959
0.0000157359 0.5672231441 0.3562747959
0.0000152590 0.5681177043 0.3567173075
0.0000000000 0.5712944419 0.3576676585
0.0000000000 0.5754873350 0.3524142634
0.0000686656 0.5804112306 0.3483162623
0.0000000000 0.5849112116 0.3453536278
0.0000734340 0.5892938888 0.3414854658
0.0000000000 0.5938439384 0.3358587015
0.0208581292 0.5981512741 0.3269188220
0.0706635767 0.6028648814 0.3136277371
0.1081111238 0.6082732509 0.2918535897
0.1459368086 0.6154230564 0.2522755016
0.2151030938 0.6233505951 0.1788438430
0.3740830282 0.6178706989 0.1697170405
0.4972276265 0.6103875792 0.1584225032
0.6069018463 0.6018530175 0.1352893492
0.7060683223 0.5840581369 0.1178454261
0.8172245747 0.5604509995 0.1854409857
0.9218389982 0.5382605669 0.2282339590
0.9925817311 0.5288071260 0.2900258450
1.0000000000 0.5376788167 0.3608911269
1.0000000000 0.5568183986 0.4214456016
1.0000000000 0.5847891394 0.4778887236
1.0000000000 0.6198376822 0.5330119402
1.0000000000 0.6600452049 0.5881680591
1.0000000000 0.7032983330 0.6432359617
1.0000000000 0.7485494392 0.6986700809
1.0000000000 0.7935707065 0.7528682193
1.0000000000 0.8313968681 0.7980644884
1.0000000000 0.8672250515 0.8407749676
1.0000000000 0.9037971122 0.8843275540
0.0000000000 0.6333133059 0.3895656901
0.0000000000 0.6333133059 0.3895656901
0.0000000000 0.6333133059 0.3895656901
0.0000000000 0.6339928092 0.3897607195
0.0000000000 0.6379072251 0.3886177234
0.0000486381 0.6417272259 0.3875882162
0.0000000000 0.6456540398 0.3865453574
0.0000000000 0.6492308499 0.3847471771
0.0002937362 0.6527656977 0.3818484398
0.0001068132 0.6562929160 0.3773761158
0.0002384222 0.6597657740 0.3704633021
0.0426022354 0.6636739910 0.3601858740
0.0896009766 0.6681353475 0.3449359121
0.1329981117 0.6737110895 0.3210603113
0.1774776837 0.6821355001 0.2780518044
0.2655026894 0.6899781605 0.2102001793
0.4247539483 0.6825417716 0.2035076677
0.5512283513 0.6729438468 0.1896787022
