public/luts/LunaUltra/Luna_I-Log_to_Rec2020_St2084_1K_DW203_s65_v2.cube
# Version 2.0
# Create Date 2026.05.20
# Output: ST2084 / Rec2020 / 1000 nits / 203 nits Diffuse White
TITLE "Insta360 I-Log to PQ Rendering LUT"
LUT_3D_SIZE 65
0.0007476921 0.0010376135 0.0009613184
0.0007476921 0.0010376135 0.0009613184
0.0007476921 0.0010376135 0.0009613184
0.0007476921 0.0010376135 0.0009613184
0.0007476921 0.0010376135 0.0009613184
0.0007476921 0.0010376135 0.0009613184
0.0023465515 0.0000557908 0.0001359007
0.0108443961 0.0004768444 0.0000000000
0.0201533532 0.0011921111 0.0000000000
0.0294713703 0.0021133745 0.0000000000
0.0388995384 0.0032458801 0.0000000000
0.0488586728 0.0046084630 0.0000000000
0.0598630503 0.0063029297 0.0000000000
0.0716790169 0.0083342870 0.0000000000
0.0847333486 0.0107743000 0.0000000000
0.0986424239 0.0135862516 0.0000000000
0.1133669032 0.0167696651 0.0000000000
0.1290705825 0.0203600652 0.0000000000
0.1472691119 0.0284442473 0.0000000000
0.1671172847 0.0405301080 0.0000000000
0.1866588464 0.0545405127 0.0000152590
0.2067251755 0.0676866369 0.0000140669
0.2276865415 0.0802796216 0.0000152590
0.2485391871 0.0933346685 0.0000152590
0.2697013046 0.1069695583 0.0000095369
0.2904557202 0.1206576162 0.0000152590
0.3114332990 0.1348511292 0.0000152590
0.3320863851 0.1494847696 0.0000050069
0.3519951171 0.1641250858 0.0000152590
0.3719725147 0.1792391470 0.0000030995
0.3908941787 0.1942149233 0.0000147822
0.4094775216 0.2092948901 0.0000040532
0.4275349050 0.2244602121 0.0000305180
0.4450913634 0.2395828565 0.0000152590
0.4619025139 0.2559452964 0.0000157359
0.4776784352 0.2715013924 0.0000183585
0.4936169604 0.2873521782 0.0000133516
0.5088666838 0.3028758488 0.0000205043
0.5236295491 0.3182269017 0.0000319486
0.5385006580 0.3334301328 0.0000262264
0.5533703365 0.3444781415 0.0000095369
0.5674553674 0.3537861448 0.1299675269
0.5806844625 0.3688458457 0.1845268750
0.5939457446 0.3850657092 0.2172055009
0.6069514382 0.4019016556 0.2456750210
0.6195451381 0.4191112097 0.2723613813
0.6320086595 0.4366116388 0.2985198749
0.6439533742 0.4541871710 0.3242186904
0.6556115053 0.4719462882 0.3497024491
0.6668881609 0.4893551633 0.3745522431
0.6777685588 0.5057993820 0.3976386664
0.6884491588 0.5213731212 0.4192158770
0.6984931716 0.5355420768 0.4385223545
0.7082799268 0.5490067330 0.4566591325
0.7173604753 0.5615000572 0.4732595178
0.7261344129 0.5732802605 0.4887667372
0.7340981918 0.5841096361 0.5028973068
0.7412968738 0.5948193236 0.5172443637
0.7465171283 0.6055304417 0.5326175898
0.7500753414 0.6155334459 0.5475399596
0.7518272679 0.6241397726 0.5606441215
0.7518272679 0.6310318437 0.5711807145
0.7518272679 0.6397931449 0.5846537156
0.7518272679 0.6486564908 0.5982568952
0.7518272679 0.6571297780 0.6112306401
0.0007476921 0.0010376135 0.0009613184
0.0007476921 0.0010376135 0.0009613184
0.0007476921 0.0010376135 0.0009613184
0.0007476921 0.0010376135 0.0009613184
0.0007476921 0.0010376135 0.0009613184
0.0007476921 0.0010376135 0.0009613184
0.0023465515 0.0000557908 0.0001359007
0.0108443961 0.0004768444 0.0000000000
0.0201533532 0.0011921111 0.0000000000
0.0294713703 0.0021133745 0.0000000000
0.0388995384 0.0032458801 0.0000000000
0.0488586728 0.0046084630 0.0000000000
0.0598630503 0.0063029297 0.0000000000
0.0716790169 0.0083342870 0.0000000000
0.0847333486 0.0107743000 0.0000000000
0.0986424239 0.0135862516 0.0000000000
0.1133669032 0.0167696651 0.0000000000
0.1290705825 0.0203600652 0.0000000000
0.1472691119 0.0284442473 0.0000000000
0.1671172847 0.0405301080 0.0000000000
0.1866588464 0.0545405127 0.0000152590
0.2067251755 0.0676866369 0.0000140669
0.2276865415 0.0802796216 0.0000152590
0.2485391871 0.0933346685 0.0000152590
0.2697013046 0.1069695583 0.0000095369
0.2904557202 0.1206576162 0.0000152590
0.3114332990 0.1348511292 0.0000152590
0.3320863851 0.1494847696 0.0000050069
0.3519951171 0.1641250858 0.0000152590
0.3719725147 0.1792391470 0.0000030995
0.3908941787 0.1942149233 0.0000147822
0.4094775216 0.2092948901 0.0000040532
0.4275349050 0.2244602121 0.0000305180
0.4450913634 0.2395828565 0.0000152590
0.4619025139 0.2559452964 0.0000157359
0.4776784352 0.2715013924 0.0000183585
0.4936169604 0.2873521782 0.0000133516
0.5088666838 0.3028758488 0.0000205043
0.5236295491 0.3182269017 0.0000319486
0.5385006580 0.3334301328 0.0000262264
0.5533703365 0.3444781415 0.0000095369
0.5674553674 0.3537861448 0.1299675269
0.5806844625 0.3688458457 0.1845268750
0.5939457446 0.3850657092 0.2172055009
0.6069514382 0.4019016556 0.2456750210
0.6195451381 0.4191112097 0.2723613813
0.6320086595 0.4366116388 0.2985198749
0.6439533742 0.4541871710 0.3242186904
0.6556115053 0.4719462882 0.3497024491
0.6668881609 0.4893551633 0.3745522431
0.6777685588 0.5057993820 0.3976386664
0.6884491588 0.5213731212 0.4192158770
0.6984931716 0.5355420768 0.4385223545
0.7082799268 0.5490067330 0.4566591325
0.7173604753 0.5615000572 0.4732595178
0.7261344129 0.5732802605 0.4887667372
0.7340981918 0.5841096361 0.5028973068
0.7412968738 0.5948193236 0.5172443637
0.7465171283 0.6055304417 0.5326175898
0.7500753414 0.6155334459 0.5475399596
0.7518272679 0.6241397726 0.5606441215
0.7518272679 0.6310318437 0.5711807145
0.7518272679 0.6397931449 0.5846537156
0.7518272679 0.6486564908 0.5982568952
0.7518272679 0.6571297780 0.6112306401
0.0007476921 0.0010376135 0.0009613184
0.0007476921 0.0010376135 0.0009613184
0.0007476921 0.0010376135 0.0009613184
0.0007476921 0.0010376135 0.0009613184
0.0007476921 0.0010376135 0.0009613184
0.0007476921 0.0010376135 0.0009613184
0.0023465515 0.0000557908 0.0001359007
0.0108443961 0.0004768444 0.0000000000
0.0201533532 0.0011921111 0.0000000000
0.0294713703 0.0021133745 0.0000000000
0.0388995384 0.0032458801 0.0000000000
0.0488586728 0.0046084630 0.0000000000
0.0598630503 0.0063029297 0.0000000000
0.0716790169 0.0083342870 0.0000000000
0.0847333486 0.0107743000 0.0000000000
0.0986424239 0.0135862516 0.0000000000
0.1133669032 0.0167696651 0.0000000000
0.1290705825 0.0203600652 0.0000000000
0.1472691119 0.0284442473 0.0000000000
0.1671172847 0.0405301080 0.0000000000
0.1866588464 0.0545405127 0.0000152590
0.2067251755 0.0676866369 0.0000140669
0.2276865415 0.0802796216 0.0000152590
0.2485391871 0.0933346685 0.0000152590
0.2697013046 0.1069695583 0.0000095369
0.2904557202 0.1206576162 0.0000152590
0.3114332990 0.1348511292 0.0000152590
0.3320863851 0.1494847696 0.0000050069
0.3519951171 0.1641250858 0.0000152590
0.3719725147 0.1792391470 0.0000030995
0.3908941787 0.1942149233 0.0000147822
0.4094775216 0.2092948901 0.0000040532
0.4275349050 0.2244602121 0.0000305180
0.4450913634 0.2395828565 0.0000152590
0.4619025139 0.2559452964 0.0000157359
0.4776784352 0.2715013924 0.0000183585
0.4936169604 0.2873521782 0.0000133516
0.5088666838 0.3028758488 0.0000205043
0.5236295491 0.3182269017 0.0000319486
0.5385006580 0.3334301328 0.0000262264
0.5533703365 0.3444781415 0.0000095369
0.5674553674 0.3537861448 0.1299675269
0.5806844625 0.3688458457 0.1845268750
0.5939457446 0.3850657092 0.2172055009
0.6069514382 0.4019016556 0.2456750210
0.6195451381 0.4191112097 0.2723613813
0.6320086595 0.4366116388 0.2985198749
0.6439533742 0.4541871710 0.3242186904
0.6556115053 0.4719462882 0.3497024491
0.6668881609 0.4893551633 0.3745522431
0.6777685588 0.5057993820 0.3976386664
0.6884491588 0.5213731212 0.4192158770
0.6984931716 0.5355420768 0.4385223545
0.7082799268 0.5490067330 0.4566591325
0.7173604753 0.5615000572 0.4732595178
0.7261344129 0.5732802605 0.4887667372
0.7340981918 0.5841096361 0.5028973068
0.7412968738 0.5948193236 0.5172443637
0.7465171283 0.6055304417 0.5326175898
0.7500753414 0.6155334459 0.5475399596
0.7518272679 0.6241397726 0.5606441215
0.7518272679 0.6310318437 0.5711807145
0.7518272679 0.6397931449 0.5846537156
0.7518272679 0.6486564908 0.5982568952
0.7518272679 0.6571297780 0.6112306401
0.0007476921 0.0010376135 0.0009613184
0.0007476921 0.0010376135 0.0009613184
0.0007476921 0.0010376135 0.0009613184
0.0007476921 0.0010376135 0.0009613184
0.0007476921 0.0010376135 0.0009613184
0.0007476921 0.0010376135 0.0009613184
0.0023465515 0.0000557908 0.0001359007
0.0108443961 0.0004768444 0.0000000000
0.0201533532 0.0011921111 0.0000000000
0.0294713703 0.0021133745 0.0000000000
0.0388995384 0.0032458801 0.0000000000
0.0488586728 0.0046084630 0.0000000000
0.0598630503 0.0063029297 0.0000000000
0.0716790169 0.0083342870 0.0000000000
0.0847333486 0.0107743000 0.0000000000
0.0986424239 0.0135862516 0.0000000000
0.1133669032 0.0167696651 0.0000000000
0.1290705825 0.0203600652 0.0000000000
0.1472691119 0.0284442473 0.0000000000
0.1671172847 0.0405301080 0.0000000000
0.1866588464 0.0545405127 0.0000152590
0.2067251755 0.0676866369 0.0000140669
0.2276865415 0.0802796216 0.0000152590
0.2485391871 0.0933346685 0.0000152590
0.2697013046 0.1069695583 0.0000095369
0.2904557202 0.1206576162 0.0000152590
0.3114332990 0.1348511292 0.0000152590
0.3320863851 0.1494847696 0.0000050069
0.3519951171 0.1641250858 0.0000152590
0.3719725147 0.1792391470 0.0000030995
0.3908941787 0.1942149233 0.0000147822
0.4094775216 0.2092948901 0.0000040532
0.4275349050 0.2244602121 0.0000305180
0.4450913634 0.2395828565 0.0000152590
0.4619025139 0.2559452964 0.0000157359
0.4776784352 0.2715013924 0.0000183585
0.4936169604 0.2873521782 0.0000133516
0.5088666838 0.3028758488 0.0000205043
0.5236295491 0.3182269017 0.0000319486
0.5385006580 0.3334301328 0.0000262264
0.5533703365 0.3444781415 0.0000095369
0.5674553674 0.3537861448 0.1299675269
0.5806844625 0.3688458457 0.1845268750
0.5939457446 0.3850657092 0.2172055009
0.6069514382 0.4019016556 0.2456750210
0.6195451381 0.4191112097 0.2723613813
0.6320086595 0.4366116388 0.2985198749
0.6439533742 0.4541871710 0.3242186904
0.6556115053 0.4719462882 0.3497024491
0.6668881609 0.4893551633 0.3745522431
0.6777685588 0.5057993820 0.3976386664
0.6884491588 0.5213731212 0.4192158770
0.6984931716 0.5355420768 0.4385223545
0.7082799268 0.5490067330 0.4566591325
0.7173604753 0.5615000572 0.4732595178
0.7261344129 0.5732802605 0.4887667372
0.7340981918 0.5841096361 0.5028973068
0.7412968738 0.5948193236 0.5172443637
0.7465171283 0.6055304417 0.5326175898
0.7500753414 0.6155334459 0.5475399596
0.7518272679 0.6241397726 0.5606441215
0.7518272679 0.6310318437 0.5711807145
0.7518272679 0.6397931449 0.5846537156
0.7518272679 0.6486564908 0.5982568952
0.7518272679 0.6571297780 0.6112306401
0.0007476921 0.0010376135 0.0009613184
0.0007476921 0.0010376135 0.0009613184
0.0007476921 0.0010376135 0.0009613184
0.0007476921 0.0010376135 0.0009613184
0.0007476921 0.0010376135 0.0009613184
0.0007476921 0.0010376135 0.0009613184
0.0023465515 0.0000557908 0.0001359007
0.0108443961 0.0004768444 0.0000000000
0.0201533532 0.0011921111 0.0000000000
0.0294713703 0.0021133745 0.0000000000
0.0388995384 0.0032458801 0.0000000000
0.0488586728 0.0046084630 0.0000000000
0.0598630503 0.0063029297 0.0000000000
0.0716790169 0.0083342870 0.0000000000
0.0847333486 0.0107743000 0.0000000000
0.0986424239 0.0135862516 0.0000000000
0.1133669032 0.0167696651 0.0000000000
0.1290705825 0.0203600652 0.0000000000
0.1472691119 0.0284442473 0.0000000000
0.1671172847 0.0405301080 0.0000000000
0.1866588464 0.0545405127 0.0000152590
0.2067251755 0.0676866369 0.0000140669
0.2276865415 0.0802796216 0.0000152590
0.2485391871 0.0933346685 0.0000152590
0.2697013046 0.1069695583 0.0000095369
0.2904557202 0.1206576162 0.0000152590
0.3114332990 0.1348511292 0.0000152590
0.3320863851 0.1494847696 0.0000050069
0.3519951171 0.1641250858 0.0000152590
0.3719725147 0.1792391470 0.0000030995
0.3908941787 0.1942149233 0.0000147822
0.4094775216 0.2092948901 0.0000040532
0.4275349050 0.2244602121 0.0000305180
0.4450913634 0.2395828565 0.0000152590
0.4619025139 0.2559452964 0.0000157359
0.4776784352 0.2715013924 0.0000183585
0.4936169604 0.2873521782 0.0000133516
0.5088666838 0.3028758488 0.0000205043
0.5236295491 0.3182269017 0.0000319486
0.5385006580 0.3334301328 0.0000262264
0.5533703365 0.3444781415 0.0000095369
0.5674553674 0.3537861448 0.1299675269
0.5806844625 0.3688458457 0.1845268750
0.5939457446 0.3850657092 0.2172055009
0.6069514382 0.4019016556 0.2456750210
0.6195451381 0.4191112097 0.2723613813
0.6320086595 0.4366116388 0.2985198749
0.6439533742 0.4541871710 0.3242186904
0.6556115053 0.4719462882 0.3497024491
0.6668881609 0.4893551633 0.3745522431
0.6777685588 0.5057993820 0.3976386664
0.6884491588 0.5213731212 0.4192158770
0.6984931716 0.5355420768 0.4385223545
0.7082799268 0.5490067330 0.4566591325
0.7173604753 0.5615000572 0.4732595178
0.7261344129 0.5732802605 0.4887667372
0.7340981918 0.5841096361 0.5028973068
0.7412968738 0.5948193236 0.5172443637
0.7465171283 0.6055304417 0.5326175898
0.7500753414 0.6155334459 0.5475399596
0.7518272679 0.6241397726 0.5606441215
0.7518272679 0.6310318437 0.5711807145
0.7518272679 0.6397931449 0.5846537156
0.7518272679 0.6486564908 0.5982568952
0.7518272679 0.6571297780 0.6112306401
0.0007476921 0.0010376135 0.0009613184
0.0007476921 0.0010376135 0.0009613184
0.0007476921 0.0010376135 0.0009613184
0.0007476921 0.0010376135 0.0009613184
0.0007476921 0.0010376135 0.0009613184
0.0007476921 0.0010376135 0.0009613184
0.0023465515 0.0000557908 0.0001359007
0.0108443961 0.0004768444 0.0000000000
0.0201533532 0.0011921111 0.0000000000
0.0294713703 0.0021133745 0.0000000000
0.0388995384 0.0032458801 0.0000000000
0.0488586728 0.0046084630 0.0000000000
0.0598630503 0.0063029297 0.0000000000
0.0716790169 0.0083342870 0.0000000000
0.0847333486 0.0107743000 0.0000000000
0.0986424239 0.0135862516 0.0000000000
0.1133669032 0.0167696651 0.0000000000
0.1290705825 0.0203600652 0.0000000000
0.1472691119 0.0284442473 0.0000000000
0.1671172847 0.0405301080 0.0000000000
0.1866588464 0.0545405127 0.0000152590
0.2067251755 0.0676866369 0.0000140669
0.2276865415 0.0802796216 0.0000152590
0.2485391871 0.0933346685 0.0000152590
0.2697013046 0.1069695583 0.0000095369
0.2904557202 0.1206576162 0.0000152590
0.3114332990 0.1348511292 0.0000152590
0.3320863851 0.1494847696 0.0000050069
0.3519951171 0.1641250858 0.0000152590
0.3719725147 0.1792391470 0.0000030995
0.3908941787 0.1942149233 0.0000147822
0.4094775216 0.2092948901 0.0000040532
0.4275349050 0.2244602121 0.0000305180
0.4450913634 0.2395828565 0.0000152590
0.4619025139 0.2559452964 0.0000157359
0.4776784352 0.2715013924 0.0000183585
0.4936169604 0.2873521782 0.0000133516
0.5088666838 0.3028758488 0.0000205043
0.5236295491 0.3182269017 0.0000319486
0.5385006580 0.3334301328 0.0000262264
0.5533703365 0.3444781415 0.0000095369
0.5674553674 0.3537861448 0.1299675269
0.5806844625 0.3688458457 0.1845268750
0.5939457446 0.3850657092 0.2172055009
0.6069514382 0.4019016556 0.2456750210
0.6195451381 0.4191112097 0.2723613813
0.6320086595 0.4366116388 0.2985198749
0.6439533742 0.4541871710 0.3242186904
0.6556115053 0.4719462882 0.3497024491
0.6668881609 0.4893551633 0.3745522431
0.6777685588 0.5057993820 0.3976386664
0.6884491588 0.5213731212 0.4192158770
0.6984931716 0.5355420768 0.4385223545
0.7082799268 0.5490067330 0.4566591325
0.7173604753 0.5615000572 0.4732595178
0.7261344129 0.5732802605 0.4887667372
0.7340981918 0.5841096361 0.5028973068
0.7412968738 0.5948193236 0.5172443637
0.7465171283 0.6055304417 0.5326175898
0.7500753414 0.6155334459 0.5475399596
0.7518272679 0.6241397726 0.5606441215
0.7518272679 0.6310318437 0.5711807145
0.7518272679 0.6397931449 0.5846537156
0.7518272679 0.6486564908 0.5982568952
0.7518272679 0.6571297780 0.6112306401
0.0000000000 0.0034752422 0.0000000000
0.0000000000 0.0034752422 0.0000000000
0.0000000000 0.0034752422 0.0000000000
0.0000000000 0.0034752422 0.0000000000
0.0000000000 0.0034752422 0.0000000000
0.0000000000 0.0034752422 0.0000000000
0.0046921492 0.0047317273 0.0000000000
0.0133254177 0.0054901484 0.0000000000
0.0220469024 0.0049219883 0.0000000000
0.0310792897 0.0055046921 0.0000000000
0.0400582704 0.0059724765 0.0000000000
0.0497711147 0.0064090276 0.0000000000
0.0604529068 0.0071331159 0.0000000000
0.0719512951 0.0084697108 0.0000000000
0.0849102579 0.0108119707 0.0000000000
0.0987830930 0.0136143854 0.0000000000
0.1137698367 0.0171091783 0.0000000000
0.1298425937 0.0216873617 0.0000000000
0.1482509346 0.0301918822 0.0000000000
0.1677350366 0.0425018597 0.0000083448
0.1870336461 0.0557764935 0.0000000000
0.2073012036 0.0688210498 0.0000152590
0.2280436980 0.0811503395 0.0000152590
0.2489952888 0.0941772526 0.0000152590
0.2701247425 0.1076876860 0.0000152590
0.2908860723 0.1213204299 0.0000090600
0.3118944076 0.1355077440 0.0000104906
0.3324120699 0.1500221733 0.0000090600
0.3524547951 0.1647073129 0.0000214580
0.3723821241 0.1797555695 0.0000121595
0.3912341688 0.1946455138 0.0000238422
0.4099643797 0.2098330091 0.0000283722
0.4278143359 0.2248240444 0.0000214580
0.4455477035 0.2400606546 0.0000181201
0.4621981575 0.2562895781 0.0000305180
0.4781438354 0.2719944495 0.0000274186
0.4939664874 0.2878042267 0.0000195506
0.5092743858 0.3033264668 0.0000326638
0.5240410658 0.3186751354 0.0000338560
0.5388070306 0.3337579633 0.0000314717
0.5538767453 0.3446459907 0.0000238422
0.5677431430 0.3541113527 0.1327384699
0.5810354200 0.3692864500 0.1855644884
0.5943188754 0.3855406462 0.2180747883
0.6072098878 0.4022344930 0.2461928740
0.6199614233 0.4196362154 0.2732244697
0.6322990578 0.4370255398 0.2991588464
0.6443315118 0.4547617685 0.3250581750
0.6560521096 0.4725518807 0.3506466011
0.6672453174 0.4898484588 0.3752920672
0.6781610018 0.5063482300 0.3984445335
0.6887321660 0.5217755779 0.4197902361
0.6988617723 0.5360427634 0.4391980430
0.7085200179 0.5493765259 0.4571643492
0.7176613642 0.5619139582 0.4738207637
0.7264190890 0.5736822404 0.4892786297
0.7344539178 0.5845745594 0.5035119593
0.7415653372 0.5952916381 0.5179398413
0.7466558900 0.6058694781 0.5331321050
0.7502441444 0.6160701343 0.5483639467
0.7518272679 0.6245574884 0.5612687877
0.7518272679 0.6315942817 0.5720480945
0.7518272679 0.6403281643 0.5854786564
0.7518272679 0.6491085393 0.5989447433
0.7518272679 0.6576667048 0.6120498589
0.0000000000 0.0155725471 0.0000000000
0.0000000000 0.0155725471 0.0000000000
0.0000000000 0.0155725471 0.0000000000
0.0000000000 0.0155725471 0.0000000000
0.0000000000 0.0155725471 0.0000000000
0.0000000000 0.0155725471 0.0000000000
0.0064264324 0.0168605039 0.0000000000
0.0207460708 0.0207765888 0.0000000000
0.0307547971 0.0221072232 0.0000000000
0.0398193713 0.0236071374 0.0000000000
0.0483606088 0.0245818074 0.0000000000
0.0577551595 0.0256637675 0.0000000000
0.0680561913 0.0266918441 0.0000000000
0.0792360475 0.0277666514 0.0000000000
0.0915259976 0.0290343423 0.0000000000
0.1047252899 0.0305297265 0.0000000000
0.1194025616 0.0335104810 0.0000000000
0.1350897898 0.0382166972 0.0000000000
0.1517204547 0.0444047074 0.0000000000
0.1698844129 0.0528238727 0.0000000000
0.1887333581 0.0628144789 0.0000047684
0.2083850710 0.0735852026 0.0000011921
0.2289225223 0.0846622988 0.0000000000
0.2498397803 0.0968280308 0.0000097753
0.2709229801 0.1096100843 0.0000152590
0.2917081521 0.1228212978 0.0000152590
0.3125336175 0.1367160678 0.0000152590
0.3327654116 0.1508604658 0.0000050069
0.3530861372 0.1655272469 0.0000054837
0.3729481384 0.1804736973 0.0000030995
0.3918202106 0.1953295472 0.0000092985
0.4105132277 0.2104393168 0.0000138285
0.4283886950 0.2254415579 0.0000174048
0.4461380369 0.2406753071 0.0000207427
0.4627563039 0.2568892100 0.0000255112
0.4789935721 0.2727841039 0.0000226501
0.4945460918 0.2884923133 0.0000457771
0.5100950351 0.3041955158 0.0000357633
0.5249175059 0.3194993610 0.0000317102
0.5396300641 0.3345933948 0.0000381476
0.5548421168 0.3450510700 0.0000288491
0.5684138247 0.3548321031 0.1380080777
0.5819616903 0.3703817617 0.1882424468
0.5952205882 0.3866958019 0.2201276036
0.6081590467 0.4035214961 0.2482757305
0.6210560197 0.4210486286 0.2754985409
0.6333059148 0.4383976596 0.3012746052
0.6454878595 0.4562983997 0.3272969596
0.6569929236 0.4739428359 0.3526922637
0.6682431144 0.4913374056 0.3773987659
0.6790610456 0.5076335641 0.4002939746
0.6896353094 0.5229974918 0.4215540837
0.6996793221 0.5372785058 0.4408686675
0.7093587873 0.5505924792 0.4587767987
0.7185471027 0.5630650607 0.4752987430
0.7273241398 0.5749017700 0.4908913176
0.7353382258 0.5857595178 0.5051072423
0.7422279126 0.5964491779 0.5195394160
0.7471363107 0.6070823320 0.5349104963
0.7506229973 0.6173015850 0.5502095731
0.7518272679 0.6256384947 0.5629036488
0.7518272679 0.6327825780 0.5738679713
0.7518272679 0.6414530404 0.5872105554
0.7518272679 0.6502992199 0.6007836938
0.7518272679 0.6587524796 0.6137147612
0.0000000000 0.0284771496 0.0000000000
0.0000000000 0.0284771496 0.0000000000
0.0000000000 0.0284771496 0.0000000000
0.0000000000 0.0284771496 0.0000000000
0.0000000000 0.0284771496 0.0000000000
0.0000000000 0.0284771496 0.0000000000
0.0051885443 0.0293912604 0.0000000000
0.0241931792 0.0334794862 0.0000000000
0.0369935912 0.0370679789 0.0000000000
0.0469200618 0.0386780442 0.0000000000
0.0559319448 0.0400825895 0.0000000000
0.0657430190 0.0416180285 0.0000000000
0.0759174487 0.0434081025 0.0000000000
0.0868224041 0.0456597620 0.0000000000
0.0986123827 0.0481569963 0.0000000000
0.1114647707 0.0503566796 0.0000000000
0.1255397879 0.0533398184 0.0000000000
0.1403245880 0.0566882200 0.0000000000
0.1561975471 0.0616984245 0.0000000000
0.1735129606 0.0677109560 0.0000000000
0.1915894179 0.0749809262 0.0000028611
0.2106391146 0.0834136816 0.0000007153
0.2308041505 0.0926594568 0.0000128748
0.2513134680 0.1031002041 0.0000133516
0.2720626383 0.1144235904 0.0000152590
0.2927443351 0.1266074426 0.0000131132
0.3133158808 0.1396305409 0.0000014305
0.3335808156 0.1531784066 0.0000152590
0.3540550851 0.1674458305 0.0000152590
0.3736967842 0.1820043679 0.0000133516
0.3928211070 0.1967207408 0.0000152590
0.4114154173 0.2117086767 0.0000152590
0.4292896925 0.2265087358 0.0000152590
0.4469226844 0.2417441539 0.0000061990
0.4635481041 0.2578502899 0.0000147822
0.4800061513 0.2738684482 0.0000305180
0.4953431373 0.2894092851 0.0000152590
0.5109702831 0.3052524414 0.0000307565
0.5258015755 0.3203803311 0.0000267033
0.5404790856 0.3354171435 0.0000374323
0.5558499275 0.3454947738 0.0000362402
0.5694204433 0.3559500649 0.1446586271
0.5829995422 0.3715457389 0.1909809644
0.5961971656 0.3879346437 0.2222745956
0.6092326619 0.4049544137 0.2505464637
0.6220032712 0.4223513676 0.2774195087
0.6343428130 0.4399152171 0.3035172045
0.6464904250 0.4577897307 0.3294544423
0.6579022660 0.4753585870 0.3547188525
0.6690992885 0.4926623178 0.3793287938
0.6798599985 0.5088097009 0.4019374189
0.6904857614 0.5242422942 0.4231999123
0.7006704433 0.5386224918 0.4426747158
0.7103010319 0.5518961719 0.4605134661
0.7195506218 0.5643582628 0.4770103761
0.7281438354 0.5760154402 0.4923509384
0.7361963073 0.5869535363 0.5066948959
0.7427941653 0.5975339990 0.5210424296
0.7475838293 0.6082694362 0.5366674296
0.7509777695 0.6185230220 0.5520397021
0.7518272679 0.6268177310 0.5647364004
0.7518272679 0.6339179446 0.5756539921
0.7518272679 0.6424897002 0.5888184749
0.7518272679 0.6514341096 0.6025139239
0.7518272679 0.6597467002 0.6152208743
0.0000000000 0.0408207446 0.0000000000
0.0000000000 0.0408207446 0.0000000000
0.0000000000 0.0408207446 0.0000000000
0.0000000000 0.0408207446 0.0000000000
0.0000000000 0.0408207446 0.0000000000
0.0000000000 0.0408207446 0.0000000000
0.0052941653 0.0415805962 0.0000000000
0.0270423247 0.0455777447 0.0000000000
0.0409881170 0.0493498226 0.0000000000
0.0522709716 0.0523641947 0.0000000000
0.0618955997 0.0540145533 0.0000000000
0.0716723411 0.0557245174 0.0000000000
0.0828147650 0.0575317578 0.0000000000
0.0945530060 0.0596408408 0.0003047036
0.1061563001 0.0615739681 0.0004172389
0.1189433604 0.0642557412 0.0000000000
0.1319132906 0.0675898375 0.0000000000
0.1456747826 0.0716711490 0.0000000000
0.1610224975 0.0758285172 0.0000135901
0.1776040475 0.0812461852 0.0000100137
0.1950553616 0.0874272812 0.0000000000
0.2135180629 0.0945100900 0.0000016690
0.2330553330 0.1022645342 0.0000023842
0.2531126020 0.1111083295 0.0000059606
0.2735995079 0.1210309854 0.0000073911
0.2941724842 0.1321576734 0.0000152590
