public/luts/LunaUltra/Luna_I-Log_to_Rec2020_St2084_1K_DW203_s65_v2.cube
# Version 2.0
# Create Date 2026.05.20
# Output: ST2084 / Rec2020 / 1000 nits / 203 nits Diffuse White
TITLE "Insta360 I-Log to PQ Rendering LUT"
LUT_3D_SIZE 5
0.0007476921 0.0010376135 0.0009613184
0.1133669032 0.0167696651 0.0000000000
0.4275349050 0.2244602121 0.0000305180
0.6556115053 0.4719462882 0.3497024491
0.7518272679 0.6571297780 0.6112306401
0.0073128862 0.1434805829 0.0552796216
0.1662775616 0.1666399634 0.0000152590
0.4370107576 0.2515297169 0.0000267033
0.6652132448 0.4870870527 0.3713244831
0.7518272679 0.6674830243 0.6269779507
0.0001144427 0.4521248188 0.2704737926
0.2007362478 0.4588654917 0.2571488518
0.4589532311 0.4602044709 0.2196688792
0.6649080644 0.5089036393 0.3946059358
0.7518272679 0.6668650340 0.6259632258
0.4190394446 0.6680704967 0.4719195850
0.4240253300 0.6706416419 0.4742465858
0.4668612192 0.6677538720 0.4653543908
0.6510376135 0.6535248341 0.4678187228
0.7518272679 0.6743419547 0.6328297856
0.6706797894 0.7518272679 0.6553292134
0.6781033036 0.7518272679 0.6632944228
0.6839627680 0.7518272679 0.6696803235
0.6916113527 0.7518272679 0.6756389715
0.7386129549 0.7416800183 0.6664530404
0.0103837644 0.0106965743 0.0831769284
0.1361905852 0.0178912032 0.1293011368
0.4321660182 0.2044251164 0.1670214389
0.6559205005 0.4732356756 0.3547417411
0.7518272679 0.6580186160 0.6125925078
0.0039253834 0.1551041428 0.1554207675
0.1768902113 0.1768863966 0.1768902113
0.4442702373 0.2345654994 0.1792095827
0.6664606699 0.4897116045 0.3780498970
0.7518272679 0.6686045624 0.6286755169
0.0000877394 0.4542381933 0.2843938354
0.2060425727 0.4610704204 0.2753871977
0.4610284581 0.4621690700 0.2512054627
0.6657969024 0.5103494316 0.3985542077
0.7518272679 0.6675326162 0.6269893950
0.4204394598 0.6689097429 0.4728885328
0.4257610437 0.6715419242 0.4754863813
0.4684596017 0.6689517052 0.4668497749
0.6524757763 0.6549782559 0.4702754253
0.7518272679 0.6759861143 0.6354085603
0.6732013428 0.7518272679 0.6579842832
0.6806134127 0.7518272679 0.6660372320
0.6860418097 0.7518272679 0.6719920653
0.6929655909 0.7518272679 0.6772068360
0.7383230335 0.7413939117 0.6650415808
0.1963988708 0.1925154498 0.4206607156
0.2210650797 0.1947470817 0.4212710765
0.4436713207 0.2121232929 0.4299916075
0.6566033417 0.4690737774 0.4309262226
0.7518272679 0.6580453193 0.6132600900
0.1940642405 0.2125009537 0.4262760357
0.2236667430 0.2173380636 0.4310444800
0.4567483024 0.2430113680 0.4430342565
0.6693179217 0.4850881209 0.4459563592
0.7518272679 0.6692225528 0.6301480125
0.1823453117 0.4547951476 0.4556191348
0.2275310903 0.4615701534 0.4623979553
0.4635080491 0.4635004196 0.4635080491
0.6679674983 0.5006713970 0.4615930419
0.7518272679 0.6667582208 0.6316090639
0.4239108873 0.6678759442 0.4934958419
0.4290150301 0.6706530861 0.4960173953
0.4696307317 0.6688181888 0.4881361105
0.6526474403 0.6553253986 0.4978370336
0.7518272679 0.6790264744 0.6439688716
0.6750743877 0.7518272679 0.6601052873
0.6825894560 0.7518272679 0.6682726787
0.6875944152 0.7518272679 0.6737544823
0.6929388876 0.7518272679 0.6772373541
0.7379568170 0.7411154345 0.6648661021
0.4375104906 0.4461203937 0.6641260395
0.4373006790 0.4448119326 0.6636453803
0.4612306401 0.4410925460 0.6576638437
0.6638323033 0.4579079881 0.6473830777
0.7518272679 0.6601396201 0.6355954833
0.4407492180 0.4463988708 0.6667200732
0.4443732357 0.4488288701 0.6698214694
0.4741588464 0.4526550698 0.6686198215
0.6771877623 0.4739375906 0.6602159152
0.7518272679 0.6717975128 0.6504959182
0.4522430762 0.4728732738 0.6621652552
0.4584840162 0.4777828641 0.6674830243
0.4793812467 0.4749485008 0.6693064775
0.6744907301 0.4845807584 0.6667315175
0.7518272679 0.6679980163 0.6499923705
0.4321545739 0.6586137179 0.6591859312
0.4365568017 0.6614213779 0.6620584421
0.4706836042 0.6607309071 0.6612726024
0.6538490883 0.6538490883 0.6538490883
0.7518272679 0.6822308690 0.6635156786
0.6771686885 0.7518272679 0.6676432441
0.6844014649 0.7518272679 0.6750400549
0.6885366598 0.7518272679 0.6793163958
0.6913633936 0.7518272679 0.6797589075
0.7368925002 0.7395094224 0.6810368505
0.6552071412 0.6657358663 0.7496147097
0.6552872511 0.6656633860 0.7496299687
0.6513160906 0.6616235599 0.7494544900
0.6573243305 0.6614366369 0.7491721981
0.7518272679 0.6679026474 0.7395132372
0.6582970932 0.6680476081 0.7498130770
0.6610818647 0.6704585336 0.7499732967
0.6613870451 0.6703517205 0.7500152590
0.6693865873 0.6727969787 0.7498664836
0.7518272679 0.6809529259 0.7410467689
0.6597238117 0.6682841230 0.7499809262
0.6633287556 0.6714389258 0.7501640345
0.6627832456 0.6705119402 0.7501716640
0.6687800412 0.6709582666 0.7498893721
0.7518272679 0.6750591287 0.7457694362
0.6619516289 0.6720645457 0.7488632029
0.6647936217 0.6744716564 0.7490615702
0.6661974517 0.6753757534 0.7491874571
0.6758678569 0.6799305715 0.7492828260
0.7518272679 0.6890669108 0.7459372854
0.6594491493 0.7477073320 0.7474784466
0.6676432441 0.7484283207 0.7481498436
0.6716563668 0.7487067979 0.7484092470
0.6767566949 0.7460784314 0.7458075837
0.7344014649 0.7344014649 0.7344014649
