public/luts/LunaUltra/Luna_I-Log_to_Rec2020_HLG_1K_DW203_s65_v2.cube
# Version 2.0
# Create Date 2026.05.20
# Output: HLG / Rec2020 / 1000 nits / 203 nits Diffuse White
TITLE "Insta360 I-Log to HLG Rendering LUT"
LUT_3D_SIZE 5
0.0011596857 0.0015411612 0.0014343481
0.0799153124 0.0092164492 0.0000000000
0.5348210880 0.1514534218 0.0000152590
0.9122453651 0.5491493095 0.2827725643
1.0000000000 0.8746471351 0.7915770199
0.0037193866 0.0976234073 0.0284390021
0.1141603723 0.1145380331 0.0000000000
0.5524719615 0.1821850919 0.0000152590
0.9256656748 0.5805409323 0.3177195392
1.0000000000 0.8912756542 0.8187266346
0.0000762951 0.5557946136 0.1930876631
0.1145876249 0.5688410773 0.1749523156
0.5568932631 0.5599298085 0.1295719844
0.9228313115 0.6263790341 0.3601472496
1.0000000000 0.8902800031 0.8169832914
0.3930609598 0.9109330892 0.5194323644
0.4029793240 0.9146639200 0.5242618448
0.5058632792 0.9098687724 0.5019913024
0.8762111849 0.8806286717 0.5028648814
1.0000000000 0.9022354467 0.8282291905
0.8863813230 1.0000000000 0.8591439689
0.8990691997 1.0000000000 0.8729152361
0.9090104524 1.0000000000 0.8838864729
0.9219539178 1.0000000000 0.8939497978
1.0000000000 1.0000000000 0.8770428016
0.0070000763 0.0071869993 0.0636797131
0.0976501106 0.0092774853 0.0906843671
0.5464560922 0.1295376516 0.0940527962
0.9126039521 0.5520218204 0.2911268788
1.0000000000 0.8760852979 0.7939459831
0.0020141909 0.1067597467 0.1070801862
0.1230373083 0.1230373083 0.1230373083
0.5693675135 0.1609063859 0.1033493553
0.9273289082 0.5859044785 0.3296711681
1.0000000000 0.8930647745 0.8216296635
0.0000572213 0.5600022889 0.2114633402
0.1193255512 0.5730792706 0.1977683680
0.5610322728 0.5637712673 0.1631074998
0.9240558480 0.6290836957 0.3677882048
1.0000000000 0.8913519493 0.8187342641
0.3957885100 0.9121614405 0.5215419242
0.4064850843 0.9159761959 0.5269779507
0.5094911116 0.9116159304 0.5053559167
0.8783131151 0.8827611200 0.5085984588
1.0000000000 0.9048332952 0.8325932708
0.8906996262 1.0000000000 0.8637369345
0.9033379110 1.0000000000 0.8776379034
0.9125314717 1.0000000000 0.8878385595
0.9242198825 1.0000000000 0.8966315709
1.0000000000 1.0000000000 0.8746547646
0.1335088121 0.1292820630 0.5619134813
0.1613183795 0.1308690013 0.5605249104
0.5642481117 0.1345922026 0.5301213092
0.9137560082 0.5418631266 0.4458190280
1.0000000000 0.8761120012 0.7951781491
0.1294346532 0.1501602197 0.5704203861
0.1620813306 0.1544213016 0.5776379034
0.5886282139 0.1672388800 0.5558632792
0.9319256886 0.5747844663 0.4776379034
1.0000000000 0.8940375372 0.8241893645
0.0979934386 0.5579232471 0.5599374380
0.1399290455 0.5710765240 0.5730487526
0.5641641871 0.5641565576 0.5641641871
0.9281986725 0.6084000916 0.5161516747
1.0000000000 0.8900587472 0.8272220951
0.4034599832 0.9105058366 0.5712520027
0.4137788968 0.9145456626 0.5760318914
0.5123903258 0.9113069352 0.5576829175
0.8784428168 0.8831960021 0.5749675746
1.0000000000 0.9096093690 0.8474441138
0.8939116503 1.0000000000 0.8674219883
0.9066796368 1.0000000000 0.8814679179
0.9151522087 1.0000000000 0.8908598459
0.9241931792 1.0000000000 0.8966735332
1.0000000000 1.0000000000 0.8744106203
0.4915617609 0.5141298543 0.9500991836
0.4913672084 0.5110894942 0.9495040818
0.5519150072 0.5009079118 0.9387273976
0.9222400244 0.5084000916 0.8932402533
1.0000000000 0.8793163958 0.8354009308
0.4994239719 0.5142175937 0.9541084916
0.5077363241 0.5192950332 0.9586137179
0.5781033036 0.5259975586 0.9542076753
0.9414320592 0.5431372549 0.9117189288
1.0000000000 0.8979705501 0.8602044709
0.5233234150 0.5735675593 0.9416876478
0.5368848707 0.5829823758 0.9493362325
0.5855382620 0.5752841993 0.9515793088
0.9361753262 0.5677767605 0.9226100557
1.0000000000 0.8918669413 0.8599183642
0.4223086900 0.8946784161 0.8956702525
0.4313992523 0.8987754635 0.8999008164
0.5153315023 0.8972686351 0.8982146944
0.8793087663 0.8793049516 0.8793087663
1.0000000000 0.9144922560 0.8815365835
0.8974097810 1.0000000000 0.8806248569
0.9097123674 1.0000000000 0.8932669566
0.9166971847 1.0000000000 0.9005416953
0.9214808881 1.0000000000 0.9011711299
0.9999580377 1.0000000000 0.9031967651
0.8767986572 0.8954299229 1.0000000000
0.8769283589 0.8953002213 1.0000000000
0.8709163043 0.8892042420 1.0000000000
0.8812314031 0.8885137713 1.0000000000
1.0000000000 0.8901808194 1.0000000000
0.8816128786 0.8988479438 1.0000000000
0.8859044785 0.9024185550 1.0000000000
0.8864347295 0.9022392615 1.0000000000
0.8995345998 0.9055275807 1.0000000000
1.0000000000 0.9111467155 1.0000000000
0.8839856565 0.8991149767 1.0000000000
0.8895208667 0.9038071260 1.0000000000
0.8887693599 0.9023804074 1.0000000000
0.8988479438 0.9026894026 1.0000000000
1.0000000000 0.9015716793 1.0000000000
0.8871099413 0.9049210346 1.0000000000
0.8914663920 0.9084954604 1.0000000000
0.8936598764 0.9098115511 1.0000000000
0.9091287098 0.9162432288 1.0000000000
1.0000000000 0.9239490349 1.0000000000
0.8666666667 1.0000000000 1.0000000000
0.8806935225 1.0000000000 1.0000000000
0.8875486381 1.0000000000 1.0000000000
0.8969443809 1.0000000000 1.0000000000
0.9961699855 0.9961699855 0.9961699855
