public/luts/LunaUltra/Luna_I-Log_to_Rec2020_HLG_1K_DW203_s65_v2.cube
# Version 2.0
# Create Date 2026.05.20
# Output: HLG / Rec2020 / 1000 nits / 203 nits Diffuse White
TITLE "Insta360 I-Log to HLG Rendering LUT"
LUT_3D_SIZE 65
0.0011596857 0.0015411612 0.0014343481
0.0011596857 0.0015411612 0.0014343481
0.0011596857 0.0015411612 0.0014343481
0.0011596857 0.0015411612 0.0014343481
0.0011596857 0.0015411612 0.0014343481
0.0011596857 0.0015411612 0.0014343481
0.0028849088 0.0000929847 0.0002808614
0.0093530652 0.0006239509 0.0000000000
0.0153849088 0.0012169070 0.0000000000
0.0212274453 0.0018797208 0.0000000000
0.0271691653 0.0025720989 0.0000000000
0.0335448138 0.0033486400 0.0000000000
0.0407835508 0.0042563134 0.0000000000
0.0488171874 0.0052727073 0.0000000000
0.0580829900 0.0064564736 0.0000000000
0.0684209773 0.0077689879 0.0000000000
0.0799153124 0.0092164492 0.0000000000
0.0928487640 0.0108224613 0.0000000000
0.1087243458 0.0147139887 0.0000000000
0.1271336404 0.0207823110 0.0000000000
0.1464856565 0.0281462196 0.0000000000
0.1678406577 0.0353007935 0.0000000000
0.1919532502 0.0423504616 0.0000000000
0.2178003643 0.0500033379 0.0000059606
0.2460269322 0.0583962768 0.0000095369
0.2757815480 0.0672159915 0.0000000000
0.3081936179 0.0768573091 0.0000138285
0.3425252251 0.0873841268 0.0000050069
0.3780050736 0.0985027085 0.0000152590
0.4161335546 0.1106474594 0.0000000000
0.4547174220 0.1233892195 0.0000000000
0.4952286946 0.1369940681 0.0000040532
0.5348210880 0.1514534218 0.0000152590
0.5708266575 0.1667212654 0.0000152590
0.6032997635 0.1844577325 0.0000152590
0.6323677234 0.2023486973 0.0000152590
0.6606765469 0.2216544594 0.0000066758
0.6868972686 0.2416781109 0.0000102522
0.7115572786 0.2626320859 0.0000166896
0.7358718147 0.2845244907 0.0000131132
0.7600118257 0.3003852903 0.0000095369
0.7825634680 0.3139221885 0.0582222286
0.8028930152 0.3386453803 0.0960255016
0.8229355020 0.3670557717 0.1237158579
0.8422760739 0.3985427634 0.1511434730
0.8607051575 0.4329726005 0.1798661975
0.8787570573 0.4703021286 0.2111429007
0.8957928016 0.5101892119 0.2452224956
0.9122453651 0.5491493095 0.2827725643
0.9280315385 0.5850354295 0.3231670100
0.9431901846 0.6171721218 0.3642180705
0.9580512799 0.6462746529 0.4058921283
0.9720140002 0.6717917906 0.4461413748
0.9855971523 0.6953386072 0.4867077230
0.9981012055 0.7167005226 0.5249847410
1.0000000000 0.7364509422 0.5588156615
1.0000000000 0.7542954147 0.5880579080
1.0000000000 0.7718385214 0.6167334249
1.0000000000 0.7895013161 0.6468780995
1.0000000000 0.8060196841 0.6754932956
1.0000000000 0.8202916381 0.7001783398
1.0000000000 0.8318372339 0.7198155089
1.0000000000 0.8463530938 0.7444285496
1.0000000000 0.8608901732 0.7687671664
1.0000000000 0.8746471351 0.7915770199
0.0011596857 0.0015411612 0.0014343481
0.0011596857 0.0015411612 0.0014343481
0.0011596857 0.0015411612 0.0014343481
0.0011596857 0.0015411612 0.0014343481
0.0011596857 0.0015411612 0.0014343481
0.0011596857 0.0015411612 0.0014343481
0.0028849088 0.0000929847 0.0002808614
0.0093530652 0.0006239509 0.0000000000
0.0153849088 0.0012169070 0.0000000000
0.0212274453 0.0018797208 0.0000000000
0.0271691653 0.0025720989 0.0000000000
0.0335448138 0.0033486400 0.0000000000
0.0407835508 0.0042563134 0.0000000000
0.0488171874 0.0052727073 0.0000000000
0.0580829900 0.0064564736 0.0000000000
0.0684209773 0.0077689879 0.0000000000
0.0799153124 0.0092164492 0.0000000000
0.0928487640 0.0108224613 0.0000000000
0.1087243458 0.0147139887 0.0000000000
0.1271336404 0.0207823110 0.0000000000
0.1464856565 0.0281462196 0.0000000000
0.1678406577 0.0353007935 0.0000000000
0.1919532502 0.0423504616 0.0000000000
0.2178003643 0.0500033379 0.0000059606
0.2460269322 0.0583962768 0.0000095369
0.2757815480 0.0672159915 0.0000000000
0.3081936179 0.0768573091 0.0000138285
0.3425252251 0.0873841268 0.0000050069
0.3780050736 0.0985027085 0.0000152590
0.4161335546 0.1106474594 0.0000000000
0.4547174220 0.1233892195 0.0000000000
0.4952286946 0.1369940681 0.0000040532
0.5348210880 0.1514534218 0.0000152590
0.5708266575 0.1667212654 0.0000152590
0.6032997635 0.1844577325 0.0000152590
0.6323677234 0.2023486973 0.0000152590
0.6606765469 0.2216544594 0.0000066758
0.6868972686 0.2416781109 0.0000102522
0.7115572786 0.2626320859 0.0000166896
0.7358718147 0.2845244907 0.0000131132
0.7600118257 0.3003852903 0.0000095369
0.7825634680 0.3139221885 0.0582222286
0.8028930152 0.3386453803 0.0960255016
0.8229355020 0.3670557717 0.1237158579
0.8422760739 0.3985427634 0.1511434730
0.8607051575 0.4329726005 0.1798661975
0.8787570573 0.4703021286 0.2111429007
0.8957928016 0.5101892119 0.2452224956
0.9122453651 0.5491493095 0.2827725643
0.9280315385 0.5850354295 0.3231670100
0.9431901846 0.6171721218 0.3642180705
0.9580512799 0.6462746529 0.4058921283
0.9720140002 0.6717917906 0.4461413748
0.9855971523 0.6953386072 0.4867077230
0.9981012055 0.7167005226 0.5249847410
1.0000000000 0.7364509422 0.5588156615
1.0000000000 0.7542954147 0.5880579080
1.0000000000 0.7718385214 0.6167334249
1.0000000000 0.7895013161 0.6468780995
1.0000000000 0.8060196841 0.6754932956
1.0000000000 0.8202916381 0.7001783398
1.0000000000 0.8318372339 0.7198155089
1.0000000000 0.8463530938 0.7444285496
1.0000000000 0.8608901732 0.7687671664
1.0000000000 0.8746471351 0.7915770199
0.0011596857 0.0015411612 0.0014343481
0.0011596857 0.0015411612 0.0014343481
0.0011596857 0.0015411612 0.0014343481
0.0011596857 0.0015411612 0.0014343481
0.0011596857 0.0015411612 0.0014343481
0.0011596857 0.0015411612 0.0014343481
0.0028849088 0.0000929847 0.0002808614
0.0093530652 0.0006239509 0.0000000000
0.0153849088 0.0012169070 0.0000000000
0.0212274453 0.0018797208 0.0000000000
0.0271691653 0.0025720989 0.0000000000
0.0335448138 0.0033486400 0.0000000000
0.0407835508 0.0042563134 0.0000000000
0.0488171874 0.0052727073 0.0000000000
0.0580829900 0.0064564736 0.0000000000
0.0684209773 0.0077689879 0.0000000000
0.0799153124 0.0092164492 0.0000000000
0.0928487640 0.0108224613 0.0000000000
0.1087243458 0.0147139887 0.0000000000
0.1271336404 0.0207823110 0.0000000000
0.1464856565 0.0281462196 0.0000000000
0.1678406577 0.0353007935 0.0000000000
0.1919532502 0.0423504616 0.0000000000
0.2178003643 0.0500033379 0.0000059606
0.2460269322 0.0583962768 0.0000095369
0.2757815480 0.0672159915 0.0000000000
0.3081936179 0.0768573091 0.0000138285
0.3425252251 0.0873841268 0.0000050069
0.3780050736 0.0985027085 0.0000152590
0.4161335546 0.1106474594 0.0000000000
0.4547174220 0.1233892195 0.0000000000
0.4952286946 0.1369940681 0.0000040532
0.5348210880 0.1514534218 0.0000152590
0.5708266575 0.1667212654 0.0000152590
0.6032997635 0.1844577325 0.0000152590
0.6323677234 0.2023486973 0.0000152590
0.6606765469 0.2216544594 0.0000066758
0.6868972686 0.2416781109 0.0000102522
0.7115572786 0.2626320859 0.0000166896
0.7358718147 0.2845244907 0.0000131132
0.7600118257 0.3003852903 0.0000095369
0.7825634680 0.3139221885 0.0582222286
0.8028930152 0.3386453803 0.0960255016
0.8229355020 0.3670557717 0.1237158579
0.8422760739 0.3985427634 0.1511434730
0.8607051575 0.4329726005 0.1798661975
0.8787570573 0.4703021286 0.2111429007
0.8957928016 0.5101892119 0.2452224956
0.9122453651 0.5491493095 0.2827725643
0.9280315385 0.5850354295 0.3231670100
0.9431901846 0.6171721218 0.3642180705
0.9580512799 0.6462746529 0.4058921283
0.9720140002 0.6717917906 0.4461413748
0.9855971523 0.6953386072 0.4867077230
0.9981012055 0.7167005226 0.5249847410
1.0000000000 0.7364509422 0.5588156615
1.0000000000 0.7542954147 0.5880579080
1.0000000000 0.7718385214 0.6167334249
1.0000000000 0.7895013161 0.6468780995
1.0000000000 0.8060196841 0.6754932956
1.0000000000 0.8202916381 0.7001783398
1.0000000000 0.8318372339 0.7198155089
1.0000000000 0.8463530938 0.7444285496
1.0000000000 0.8608901732 0.7687671664
1.0000000000 0.8746471351 0.7915770199
0.0011596857 0.0015411612 0.0014343481
0.0011596857 0.0015411612 0.0014343481
0.0011596857 0.0015411612 0.0014343481
0.0011596857 0.0015411612 0.0014343481
0.0011596857 0.0015411612 0.0014343481
0.0011596857 0.0015411612 0.0014343481
0.0028849088 0.0000929847 0.0002808614
0.0093530652 0.0006239509 0.0000000000
0.0153849088 0.0012169070 0.0000000000
0.0212274453 0.0018797208 0.0000000000
0.0271691653 0.0025720989 0.0000000000
0.0335448138 0.0033486400 0.0000000000
0.0407835508 0.0042563134 0.0000000000
0.0488171874 0.0052727073 0.0000000000
0.0580829900 0.0064564736 0.0000000000
0.0684209773 0.0077689879 0.0000000000
0.0799153124 0.0092164492 0.0000000000
0.0928487640 0.0108224613 0.0000000000
0.1087243458 0.0147139887 0.0000000000
0.1271336404 0.0207823110 0.0000000000
0.1464856565 0.0281462196 0.0000000000
0.1678406577 0.0353007935 0.0000000000
0.1919532502 0.0423504616 0.0000000000
0.2178003643 0.0500033379 0.0000059606
0.2460269322 0.0583962768 0.0000095369
0.2757815480 0.0672159915 0.0000000000
0.3081936179 0.0768573091 0.0000138285
0.3425252251 0.0873841268 0.0000050069
0.3780050736 0.0985027085 0.0000152590
0.4161335546 0.1106474594 0.0000000000
0.4547174220 0.1233892195 0.0000000000
0.4952286946 0.1369940681 0.0000040532
0.5348210880 0.1514534218 0.0000152590
0.5708266575 0.1667212654 0.0000152590
0.6032997635 0.1844577325 0.0000152590
0.6323677234 0.2023486973 0.0000152590
0.6606765469 0.2216544594 0.0000066758
0.6868972686 0.2416781109 0.0000102522
0.7115572786 0.2626320859 0.0000166896
0.7358718147 0.2845244907 0.0000131132
0.7600118257 0.3003852903 0.0000095369
0.7825634680 0.3139221885 0.0582222286
0.8028930152 0.3386453803 0.0960255016
0.8229355020 0.3670557717 0.1237158579
0.8422760739 0.3985427634 0.1511434730
0.8607051575 0.4329726005 0.1798661975
0.8787570573 0.4703021286 0.2111429007
0.8957928016 0.5101892119 0.2452224956
0.9122453651 0.5491493095 0.2827725643
0.9280315385 0.5850354295 0.3231670100
0.9431901846 0.6171721218 0.3642180705
0.9580512799 0.6462746529 0.4058921283
0.9720140002 0.6717917906 0.4461413748
0.9855971523 0.6953386072 0.4867077230
0.9981012055 0.7167005226 0.5249847410
1.0000000000 0.7364509422 0.5588156615
1.0000000000 0.7542954147 0.5880579080
1.0000000000 0.7718385214 0.6167334249
1.0000000000 0.7895013161 0.6468780995
1.0000000000 0.8060196841 0.6754932956
1.0000000000 0.8202916381 0.7001783398
1.0000000000 0.8318372339 0.7198155089
1.0000000000 0.8463530938 0.7444285496
1.0000000000 0.8608901732 0.7687671664
1.0000000000 0.8746471351 0.7915770199
0.0011596857 0.0015411612 0.0014343481
0.0011596857 0.0015411612 0.0014343481
0.0011596857 0.0015411612 0.0014343481
0.0011596857 0.0015411612 0.0014343481
0.0011596857 0.0015411612 0.0014343481
0.0011596857 0.0015411612 0.0014343481
0.0028849088 0.0000929847 0.0002808614
0.0093530652 0.0006239509 0.0000000000
0.0153849088 0.0012169070 0.0000000000
0.0212274453 0.0018797208 0.0000000000
0.0271691653 0.0025720989 0.0000000000
0.0335448138 0.0033486400 0.0000000000
0.0407835508 0.0042563134 0.0000000000
0.0488171874 0.0052727073 0.0000000000
0.0580829900 0.0064564736 0.0000000000
0.0684209773 0.0077689879 0.0000000000
0.0799153124 0.0092164492 0.0000000000
0.0928487640 0.0108224613 0.0000000000
0.1087243458 0.0147139887 0.0000000000
0.1271336404 0.0207823110 0.0000000000
0.1464856565 0.0281462196 0.0000000000
0.1678406577 0.0353007935 0.0000000000
0.1919532502 0.0423504616 0.0000000000
0.2178003643 0.0500033379 0.0000059606
0.2460269322 0.0583962768 0.0000095369
0.2757815480 0.0672159915 0.0000000000
0.3081936179 0.0768573091 0.0000138285
0.3425252251 0.0873841268 0.0000050069
0.3780050736 0.0985027085 0.0000152590
0.4161335546 0.1106474594 0.0000000000
0.4547174220 0.1233892195 0.0000000000
0.4952286946 0.1369940681 0.0000040532
0.5348210880 0.1514534218 0.0000152590
0.5708266575 0.1667212654 0.0000152590
0.6032997635 0.1844577325 0.0000152590
0.6323677234 0.2023486973 0.0000152590
0.6606765469 0.2216544594 0.0000066758
0.6868972686 0.2416781109 0.0000102522
0.7115572786 0.2626320859 0.0000166896
0.7358718147 0.2845244907 0.0000131132
0.7600118257 0.3003852903 0.0000095369
0.7825634680 0.3139221885 0.0582222286
0.8028930152 0.3386453803 0.0960255016
0.8229355020 0.3670557717 0.1237158579
0.8422760739 0.3985427634 0.1511434730
0.8607051575 0.4329726005 0.1798661975
0.8787570573 0.4703021286 0.2111429007
0.8957928016 0.5101892119 0.2452224956
0.9122453651 0.5491493095 0.2827725643
0.9280315385 0.5850354295 0.3231670100
0.9431901846 0.6171721218 0.3642180705
0.9580512799 0.6462746529 0.4058921283
0.9720140002 0.6717917906 0.4461413748
0.9855971523 0.6953386072 0.4867077230
0.9981012055 0.7167005226 0.5249847410
1.0000000000 0.7364509422 0.5588156615
1.0000000000 0.7542954147 0.5880579080
1.0000000000 0.7718385214 0.6167334249
1.0000000000 0.7895013161 0.6468780995
1.0000000000 0.8060196841 0.6754932956
1.0000000000 0.8202916381 0.7001783398
1.0000000000 0.8318372339 0.7198155089
1.0000000000 0.8463530938 0.7444285496
1.0000000000 0.8608901732 0.7687671664
1.0000000000 0.8746471351 0.7915770199
0.0011596857 0.0015411612 0.0014343481
0.0011596857 0.0015411612 0.0014343481
0.0011596857 0.0015411612 0.0014343481
0.0011596857 0.0015411612 0.0014343481
0.0011596857 0.0015411612 0.0014343481
0.0011596857 0.0015411612 0.0014343481
0.0028849088 0.0000929847 0.0002808614
0.0093530652 0.0006239509 0.0000000000
0.0153849088 0.0012169070 0.0000000000
0.0212274453 0.0018797208 0.0000000000
0.0271691653 0.0025720989 0.0000000000
0.0335448138 0.0033486400 0.0000000000
0.0407835508 0.0042563134 0.0000000000
0.0488171874 0.0052727073 0.0000000000
0.0580829900 0.0064564736 0.0000000000
0.0684209773 0.0077689879 0.0000000000
0.0799153124 0.0092164492 0.0000000000
0.0928487640 0.0108224613 0.0000000000
0.1087243458 0.0147139887 0.0000000000
0.1271336404 0.0207823110 0.0000000000
0.1464856565 0.0281462196 0.0000000000
0.1678406577 0.0353007935 0.0000000000
0.1919532502 0.0423504616 0.0000000000
0.2178003643 0.0500033379 0.0000059606
0.2460269322 0.0583962768 0.0000095369
0.2757815480 0.0672159915 0.0000000000
0.3081936179 0.0768573091 0.0000138285
0.3425252251 0.0873841268 0.0000050069
0.3780050736 0.0985027085 0.0000152590
0.4161335546 0.1106474594 0.0000000000
0.4547174220 0.1233892195 0.0000000000
0.4952286946 0.1369940681 0.0000040532
0.5348210880 0.1514534218 0.0000152590
0.5708266575 0.1667212654 0.0000152590
0.6032997635 0.1844577325 0.0000152590
0.6323677234 0.2023486973 0.0000152590
0.6606765469 0.2216544594 0.0000066758
0.6868972686 0.2416781109 0.0000102522
0.7115572786 0.2626320859 0.0000166896
0.7358718147 0.2845244907 0.0000131132
0.7600118257 0.3003852903 0.0000095369
0.7825634680 0.3139221885 0.0582222286
0.8028930152 0.3386453803 0.0960255016
0.8229355020 0.3670557717 0.1237158579
0.8422760739 0.3985427634 0.1511434730
0.8607051575 0.4329726005 0.1798661975
0.8787570573 0.4703021286 0.2111429007
0.8957928016 0.5101892119 0.2452224956
0.9122453651 0.5491493095 0.2827725643
0.9280315385 0.5850354295 0.3231670100
0.9431901846 0.6171721218 0.3642180705
0.9580512799 0.6462746529 0.4058921283
0.9720140002 0.6717917906 0.4461413748
0.9855971523 0.6953386072 0.4867077230
0.9981012055 0.7167005226 0.5249847410
1.0000000000 0.7364509422 0.5588156615
1.0000000000 0.7542954147 0.5880579080
1.0000000000 0.7718385214 0.6167334249
1.0000000000 0.7895013161 0.6468780995
1.0000000000 0.8060196841 0.6754932956
1.0000000000 0.8202916381 0.7001783398
1.0000000000 0.8318372339 0.7198155089
1.0000000000 0.8463530938 0.7444285496
1.0000000000 0.8608901732 0.7687671664
1.0000000000 0.8746471351 0.7915770199
0.0000000000 0.0035629816 0.0000000000
0.0000000000 0.0035629816 0.0000000000
0.0000000000 0.0035629816 0.0000000000
0.0000000000 0.0035629816 0.0000000000
0.0000000000 0.0035629816 0.0000000000
0.0000000000 0.0035629816 0.0000000000
0.0043135348 0.0043531128 0.0000000000
0.0106209945 0.0045660239 0.0000000000
0.0163524262 0.0038152323 0.0000000000
0.0220728904 0.0041070611 0.0000000000
0.0278019379 0.0042873083 0.0000000000
0.0340831712 0.0044425212 0.0000000000
0.0411602579 0.0047398337 0.0000000000
0.0490093557 0.0053490024 0.0000000000
0.0582098306 0.0064731632 0.0000000000
0.0685182536 0.0077830549 0.0000000000
0.0802266918 0.0093966964 0.0000000000
0.0934712844 0.0115107862 0.0000000000
0.1095597772 0.0156366827 0.0000000000
0.1276648451 0.0218695163 0.0000000000
0.1468175402 0.0288629168 0.0000000000
0.1684381437 0.0359736210 0.0000000000
0.1923533227 0.0428988327 0.0000000000
0.2183511196 0.0505517090 0.0000059606
0.2465681506 0.0588774128 0.0000119211
0.2764085985 0.0676976043 0.0000000000
0.3089012551 0.0773622873 0.0000104906
0.3430724041 0.0878082799 0.0000090600
0.3788333524 0.0989833677 0.0000085832
0.4169217784 0.1110871099 0.0000121595
0.4554207675 0.1237830930 0.0000090600
0.4963106546 0.1375014305 0.0000152590
0.5353813802 0.1518325132 0.0000152590
0.5717269398 0.1672419795 0.0000131132
0.6038476577 0.1848511292 0.0000157359
0.6332067311 0.2029397459 0.0000152590
0.6612697414 0.2222338254 0.0000128748
0.6875722419 0.2422822728 0.0000214580
0.7122458419 0.2632686732 0.0000200275
0.7363577192 0.2850132563 0.0000202659
0.7608477340 0.3005865187 0.0000119211
0.7830074102 0.3144223983 0.0598992905
0.8034313725 0.3393964103 0.0968647478
0.8234938869 0.3679171912 0.1245131418
0.8426475357 0.3992222667 0.1516865988
0.8613109884 0.4340426394 0.1808558881
0.8791590372 0.4712095636 0.2119611658
0.8963457027 0.5114969577 0.2464076925
0.9128809987 0.5504181926 0.2842636568
0.9285412852 0.5860158217 0.3244325551
0.9437466621 0.6181987678 0.3657277600
0.9584537366 0.6470154307 0.4070532444
0.9725270848 0.6726825360 0.4476329442
0.9859323739 0.6959947452 0.4878855287
0.9981851301 0.7174167430 0.5262459945
1.0000000000 0.7371082723 0.5599047742
1.0000000000 0.7550688563 0.5892967498
1.0000000000 0.7726324674 0.6180945773
1.0000000000 0.7900711452 0.6478580148
1.0000000000 0.8069089990 0.6770304036
1.0000000000 0.8209935531 0.7013427939
1.0000000000 0.8327735180 0.7214169909
1.0000000000 0.8472447929 0.7459267948
1.0000000000 0.8616290436 0.7699893187
1.0000000000 0.8755092699 0.7930037385
0.0000000000 0.0115208000 0.0000000000
0.0000000000 0.0115208000 0.0000000000
0.0000000000 0.0115208000 0.0000000000
0.0000000000 0.0115208000 0.0000000000
0.0000000000 0.0115208000 0.0000000000
0.0000000000 0.0115208000 0.0000000000
0.0048778801 0.0122169928 0.0000000000
0.0141789693 0.0141942283 0.0000000000
0.0205887121 0.0146581979 0.0000000000
0.0264038300 0.0152263581 0.0000000000
0.0320043679 0.0154974441 0.0000000000
0.0382946612 0.0157942798 0.0000000000
0.0453603037 0.0160372320 0.0000000000
0.0532871271 0.0162911517 0.0000000000
0.0623443103 0.0166256580 0.0000000000
0.0724717708 0.0170588712 0.0000000000
0.0842247940 0.0183029583 0.0000000000
0.0974033436 0.0204916743 0.0000000000
0.1122045949 0.0234926947 0.0000000000
0.1293397612 0.0277833410 0.0000000000
0.1482762074 0.0330565251 0.0000000000
0.1694273575 0.0389350633 0.0000000000
0.1932254711 0.0451655127 0.0000000000
0.2193062390 0.0523384451 0.0000059606
0.2475859751 0.0602311742 0.0000000000
0.2775639925 0.0687871939 0.0000033379
0.3098721103 0.0782818818 0.0000069142
0.3436169604 0.0884935054 0.0000050069
0.3799694343 0.0996681163 0.0000054837
0.4180266270 0.1117208362 0.0000030995
0.4566524567 0.1244177729 0.0000092985
0.4975187400 0.1380853265 0.0000097753
0.5365939956 0.1524576562 0.0000152590
0.5728878176 0.1678902495 0.0000152590
0.6048924239 0.1855318246 0.0000152590
0.6347445544 0.2038660163 0.0000128748
0.6622758831 0.2231126497 0.0000305180
0.6889646277 0.2434376669 0.0000255112
0.7136937800 0.2644147688 0.0000178817
0.7376916915 0.2862518597 0.0000228885
0.7624270428 0.3011019875 0.0000193122
0.7840483616 0.3155816072 0.0631308652
0.8048378252 0.3412751774 0.0990129320
0.8248373960 0.3700000477 0.1263854715
0.8440520809 0.4017109178 0.1538118944
0.8629215305 0.4369573510 0.1834632734
0.8806174659 0.4742451553 0.2146493763
0.8979984455 0.5149304761 0.2495484283
0.9142154479 0.5533574617 0.2874318112
0.9299396315 0.5889574750 0.3280427443
0.9450064851 0.6206311513 0.3691939422
0.9597116522 0.6492325189 0.4106281472
0.9736626898 0.6748769741 0.4512724594
0.9870825227 0.6980971523 0.4916428244
0.9985890173 0.7193462940 0.5295393206
1.0000000000 0.7391315232 0.5633111124
1.0000000000 0.7569972152 0.5925218872
1.0000000000 0.7745262551 0.6212374590
1.0000000000 0.7920705539 0.6513103685
1.0000000000 0.8089382105 0.6805154211
1.0000000000 0.8228274968 0.7044060426
1.0000000000 0.8347505150 0.7247739757
1.0000000000 0.8490937572 0.7490534638
1.0000000000 0.8635640784 0.7732511730
1.0000000000 0.8772728790 0.7958853094
0.0000000000 0.0190794995 0.0000000000
0.0000000000 0.0190794995 0.0000000000
0.0000000000 0.0190794995 0.0000000000
0.0000000000 0.0190794995 0.0000000000
0.0000000000 0.0190794995 0.0000000000
0.0000000000 0.0190794995 0.0000000000
0.0034342336 0.0195577745 0.0000000000
0.0154497597 0.0216527905 0.0000000000
0.0233825437 0.0234264134 0.0000000000
0.0298025387 0.0240670539 0.0000000000
0.0358024338 0.0245808537 0.0000000000
0.0425178340 0.0251413844 0.0000000000
0.0496776532 0.0258287556 0.0000000000
0.0575806344 0.0267590791 0.0000000000
0.0664725910 0.0278014611 0.0000000000
0.0766212711 0.0286185340 0.0000000000
0.0882200351 0.0298599985 0.0000000000
0.1010020886 0.0313041218 0.0000000000
0.1154430838 0.0337438964 0.0000000000
0.1321326390 0.0367792496 0.0000000000
0.1506418326 0.0406176089 0.0000000000
0.1714234283 0.0452458610 0.0000000000
0.1950441558 0.0504787518 0.0000000000
0.2208524071 0.0566686694 0.0000073911
0.2488860914 0.0636930648 0.0000038148
0.2788891432 0.0716322862 0.0000131132
0.3109478714 0.0805819409 0.0000014305
0.3448770218 0.0904154269 0.0000102522
0.3816557946 0.1013113222 0.0000019074
0.4194020848 0.1131089303 0.0000133516
0.4587205310 0.1257066835 0.0000147822
0.4994859617 0.1393272679 0.0000152590
0.5384622721 0.1535515373 0.0000152590
0.5743953613 0.1690630484 0.0000021458
0.6063692111 0.1866402495 0.0000147822
0.6365560864 0.2051737621 0.0000183585
0.6636520562 0.2242895018 0.0000085832
0.6904132811 0.2448846513 0.0000205043
0.7151579309 0.2656629091 0.0000133516
0.7390619039 0.2874582761 0.0000243191
0.7640650034 0.3016689555 0.0000209812
0.7856090734 0.3173719196 0.0673301957
0.8064230945 0.3432502670 0.1012273976
0.8263034543 0.3722681582 0.1283722438
0.8456206607 0.4044995041 0.1561598764
0.8642826829 0.4396727417 0.1856560426
0.8820992599 0.4776135843 0.2175168803
0.8994132429 0.5182941367 0.2526126307
0.9154859998 0.5563344015 0.2906195163
0.9311253052 0.5916211280 0.3313799401
0.9461194400 0.6228727970 0.3722695888
0.9608975643 0.6515061131 0.4139536603
0.9750419623 0.6772526131 0.4552119097
0.9883945602 0.7003325990 0.4956659609
0.9991073472 0.7215176051 0.5333371481
1.0000000000 0.7409857328 0.5663715000
1.0000000000 0.7589379721 0.5957141222
1.0000000000 0.7763153754 0.6242234588
1.0000000000 0.7940408751 0.6546921492
1.0000000000 0.8109507324 0.6839732586
1.0000000000 0.8248054475 0.7078364614
1.0000000000 0.8366345274 0.7280515660
1.0000000000 0.8507948997 0.7519340810
1.0000000000 0.8654035058 0.7762939174
1.0000000000 0.8788643473 0.7984988937
0.0000000000 0.0262757973 0.0000000000
0.0000000000 0.0262757973 0.0000000000
0.0000000000 0.0262757973 0.0000000000
0.0000000000 0.0262757973 0.0000000000
0.0000000000 0.0262757973 0.0000000000
0.0000000000 0.0262757973 0.0000000000
0.0033066777 0.0266968509 0.0000000000
0.0164585241 0.0288099870 0.0000000000
0.0250097753 0.0307619497 0.0000000000
0.0322168021 0.0322930972 0.0000000000
0.0386787594 0.0329809453 0.0000000000
0.0454716468 0.0336926356 0.0000000000
0.0535005150 0.0343809606 0.0000000000
0.0622868505 0.0352233062 0.0001933604
0.0713585775 0.0359488251 0.0002503433
0.0817130159 0.0370958743 0.0000000000
0.0926434825 0.0386494335 0.0000000000
0.1047801270 0.0406657702 0.0000000000
0.1190687705 0.0426675631 0.0000000000
0.1353549153 0.0454778458 0.0000000000
0.1535355631 0.0487776093 0.0000000000
0.1739878977 0.0526951247 0.0000000000
0.1971909094 0.0571192874 0.0000000000
0.2226935035 0.0623919947 0.0000016690
0.2506201362 0.0685904955 0.0000057221
0.2806663424 0.0759088655 0.0000016690
